(VECTRIC POST REVISION)
(2410E23C85915A17A0D6BB4BFA509A68)
T1
G17
G21
G90
G0Z50.500
G0X0.000Y0.000
S19000M3
G0X8.337Y9.130
G0Z50.500
G1Z48.500F203.2
G1X8.281Y9.127Z48.477
G1X8.223Y9.115Z48.453
G1X8.166Y9.095Z48.429
G1X8.110Y9.065Z48.403
G1X8.059Y9.027Z48.377
G1X8.014Y8.982Z48.351
G1X7.976Y8.931Z48.325
G1X7.947Y8.875Z48.300
G1X7.926Y8.818Z48.275
G1X7.914Y8.760Z48.251
G1X7.911Y8.704Z48.228
G1X7.915Y8.642Z48.203
G1X7.930Y8.579Z48.177
G1X7.954Y8.516Z48.149
G1X7.990Y8.457Z48.121
G1X8.036Y8.403Z48.092
G1X8.089Y8.357Z48.064
G1X8.149Y8.322Z48.036
G1X8.212Y8.297Z48.008
G1X8.275Y8.282Z47.982
G1X8.337Y8.278Z47.957
G1X8.398Y8.282Z47.932
G1X8.461Y8.296Z47.905
G1X8.524Y8.321Z47.878
G1X8.583Y8.356Z47.850
G1X8.636Y8.401Z47.822
G1X8.682Y8.453Z47.794
G1X8.717Y8.512Z47.766
G1X8.743Y8.574Z47.738
G1X8.758Y8.637Z47.712
G1X8.763Y8.698Z47.688
G1X8.758Y8.637Z47.663
G1X8.743Y8.574Z47.636
G1X8.717Y8.512Z47.609
G1X8.682Y8.453Z47.581
G1X8.636Y8.401Z47.553
G1X8.583Y8.356Z47.525
G1X8.524Y8.321Z47.497
G1X8.461Y8.296Z47.469
G1X8.398Y8.282Z47.443
G1X8.337Y8.278Z47.418
G1X8.275Y8.282Z47.393
G1X8.212Y8.297Z47.367
G1X8.149Y8.322Z47.339
G1X8.089Y8.357Z47.311
G1X8.036Y8.403Z47.282
G1X7.990Y8.457Z47.254
G1X7.954Y8.516Z47.226
G1X7.930Y8.579Z47.198
G1X7.915Y8.642Z47.172
G1X7.911Y8.704Z47.147
G1X7.914Y8.760Z47.124
G1X7.926Y8.818Z47.100
G1X7.947Y8.875Z47.075
G1X7.976Y8.931Z47.050
G1X8.014Y8.982Z47.024
G1X8.059Y9.027Z46.998
G1X8.110Y9.065Z46.972
G1X8.166Y9.095Z46.946
G1X8.223Y9.115Z46.921
G1X8.281Y9.127Z46.898
G1X8.337Y9.130Z46.875
G3X7.911Y8.704I0.000J-0.426F711.2
G3X8.337Y8.278I0.426J0.000
G3X8.763Y8.704I0.000J0.426
G3X8.337Y9.130I-0.426J0.000
G1Y9.607
G3X7.434Y8.704I0.000J-0.903
G3X8.337Y7.802I0.903J0.000
G3X9.239Y8.704I0.000J0.902
G3X8.337Y9.607I-0.903J0.000
G1Y10.083
G3X6.958Y8.704I0.000J-1.379
G3X8.337Y7.325I1.379J0.000
G3X9.716Y8.704I0.000J1.379
G3X8.337Y10.083I-1.379J0.000
G1Y10.559
G3X6.482Y8.704I0.000J-1.855
G3X8.337Y6.849I1.855J0.000
G3X10.192Y8.704I0.000J1.855
G3X8.337Y10.559I-1.855J0.000
G1Y11.035
G3X6.006Y8.704I0.000J-2.331
G3X8.337Y6.373I2.331J0.000
G3X10.668Y8.704I0.000J2.331
G3X8.337Y11.035I-2.331J0.000
G1Y10.559
G1Y10.083
G1Y9.607
G1Y9.130
G1X8.281Y9.127Z46.852F203.2
G1X8.223Y9.115Z46.828
G1X8.166Y9.095Z46.804
G1X8.110Y9.065Z46.778
G1X8.059Y9.027Z46.752
G1X8.014Y8.982Z46.726
G1X7.976Y8.931Z46.700
G1X7.947Y8.875Z46.675
G1X7.926Y8.818Z46.650
G1X7.914Y8.760Z46.626
G1X7.911Y8.704Z46.603
G1X7.915Y8.642Z46.578
G1X7.930Y8.579Z46.552
G1X7.954Y8.516Z46.524
G1X7.990Y8.457Z46.496
G1X8.036Y8.403Z46.467
G1X8.089Y8.357Z46.439
G1X8.149Y8.322Z46.411
G1X8.212Y8.297Z46.383
G1X8.275Y8.282Z46.357
G1X8.337Y8.278Z46.332
G1X8.398Y8.282Z46.307
G1X8.461Y8.296Z46.280
G1X8.524Y8.321Z46.253
G1X8.583Y8.356Z46.225
G1X8.636Y8.401Z46.197
G1X8.682Y8.453Z46.169
G1X8.717Y8.512Z46.141
G1X8.743Y8.574Z46.113
G1X8.758Y8.637Z46.087
G1X8.763Y8.698Z46.062
G1X8.758Y8.637Z46.038
G1X8.743Y8.574Z46.011
G1X8.717Y8.512Z45.984
G1X8.682Y8.453Z45.956
G1X8.636Y8.401Z45.928
G1X8.583Y8.356Z45.900
G1X8.524Y8.321Z45.872
G1X8.461Y8.296Z45.844
G1X8.398Y8.282Z45.818
G1X8.337Y8.278Z45.793
G1X8.275Y8.282Z45.768
G1X8.212Y8.297Z45.742
G1X8.149Y8.322Z45.714
G1X8.089Y8.357Z45.686
G1X8.036Y8.403Z45.657
G1X7.990Y8.457Z45.629
G1X7.954Y8.516Z45.601
G1X7.930Y8.579Z45.573
G1X7.915Y8.642Z45.547
G1X7.911Y8.704Z45.522
G1X7.914Y8.760Z45.499
G1X7.926Y8.818Z45.475
G1X7.947Y8.875Z45.450
G1X7.976Y8.931Z45.425
G1X8.014Y8.982Z45.399
G1X8.059Y9.027Z45.373
G1X8.110Y9.065Z45.347
G1X8.166Y9.095Z45.321
G1X8.223Y9.115Z45.296
G1X8.281Y9.127Z45.273
G1X8.337Y9.130Z45.250
G3X7.911Y8.704I0.000J-0.426F711.2
G3X8.337Y8.278I0.426J0.000
G3X8.763Y8.704I0.000J0.426
G3X8.337Y9.130I-0.426J0.000
G1Y9.607
G3X7.434Y8.704I0.000J-0.903
G3X8.337Y7.802I0.903J0.000
G3X9.239Y8.704I0.000J0.902
G3X8.337Y9.607I-0.903J0.000
G1Y10.083
G3X6.958Y8.704I0.000J-1.379
G3X8.337Y7.325I1.379J0.000
G3X9.716Y8.704I0.000J1.379
G3X8.337Y10.083I-1.379J0.000
G1Y10.559
G3X6.482Y8.704I0.000J-1.855
G3X8.337Y6.849I1.855J0.000
G3X10.192Y8.704I0.000J1.855
G3X8.337Y10.559I-1.855J0.000
G1Y11.035
G3X6.006Y8.704I0.000J-2.331
G3X8.337Y6.373I2.331J0.000
G3X10.668Y8.704I0.000J2.331
G3X8.337Y11.035I-2.331J0.000
G1Y10.559
G1Y10.083
G1Y9.607
G1Y9.130
G1X8.281Y9.127Z45.227F203.2
G1X8.223Y9.115Z45.203
G1X8.166Y9.095Z45.179
G1X8.110Y9.065Z45.153
G1X8.059Y9.027Z45.127
G1X8.014Y8.982Z45.101
G1X7.976Y8.931Z45.075
G1X7.947Y8.875Z45.050
G1X7.926Y8.818Z45.025
G1X7.914Y8.760Z45.001
G1X7.911Y8.704Z44.978
G1X7.915Y8.642Z44.953
G1X7.930Y8.579Z44.927
G1X7.954Y8.516Z44.899
G1X7.990Y8.457Z44.871
G1X8.036Y8.403Z44.842
G1X8.089Y8.357Z44.814
G1X8.149Y8.322Z44.786
G1X8.212Y8.297Z44.758
G1X8.275Y8.282Z44.732
G1X8.337Y8.278Z44.707
G1X8.398Y8.282Z44.682
G1X8.461Y8.296Z44.655
G1X8.524Y8.321Z44.628
G1X8.583Y8.356Z44.600
G1X8.636Y8.401Z44.572
G1X8.682Y8.453Z44.544
G1X8.717Y8.512Z44.516
G1X8.743Y8.574Z44.488
G1X8.758Y8.637Z44.462
G1X8.763Y8.698Z44.438
G1X8.758Y8.637Z44.413
G1X8.743Y8.574Z44.386
G1X8.717Y8.512Z44.359
G1X8.682Y8.453Z44.331
G1X8.636Y8.401Z44.303
G1X8.583Y8.356Z44.275
G1X8.524Y8.321Z44.247
G1X8.461Y8.296Z44.219
G1X8.398Y8.282Z44.193
G1X8.337Y8.278Z44.168
G1X8.275Y8.282Z44.143
G1X8.212Y8.297Z44.117
G1X8.149Y8.322Z44.089
G1X8.089Y8.357Z44.061
G1X8.036Y8.403Z44.032
G1X7.990Y8.457Z44.004
G1X7.954Y8.516Z43.976
G1X7.930Y8.579Z43.948
G1X7.915Y8.642Z43.922
G1X7.911Y8.704Z43.897
G1X7.914Y8.760Z43.874
G1X7.926Y8.818Z43.850
G1X7.947Y8.875Z43.825
G1X7.976Y8.931Z43.800
G1X8.014Y8.982Z43.774
G1X8.059Y9.027Z43.748
G1X8.110Y9.065Z43.722
G1X8.166Y9.095Z43.696
G1X8.223Y9.115Z43.671
G1X8.281Y9.127Z43.648
G1X8.337Y9.130Z43.625
G3X7.911Y8.704I0.000J-0.426F711.2
G3X8.337Y8.278I0.426J0.000
G3X8.763Y8.704I0.000J0.426
G3X8.337Y9.130I-0.426J0.000
G1Y9.607
G3X7.434Y8.704I0.000J-0.903
G3X8.337Y7.802I0.903J0.000
G3X9.239Y8.704I0.000J0.902
G3X8.337Y9.607I-0.903J0.000
G1Y10.083
G3X6.958Y8.704I0.000J-1.379
G3X8.337Y7.325I1.379J0.000
G3X9.716Y8.704I0.000J1.379
G3X8.337Y10.083I-1.379J0.000
G1Y10.559
G3X6.482Y8.704I0.000J-1.855
G3X8.337Y6.849I1.855J0.000
G3X10.192Y8.704I0.000J1.855
G3X8.337Y10.559I-1.855J0.000
G1Y11.035
G3X6.006Y8.704I0.000J-2.331
G3X8.337Y6.373I2.331J0.000
G3X10.668Y8.704I0.000J2.331
G3X8.337Y11.035I-2.331J0.000
G1Y10.559
G1Y10.083
G1Y9.607
G1Y9.130
G1X8.281Y9.127Z43.602F203.2
G1X8.223Y9.115Z43.578
G1X8.166Y9.095Z43.554
G1X8.110Y9.065Z43.528
G1X8.059Y9.027Z43.502
G1X8.014Y8.982Z43.476
G1X7.976Y8.931Z43.450
G1X7.947Y8.875Z43.425
G1X7.926Y8.818Z43.400
G1X7.914Y8.760Z43.376
G1X7.911Y8.704Z43.353
G1X7.915Y8.642Z43.328
G1X7.930Y8.579Z43.302
G1X7.954Y8.516Z43.274
G1X7.990Y8.457Z43.246
G1X8.036Y8.403Z43.217
G1X8.089Y8.357Z43.189
G1X8.149Y8.322Z43.161
G1X8.212Y8.297Z43.133
G1X8.275Y8.282Z43.107
G1X8.337Y8.278Z43.082
G1X8.398Y8.282Z43.057
G1X8.461Y8.296Z43.030
G1X8.524Y8.321Z43.003
G1X8.583Y8.356Z42.975
G1X8.636Y8.401Z42.947
G1X8.682Y8.453Z42.919
G1X8.717Y8.512Z42.891
G1X8.743Y8.574Z42.863
G1X8.758Y8.637Z42.837
G1X8.763Y8.698Z42.812
G1X8.758Y8.637Z42.788
G1X8.743Y8.574Z42.761
G1X8.717Y8.512Z42.734
G1X8.682Y8.453Z42.706
G1X8.636Y8.401Z42.678
G1X8.583Y8.356Z42.650
G1X8.524Y8.321Z42.622
G1X8.461Y8.296Z42.594
G1X8.398Y8.282Z42.568
G1X8.337Y8.278Z42.543
G1X8.275Y8.282Z42.518
G1X8.212Y8.297Z42.492
G1X8.149Y8.322Z42.464
G1X8.089Y8.357Z42.436
G1X8.036Y8.403Z42.407
G1X7.990Y8.457Z42.379
G1X7.954Y8.516Z42.351
G1X7.930Y8.579Z42.323
G1X7.915Y8.642Z42.297
G1X7.911Y8.704Z42.272
G1X7.914Y8.760Z42.249
G1X7.926Y8.818Z42.225
G1X7.947Y8.875Z42.200
G1X7.976Y8.931Z42.175
G1X8.014Y8.982Z42.149
G1X8.059Y9.027Z42.123
G1X8.110Y9.065Z42.097
G1X8.166Y9.095Z42.071
G1X8.223Y9.115Z42.046
G1X8.281Y9.127Z42.023
G1X8.337Y9.130Z42.000
G3X7.911Y8.704I0.000J-0.426F711.2
G3X8.337Y8.278I0.426J0.000
G3X8.763Y8.704I0.000J0.426
G3X8.337Y9.130I-0.426J0.000
G1Y9.607
G3X7.434Y8.704I0.000J-0.903
G3X8.337Y7.802I0.903J0.000
G3X9.239Y8.704I0.000J0.902
G3X8.337Y9.607I-0.903J0.000
G1Y10.083
G3X6.958Y8.704I0.000J-1.379
G3X8.337Y7.325I1.379J0.000
G3X9.716Y8.704I0.000J1.379
G3X8.337Y10.083I-1.379J0.000
G1Y10.559
G3X6.482Y8.704I0.000J-1.855
G3X8.337Y6.849I1.855J0.000
G3X10.192Y8.704I0.000J1.855
G3X8.337Y10.559I-1.855J0.000
G1Y11.035
G3X6.006Y8.704I0.000J-2.331
G3X8.337Y6.373I2.331J0.000
G3X10.668Y8.704I0.000J2.331
G3X8.337Y11.035I-2.331J0.000
G0Z50.500
G0Y45.322
G1Z48.500F203.2
G1X8.281Y45.318Z48.477
G1X8.223Y45.307Z48.453
G1X8.166Y45.286Z48.429
G1X8.110Y45.257Z48.403
G1X8.059Y45.219Z48.377
G1X8.014Y45.174Z48.351
G1X7.976Y45.122Z48.325
G1X7.947Y45.067Z48.300
G1X7.926Y45.009Z48.275
G1X7.914Y44.952Z48.251
G1X7.911Y44.896Z48.228
G1X7.915Y44.834Z48.203
G1X7.930Y44.771Z48.177
G1X7.954Y44.708Z48.149
G1X7.990Y44.648Z48.121
G1X8.036Y44.594Z48.092
G1X8.089Y44.549Z48.064
G1X8.149Y44.513Z48.036
G1X8.212Y44.488Z48.008
G1X8.275Y44.474Z47.982
G1X8.337Y44.470Z47.957
G1X8.398Y44.474Z47.932
G1X8.461Y44.488Z47.905
G1X8.524Y44.513Z47.878
G1X8.583Y44.548Z47.850
G1X8.636Y44.592Z47.822
G1X8.682Y44.645Z47.794
G1X8.717Y44.704Z47.766
G1X8.743Y44.766Z47.738
G1X8.758Y44.828Z47.712
G1X8.763Y44.890Z47.688
G1X8.758Y44.828Z47.663
G1X8.743Y44.766Z47.636
G1X8.717Y44.704Z47.609
G1X8.682Y44.645Z47.581
G1X8.636Y44.592Z47.553
G1X8.583Y44.548Z47.525
G1X8.524Y44.513Z47.497
G1X8.461Y44.488Z47.469
G1X8.398Y44.474Z47.443
G1X8.337Y44.470Z47.418
G1X8.275Y44.474Z47.393
G1X8.212Y44.488Z47.367
G1X8.149Y44.513Z47.339
G1X8.089Y44.549Z47.311
G1X8.036Y44.594Z47.282
G1X7.990Y44.648Z47.254
G1X7.954Y44.708Z47.226
G1X7.930Y44.771Z47.198
G1X7.915Y44.834Z47.172
G1X7.911Y44.896Z47.147
G1X7.914Y44.952Z47.124
G1X7.926Y45.009Z47.100
G1X7.947Y45.067Z47.075
G1X7.976Y45.122Z47.050
G1X8.014Y45.174Z47.024
G1X8.059Y45.219Z46.998
G1X8.110Y45.257Z46.972
G1X8.166Y45.286Z46.946
G1X8.223Y45.307Z46.921
G1X8.281Y45.318Z46.898
G1X8.337Y45.322Z46.875
G3X7.911Y44.896I0.000J-0.426F711.2
G3X8.337Y44.470I0.426J0.000
G3X8.763Y44.896I0.000J0.426
G3X8.337Y45.322I-0.426J0.000
G1Y45.798
G3X7.434Y44.896I0.000J-0.903
G3X8.337Y43.993I0.903J0.000
G3X9.239Y44.896I0.000J0.903
G3X8.337Y45.798I-0.903J0.000
G1Y46.275
G3X6.958Y44.896I0.000J-1.379
G3X8.337Y43.517I1.379J0.000
G3X9.716Y44.896I0.000J1.379
G3X8.337Y46.275I-1.379J0.000
G1Y46.751
G3X6.482Y44.896I0.000J-1.855
G3X8.337Y43.041I1.855J0.000
G3X10.192Y44.896I0.000J1.855
G3X8.337Y46.751I-1.855J0.000
G1Y47.227
G3X6.006Y44.896I0.000J-2.331
G3X8.337Y42.565I2.331J0.000
G3X10.668Y44.896I0.000J2.331
G3X8.337Y47.227I-2.331J0.000
G1Y46.751
G1Y46.275
G1Y45.798
G1Y45.322
G1X8.281Y45.318Z46.852F203.2
G1X8.223Y45.307Z46.828
G1X8.166Y45.286Z46.804
G1X8.110Y45.257Z46.778
G1X8.059Y45.219Z46.752
G1X8.014Y45.174Z46.726
G1X7.976Y45.122Z46.700
G1X7.947Y45.067Z46.675
G1X7.926Y45.009Z46.650
G1X7.914Y44.952Z46.626
G1X7.911Y44.896Z46.603
G1X7.915Y44.834Z46.578
G1X7.930Y44.771Z46.552
G1X7.954Y44.708Z46.524
G1X7.990Y44.648Z46.496
G1X8.036Y44.594Z46.467
G1X8.089Y44.549Z46.439
G1X8.149Y44.513Z46.411
G1X8.212Y44.488Z46.383
G1X8.275Y44.474Z46.357
G1X8.337Y44.470Z46.332
G1X8.398Y44.474Z46.307
G1X8.461Y44.488Z46.280
G1X8.524Y44.513Z46.253
G1X8.583Y44.548Z46.225
G1X8.636Y44.592Z46.197
G1X8.682Y44.645Z46.169
G1X8.717Y44.704Z46.141
G1X8.743Y44.766Z46.113
G1X8.758Y44.828Z46.087
G1X8.763Y44.890Z46.062
G1X8.758Y44.828Z46.038
G1X8.743Y44.766Z46.011
G1X8.717Y44.704Z45.984
G1X8.682Y44.645Z45.956
G1X8.636Y44.592Z45.928
G1X8.583Y44.548Z45.900
G1X8.524Y44.513Z45.872
G1X8.461Y44.488Z45.844
G1X8.398Y44.474Z45.818
G1X8.337Y44.470Z45.793
G1X8.275Y44.474Z45.768
G1X8.212Y44.488Z45.742
G1X8.149Y44.513Z45.714
G1X8.089Y44.549Z45.686
G1X8.036Y44.594Z45.657
G1X7.990Y44.648Z45.629
G1X7.954Y44.708Z45.601
G1X7.930Y44.771Z45.573
G1X7.915Y44.834Z45.547
G1X7.911Y44.896Z45.522
G1X7.914Y44.952Z45.499
G1X7.926Y45.009Z45.475
G1X7.947Y45.067Z45.450
G1X7.976Y45.122Z45.425
G1X8.014Y45.174Z45.399
G1X8.059Y45.219Z45.373
G1X8.110Y45.257Z45.347
G1X8.166Y45.286Z45.321
G1X8.223Y45.307Z45.296
G1X8.281Y45.318Z45.273
G1X8.337Y45.322Z45.250
G3X7.911Y44.896I0.000J-0.426F711.2
G3X8.337Y44.470I0.426J0.000
G3X8.763Y44.896I0.000J0.426
G3X8.337Y45.322I-0.426J0.000
G1Y45.798
G3X7.434Y44.896I0.000J-0.903
G3X8.337Y43.993I0.903J0.000
G3X9.239Y44.896I0.000J0.903
G3X8.337Y45.798I-0.903J0.000
G1Y46.275
G3X6.958Y44.896I0.000J-1.379
G3X8.337Y43.517I1.379J0.000
G3X9.716Y44.896I0.000J1.379
G3X8.337Y46.275I-1.379J0.000
G1Y46.751
G3X6.482Y44.896I0.000J-1.855
G3X8.337Y43.041I1.855J0.000
G3X10.192Y44.896I0.000J1.855
G3X8.337Y46.751I-1.855J0.000
G1Y47.227
G3X6.006Y44.896I0.000J-2.331
G3X8.337Y42.565I2.331J0.000
G3X10.668Y44.896I0.000J2.331
G3X8.337Y47.227I-2.331J0.000
G1Y46.751
G1Y46.275
G1Y45.798
G1Y45.322
G1X8.281Y45.318Z45.227F203.2
G1X8.223Y45.307Z45.203
G1X8.166Y45.286Z45.179
G1X8.110Y45.257Z45.153
G1X8.059Y45.219Z45.127
G1X8.014Y45.174Z45.101
G1X7.976Y45.122Z45.075
G1X7.947Y45.067Z45.050
G1X7.926Y45.009Z45.025
G1X7.914Y44.952Z45.001
G1X7.911Y44.896Z44.978
G1X7.915Y44.834Z44.953
G1X7.930Y44.771Z44.927
G1X7.954Y44.708Z44.899
G1X7.990Y44.648Z44.871
G1X8.036Y44.594Z44.842
G1X8.089Y44.549Z44.814
G1X8.149Y44.513Z44.786
G1X8.212Y44.488Z44.758
G1X8.275Y44.474Z44.732
G1X8.337Y44.470Z44.707
G1X8.398Y44.474Z44.682
G1X8.461Y44.488Z44.655
G1X8.524Y44.513Z44.628
G1X8.583Y44.548Z44.600
G1X8.636Y44.592Z44.572
G1X8.682Y44.645Z44.544
G1X8.717Y44.704Z44.516
G1X8.743Y44.766Z44.488
G1X8.758Y44.828Z44.462
G1X8.763Y44.890Z44.438
G1X8.758Y44.828Z44.413
G1X8.743Y44.766Z44.386
G1X8.717Y44.704Z44.359
G1X8.682Y44.645Z44.331
G1X8.636Y44.592Z44.303
G1X8.583Y44.548Z44.275
G1X8.524Y44.513Z44.247
G1X8.461Y44.488Z44.219
G1X8.398Y44.474Z44.193
G1X8.337Y44.470Z44.168
G1X8.275Y44.474Z44.143
G1X8.212Y44.488Z44.117
G1X8.149Y44.513Z44.089
G1X8.089Y44.549Z44.061
G1X8.036Y44.594Z44.032
G1X7.990Y44.648Z44.004
G1X7.954Y44.708Z43.976
G1X7.930Y44.771Z43.948
G1X7.915Y44.834Z43.922
G1X7.911Y44.896Z43.897
G1X7.914Y44.952Z43.874
G1X7.926Y45.009Z43.850
G1X7.947Y45.067Z43.825
G1X7.976Y45.122Z43.800
G1X8.014Y45.174Z43.774
G1X8.059Y45.219Z43.748
G1X8.110Y45.257Z43.722
G1X8.166Y45.286Z43.696
G1X8.223Y45.307Z43.671
G1X8.281Y45.318Z43.648
G1X8.337Y45.322Z43.625
G3X7.911Y44.896I0.000J-0.426F711.2
G3X8.337Y44.470I0.426J0.000
G3X8.763Y44.896I0.000J0.426
G3X8.337Y45.322I-0.426J0.000
G1Y45.798
G3X7.434Y44.896I0.000J-0.903
G3X8.337Y43.993I0.903J0.000
G3X9.239Y44.896I0.000J0.903
G3X8.337Y45.798I-0.903J0.000
G1Y46.275
G3X6.958Y44.896I0.000J-1.379
G3X8.337Y43.517I1.379J0.000
G3X9.716Y44.896I0.000J1.379
G3X8.337Y46.275I-1.379J0.000
G1Y46.751
G3X6.482Y44.896I0.000J-1.855
G3X8.337Y43.041I1.855J0.000
G3X10.192Y44.896I0.000J1.855
G3X8.337Y46.751I-1.855J0.000
G1Y47.227
G3X6.006Y44.896I0.000J-2.331
G3X8.337Y42.565I2.331J0.000
G3X10.668Y44.896I0.000J2.331
G3X8.337Y47.227I-2.331J0.000
G1Y46.751
G1Y46.275
G1Y45.798
G1Y45.322
G1X8.281Y45.318Z43.602F203.2
G1X8.223Y45.307Z43.578
G1X8.166Y45.286Z43.554
G1X8.110Y45.257Z43.528
G1X8.059Y45.219Z43.502
G1X8.014Y45.174Z43.476
G1X7.976Y45.122Z43.450
G1X7.947Y45.067Z43.425
G1X7.926Y45.009Z43.400
G1X7.914Y44.952Z43.376
G1X7.911Y44.896Z43.353
G1X7.915Y44.834Z43.328
G1X7.930Y44.771Z43.302
G1X7.954Y44.708Z43.274
G1X7.990Y44.648Z43.246
G1X8.036Y44.594Z43.217
G1X8.089Y44.549Z43.189
G1X8.149Y44.513Z43.161
G1X8.212Y44.488Z43.133
G1X8.275Y44.474Z43.107
G1X8.337Y44.470Z43.082
G1X8.398Y44.474Z43.057
G1X8.461Y44.488Z43.030
G1X8.524Y44.513Z43.003
G1X8.583Y44.548Z42.975
G1X8.636Y44.592Z42.947
G1X8.682Y44.645Z42.919
G1X8.717Y44.704Z42.891
G1X8.743Y44.766Z42.863
G1X8.758Y44.828Z42.837
G1X8.763Y44.890Z42.812
G1X8.758Y44.828Z42.788
G1X8.743Y44.766Z42.761
G1X8.717Y44.704Z42.734
G1X8.682Y44.645Z42.706
G1X8.636Y44.592Z42.678
G1X8.583Y44.548Z42.650
G1X8.524Y44.513Z42.622
G1X8.461Y44.488Z42.594
G1X8.398Y44.474Z42.568
G1X8.337Y44.470Z42.543
G1X8.275Y44.474Z42.518
G1X8.212Y44.488Z42.492
G1X8.149Y44.513Z42.464
G1X8.089Y44.549Z42.436
G1X8.036Y44.594Z42.407
G1X7.990Y44.648Z42.379
G1X7.954Y44.708Z42.351
G1X7.930Y44.771Z42.323
G1X7.915Y44.834Z42.297
G1X7.911Y44.896Z42.272
G1X7.914Y44.952Z42.249
G1X7.926Y45.009Z42.225
G1X7.947Y45.067Z42.200
G1X7.976Y45.122Z42.175
G1X8.014Y45.174Z42.149
G1X8.059Y45.219Z42.123
G1X8.110Y45.257Z42.097
G1X8.166Y45.286Z42.071
G1X8.223Y45.307Z42.046
G1X8.281Y45.318Z42.023
G1X8.337Y45.322Z42.000
G3X7.911Y44.896I0.000J-0.426F711.2
G3X8.337Y44.470I0.426J0.000
G3X8.763Y44.896I0.000J0.426
G3X8.337Y45.322I-0.426J0.000
G1Y45.798
G3X7.434Y44.896I0.000J-0.903
G3X8.337Y43.993I0.903J0.000
G3X9.239Y44.896I0.000J0.903
G3X8.337Y45.798I-0.903J0.000
G1Y46.275
G3X6.958Y44.896I0.000J-1.379
G3X8.337Y43.517I1.379J0.000
G3X9.716Y44.896I0.000J1.379
G3X8.337Y46.275I-1.379J0.000
G1Y46.751
G3X6.482Y44.896I0.000J-1.855
G3X8.337Y43.041I1.855J0.000
G3X10.192Y44.896I0.000J1.855
G3X8.337Y46.751I-1.855J0.000
G1Y47.227
G3X6.006Y44.896I0.000J-2.331
G3X8.337Y42.565I2.331J0.000
G3X10.668Y44.896I0.000J2.331
G3X8.337Y47.227I-2.331J0.000
G0Z50.500
G0X85.194Y45.322
G1Z48.500F203.2
G1X85.132Y45.318Z48.475
G1X85.069Y45.303Z48.448
G1X85.006Y45.278Z48.421
G1X84.946Y45.243Z48.393
G1X84.893Y45.197Z48.364
G1X84.847Y45.143Z48.336
G1X84.811Y45.084Z48.307
G1X84.786Y45.021Z48.280
G1X84.772Y44.958Z48.253
G1X84.768Y44.896Z48.228
G1X84.772Y44.834Z48.203
G1X84.786Y44.771Z48.177
G1X84.811Y44.708Z48.149
G1X84.847Y44.648Z48.121
G1X84.893Y44.594Z48.092
G1X84.946Y44.549Z48.064
G1X85.006Y44.513Z48.036
G1X85.069Y44.488Z48.008
G1X85.132Y44.474Z47.982
G1X85.194Y44.470Z47.957
G1X85.255Y44.474Z47.932
G1X85.318Y44.488Z47.905
G1X85.381Y44.513Z47.878
G1X85.440Y44.548Z47.850
G1X85.493Y44.592Z47.822
G1X85.539Y44.645Z47.794
G1X85.575Y44.704Z47.766
G1X85.600Y44.766Z47.738
G1X85.615Y44.829Z47.712
G1X85.620Y44.890Z47.688
G1X85.615Y44.829Z47.663
G1X85.600Y44.766Z47.636
G1X85.575Y44.704Z47.609
G1X85.539Y44.645Z47.581
G1X85.493Y44.592Z47.553
G1X85.440Y44.548Z47.525
G1X85.381Y44.513Z47.497
G1X85.318Y44.488Z47.469
G1X85.255Y44.474Z47.443
G1X85.194Y44.470Z47.418
G1X85.132Y44.474Z47.393
G1X85.069Y44.488Z47.367
G1X85.006Y44.513Z47.339
G1X84.946Y44.549Z47.311
G1X84.893Y44.594Z47.282
G1X84.847Y44.648Z47.254
G1X84.811Y44.708Z47.226
G1X84.786Y44.771Z47.198
G1X84.772Y44.834Z47.172
G1X84.768Y44.896Z47.146
G1X84.772Y44.958Z47.121
G1X84.786Y45.021Z47.095
G1X84.811Y45.084Z47.067
G1X84.847Y45.143Z47.039
G1X84.893Y45.197Z47.011
G1X84.946Y45.243Z46.982
G1X85.006Y45.278Z46.954
G1X85.069Y45.303Z46.926
G1X85.132Y45.318Z46.900
G1X85.194Y45.322Z46.875
G3X84.768Y44.896I0.000J-0.426F711.2
G3X85.194Y44.470I0.426J0.000
G3X85.620Y44.896I0.000J0.426
G3X85.194Y45.322I-0.426J0.000
G1Y45.798
G3X84.291Y44.896I0.000J-0.903
G3X85.194Y43.993I0.903J0.000
G3X86.096Y44.896I0.000J0.903
G3X85.194Y45.798I-0.902J0.000
G1Y46.275
G3X83.815Y44.896I0.000J-1.379
G3X85.194Y43.517I1.379J0.000
G3X86.573Y44.896I0.000J1.379
G3X85.194Y46.275I-1.379J0.000
G1Y46.751
G3X83.339Y44.896I0.000J-1.855
G3X85.194Y43.041I1.855J0.000
G3X87.049Y44.896I0.000J1.855
G3X85.194Y46.751I-1.855J0.000
G1Y47.227
G3X82.863Y44.896I0.000J-2.331
G3X85.194Y42.565I2.331J0.000
G3X87.525Y44.896I0.000J2.331
G3X85.194Y47.227I-2.331J0.000
G1Y46.751
G1Y46.275
G1Y45.798
G1Y45.322
G1X85.132Y45.318Z46.850F203.2
G1X85.069Y45.303Z46.823
G1X85.006Y45.278Z46.796
G1X84.946Y45.243Z46.768
G1X84.893Y45.197Z46.739
G1X84.847Y45.143Z46.711
G1X84.811Y45.084Z46.682
G1X84.786Y45.021Z46.655
G1X84.772Y44.958Z46.628
G1X84.768Y44.896Z46.603
G1X84.772Y44.834Z46.578
G1X84.786Y44.771Z46.552
G1X84.811Y44.708Z46.524
G1X84.847Y44.648Z46.496
G1X84.893Y44.594Z46.467
G1X84.946Y44.549Z46.439
G1X85.006Y44.513Z46.411
G1X85.069Y44.488Z46.383
G1X85.132Y44.474Z46.357
G1X85.194Y44.470Z46.332
G1X85.255Y44.474Z46.307
G1X85.318Y44.488Z46.280
G1X85.381Y44.513Z46.253
G1X85.440Y44.548Z46.225
G1X85.493Y44.592Z46.197
G1X85.539Y44.645Z46.169
G1X85.575Y44.704Z46.141
G1X85.600Y44.766Z46.113
G1X85.615Y44.829Z46.087
G1X85.620Y44.890Z46.062
G1X85.615Y44.829Z46.038
G1X85.600Y44.766Z46.011
G1X85.575Y44.704Z45.984
G1X85.539Y44.645Z45.956
G1X85.493Y44.592Z45.928
G1X85.440Y44.548Z45.900
G1X85.381Y44.513Z45.872
G1X85.318Y44.488Z45.844
G1X85.255Y44.474Z45.818
G1X85.194Y44.470Z45.793
G1X85.132Y44.474Z45.768
G1X85.069Y44.488Z45.742
G1X85.006Y44.513Z45.714
G1X84.946Y44.549Z45.686
G1X84.893Y44.594Z45.657
G1X84.847Y44.648Z45.629
G1X84.811Y44.708Z45.601
G1X84.786Y44.771Z45.573
G1X84.772Y44.834Z45.547
G1X84.768Y44.896Z45.521
G1X84.772Y44.958Z45.496
G1X84.786Y45.021Z45.470
G1X84.811Y45.084Z45.442
G1X84.847Y45.143Z45.414
G1X84.893Y45.197Z45.386
G1X84.946Y45.243Z45.357
G1X85.006Y45.278Z45.329
G1X85.069Y45.303Z45.301
G1X85.132Y45.318Z45.275
G1X85.194Y45.322Z45.250
G3X84.768Y44.896I0.000J-0.426F711.2
G3X85.194Y44.470I0.426J0.000
G3X85.620Y44.896I0.000J0.426
G3X85.194Y45.322I-0.426J0.000
G1Y45.798
G3X84.291Y44.896I0.000J-0.903
G3X85.194Y43.993I0.903J0.000
G3X86.096Y44.896I0.000J0.903
G3X85.194Y45.798I-0.902J0.000
G1Y46.275
G3X83.815Y44.896I0.000J-1.379
G3X85.194Y43.517I1.379J0.000
G3X86.573Y44.896I0.000J1.379
G3X85.194Y46.275I-1.379J0.000
G1Y46.751
G3X83.339Y44.896I0.000J-1.855
G3X85.194Y43.041I1.855J0.000
G3X87.049Y44.896I0.000J1.855
G3X85.194Y46.751I-1.855J0.000
G1Y47.227
G3X82.863Y44.896I0.000J-2.331
G3X85.194Y42.565I2.331J0.000
G3X87.525Y44.896I0.000J2.331
G3X85.194Y47.227I-2.331J0.000
G1Y46.751
G1Y46.275
G1Y45.798
G1Y45.322
G1X85.132Y45.318Z45.225F203.2
G1X85.069Y45.303Z45.198
G1X85.006Y45.278Z45.171
G1X84.946Y45.243Z45.143
G1X84.893Y45.197Z45.114
G1X84.847Y45.143Z45.086
G1X84.811Y45.084Z45.057
G1X84.786Y45.021Z45.030
G1X84.772Y44.958Z45.003
G1X84.768Y44.896Z44.978
G1X84.772Y44.834Z44.953
G1X84.786Y44.771Z44.927
G1X84.811Y44.708Z44.899
G1X84.847Y44.648Z44.871
G1X84.893Y44.594Z44.842
G1X84.946Y44.549Z44.814
G1X85.006Y44.513Z44.786
G1X85.069Y44.488Z44.758
G1X85.132Y44.474Z44.732
G1X85.194Y44.470Z44.707
G1X85.255Y44.474Z44.682
G1X85.318Y44.488Z44.655
G1X85.381Y44.513Z44.628
G1X85.440Y44.548Z44.600
G1X85.493Y44.592Z44.572
G1X85.539Y44.645Z44.544
G1X85.575Y44.704Z44.516
G1X85.600Y44.766Z44.488
G1X85.615Y44.829Z44.462
G1X85.620Y44.890Z44.438
G1X85.615Y44.829Z44.413
G1X85.600Y44.766Z44.386
G1X85.575Y44.704Z44.359
G1X85.539Y44.645Z44.331
G1X85.493Y44.592Z44.303
G1X85.440Y44.548Z44.275
G1X85.381Y44.513Z44.247
G1X85.318Y44.488Z44.219
G1X85.255Y44.474Z44.193
G1X85.194Y44.470Z44.168
G1X85.132Y44.474Z44.143
G1X85.069Y44.488Z44.117
G1X85.006Y44.513Z44.089
G1X84.946Y44.549Z44.061
G1X84.893Y44.594Z44.032
G1X84.847Y44.648Z44.004
G1X84.811Y44.708Z43.976
G1X84.786Y44.771Z43.948
G1X84.772Y44.834Z43.922
G1X84.768Y44.896Z43.896
G1X84.772Y44.958Z43.871
G1X84.786Y45.021Z43.845
G1X84.811Y45.084Z43.817
G1X84.847Y45.143Z43.789
G1X84.893Y45.197Z43.761
G1X84.946Y45.243Z43.732
G1X85.006Y45.278Z43.704
G1X85.069Y45.303Z43.676
G1X85.132Y45.318Z43.650
G1X85.194Y45.322Z43.625
G3X84.768Y44.896I0.000J-0.426F711.2
G3X85.194Y44.470I0.426J0.000
G3X85.620Y44.896I0.000J0.426
G3X85.194Y45.322I-0.426J0.000
G1Y45.798
G3X84.291Y44.896I0.000J-0.903
G3X85.194Y43.993I0.903J0.000
G3X86.096Y44.896I0.000J0.903
G3X85.194Y45.798I-0.902J0.000
G1Y46.275
G3X83.815Y44.896I0.000J-1.379
G3X85.194Y43.517I1.379J0.000
G3X86.573Y44.896I0.000J1.379
G3X85.194Y46.275I-1.379J0.000
G1Y46.751
G3X83.339Y44.896I0.000J-1.855
G3X85.194Y43.041I1.855J0.000
G3X87.049Y44.896I0.000J1.855
G3X85.194Y46.751I-1.855J0.000
G1Y47.227
G3X82.863Y44.896I0.000J-2.331
G3X85.194Y42.565I2.331J0.000
G3X87.525Y44.896I0.000J2.331
G3X85.194Y47.227I-2.331J0.000
G1Y46.751
G1Y46.275
G1Y45.798
G1Y45.322
G1X85.132Y45.318Z43.600F203.2
G1X85.069Y45.303Z43.573
G1X85.006Y45.278Z43.546
G1X84.946Y45.243Z43.518
G1X84.893Y45.197Z43.489
G1X84.847Y45.143Z43.461
G1X84.811Y45.084Z43.432
G1X84.786Y45.021Z43.405
G1X84.772Y44.958Z43.378
G1X84.768Y44.896Z43.353
G1X84.772Y44.834Z43.328
G1X84.786Y44.771Z43.302
G1X84.811Y44.708Z43.274
G1X84.847Y44.648Z43.246
G1X84.893Y44.594Z43.217
G1X84.946Y44.549Z43.189
G1X85.006Y44.513Z43.161
G1X85.069Y44.488Z43.133
G1X85.132Y44.474Z43.107
G1X85.194Y44.470Z43.082
G1X85.255Y44.474Z43.057
G1X85.318Y44.488Z43.030
G1X85.381Y44.513Z43.003
G1X85.440Y44.548Z42.975
G1X85.493Y44.592Z42.947
G1X85.539Y44.645Z42.919
G1X85.575Y44.704Z42.891
G1X85.600Y44.766Z42.863
G1X85.615Y44.829Z42.837
G1X85.620Y44.890Z42.812
G1X85.615Y44.829Z42.788
G1X85.600Y44.766Z42.761
G1X85.575Y44.704Z42.734
G1X85.539Y44.645Z42.706
G1X85.493Y44.592Z42.678
G1X85.440Y44.548Z42.650
G1X85.381Y44.513Z42.622
G1X85.318Y44.488Z42.594
G1X85.255Y44.474Z42.568
G1X85.194Y44.470Z42.543
G1X85.132Y44.474Z42.518
G1X85.069Y44.488Z42.492
G1X85.006Y44.513Z42.464
G1X84.946Y44.549Z42.436
G1X84.893Y44.594Z42.407
G1X84.847Y44.648Z42.379
G1X84.811Y44.708Z42.351
G1X84.786Y44.771Z42.323
G1X84.772Y44.834Z42.297
G1X84.768Y44.896Z42.271
G1X84.772Y44.958Z42.246
G1X84.786Y45.021Z42.220
G1X84.811Y45.084Z42.192
G1X84.847Y45.143Z42.164
G1X84.893Y45.197Z42.136
G1X84.946Y45.243Z42.107
G1X85.006Y45.278Z42.079
G1X85.069Y45.303Z42.051
G1X85.132Y45.318Z42.025
G1X85.194Y45.322Z42.000
G3X84.768Y44.896I0.000J-0.426F711.2
G3X85.194Y44.470I0.426J0.000
G3X85.620Y44.896I0.000J0.426
G3X85.194Y45.322I-0.426J0.000
G1Y45.798
G3X84.291Y44.896I0.000J-0.903
G3X85.194Y43.993I0.903J0.000
G3X86.096Y44.896I0.000J0.903
G3X85.194Y45.798I-0.902J0.000
G1Y46.275
G3X83.815Y44.896I0.000J-1.379
G3X85.194Y43.517I1.379J0.000
G3X86.573Y44.896I0.000J1.379
G3X85.194Y46.275I-1.379J0.000
G1Y46.751
G3X83.339Y44.896I0.000J-1.855
G3X85.194Y43.041I1.855J0.000
G3X87.049Y44.896I0.000J1.855
G3X85.194Y46.751I-1.855J0.000
G1Y47.227
G3X82.863Y44.896I0.000J-2.331
G3X85.194Y42.565I2.331J0.000
G3X87.525Y44.896I0.000J2.331
G3X85.194Y47.227I-2.331J0.000
G0Z50.500
G0Y9.130
G1Z48.500F203.2
G1X85.132Y9.126Z48.475
G1X85.069Y9.112Z48.448
G1X85.006Y9.087Z48.421
G1X84.946Y9.051Z48.393
G1X84.893Y9.006Z48.364
G1X84.847Y8.952Z48.336
G1X84.811Y8.892Z48.307
G1X84.786Y8.829Z48.280
G1X84.772Y8.766Z48.253
G1X84.768Y8.704Z48.228
G1X84.772Y8.642Z48.203
G1X84.786Y8.579Z48.177
G1X84.811Y8.516Z48.149
G1X84.847Y8.457Z48.121
G1X84.893Y8.403Z48.092
G1X84.946Y8.357Z48.064
G1X85.006Y8.322Z48.036
G1X85.069Y8.297Z48.008
G1X85.132Y8.282Z47.982
G1X85.194Y8.278Z47.957
G1X85.255Y8.282Z47.932
G1X85.318Y8.296Z47.905
G1X85.381Y8.321Z47.878
G1X85.440Y8.356Z47.850
G1X85.493Y8.401Z47.822
G1X85.539Y8.454Z47.794
G1X85.575Y8.512Z47.766
G1X85.600Y8.574Z47.738
G1X85.615Y8.637Z47.712
G1X85.620Y8.698Z47.688
G1X85.615Y8.637Z47.663
G1X85.600Y8.574Z47.636
G1X85.575Y8.512Z47.609
G1X85.539Y8.454Z47.581
G1X85.493Y8.401Z47.553
G1X85.440Y8.356Z47.525
G1X85.381Y8.321Z47.497
G1X85.318Y8.296Z47.469
G1X85.255Y8.282Z47.443
G1X85.194Y8.278Z47.418
G1X85.132Y8.282Z47.393
G1X85.069Y8.297Z47.367
G1X85.006Y8.322Z47.339
G1X84.946Y8.357Z47.311
G1X84.893Y8.403Z47.282
G1X84.847Y8.457Z47.254
G1X84.811Y8.516Z47.226
G1X84.786Y8.579Z47.198
G1X84.772Y8.642Z47.172
G1X84.768Y8.704Z47.146
G1X84.772Y8.766Z47.121
G1X84.786Y8.829Z47.095
G1X84.811Y8.892Z47.067
G1X84.847Y8.952Z47.039
G1X84.893Y9.006Z47.011
G1X84.946Y9.051Z46.982
G1X85.006Y9.087Z46.954
G1X85.069Y9.112Z46.926
G1X85.132Y9.126Z46.900
G1X85.194Y9.130Z46.875
G3X84.768Y8.704I0.000J-0.426F711.2
G3X85.194Y8.278I0.426J0.000
G3X85.620Y8.704I0.000J0.426
G3X85.194Y9.130I-0.426J0.000
G1Y9.607
G3X84.291Y8.704I0.000J-0.903
G3X85.194Y7.802I0.903J0.000
G3X86.096Y8.704I0.000J0.902
G3X85.194Y9.607I-0.902J0.000
G1Y10.083
G3X83.815Y8.704I0.000J-1.379
G3X85.194Y7.325I1.379J0.000
G3X86.573Y8.704I0.000J1.379
G3X85.194Y10.083I-1.379J0.000
G1Y10.559
G3X83.339Y8.704I0.000J-1.855
G3X85.194Y6.849I1.855J0.000
G3X87.049Y8.704I0.000J1.855
G3X85.194Y10.559I-1.855J0.000
G1Y11.035
G3X82.863Y8.704I0.000J-2.331
G3X85.194Y6.373I2.331J0.000
G3X87.525Y8.704I0.000J2.331
G3X85.194Y11.035I-2.331J0.000
G1Y10.559
G1Y10.083
G1Y9.607
G1Y9.130
G1X85.132Y9.126Z46.850F203.2
G1X85.069Y9.112Z46.823
G1X85.006Y9.087Z46.796
G1X84.946Y9.051Z46.768
G1X84.893Y9.006Z46.739
G1X84.847Y8.952Z46.711
G1X84.811Y8.892Z46.682
G1X84.786Y8.829Z46.655
G1X84.772Y8.766Z46.628
G1X84.768Y8.704Z46.603
G1X84.772Y8.642Z46.578
G1X84.786Y8.579Z46.552
G1X84.811Y8.516Z46.524
G1X84.847Y8.457Z46.496
G1X84.893Y8.403Z46.467
G1X84.946Y8.357Z46.439
G1X85.006Y8.322Z46.411
G1X85.069Y8.297Z46.383
G1X85.132Y8.282Z46.357
G1X85.194Y8.278Z46.332
G1X85.255Y8.282Z46.307
G1X85.318Y8.296Z46.280
G1X85.381Y8.321Z46.253
G1X85.440Y8.356Z46.225
G1X85.493Y8.401Z46.197
G1X85.539Y8.454Z46.169
G1X85.575Y8.512Z46.141
G1X85.600Y8.574Z46.113
G1X85.615Y8.637Z46.087
G1X85.620Y8.698Z46.062
G1X85.615Y8.637Z46.038
G1X85.600Y8.574Z46.011
G1X85.575Y8.512Z45.984
G1X85.539Y8.454Z45.956
G1X85.493Y8.401Z45.928
G1X85.440Y8.356Z45.900
G1X85.381Y8.321Z45.872
G1X85.318Y8.296Z45.844
G1X85.255Y8.282Z45.818
G1X85.194Y8.278Z45.793
G1X85.132Y8.282Z45.768
G1X85.069Y8.297Z45.742
G1X85.006Y8.322Z45.714
G1X84.946Y8.357Z45.686
G1X84.893Y8.403Z45.657
G1X84.847Y8.457Z45.629
G1X84.811Y8.516Z45.601
G1X84.786Y8.579Z45.573
G1X84.772Y8.642Z45.547
G1X84.768Y8.704Z45.521
G1X84.772Y8.766Z45.496
G1X84.786Y8.829Z45.470
G1X84.811Y8.892Z45.442
G1X84.847Y8.952Z45.414
G1X84.893Y9.006Z45.386
G1X84.946Y9.051Z45.357
G1X85.006Y9.087Z45.329
G1X85.069Y9.112Z45.301
G1X85.132Y9.126Z45.275
G1X85.194Y9.130Z45.250
G3X84.768Y8.704I0.000J-0.426F711.2
G3X85.194Y8.278I0.426J0.000
G3X85.620Y8.704I0.000J0.426
G3X85.194Y9.130I-0.426J0.000
G1Y9.607
G3X84.291Y8.704I0.000J-0.903
G3X85.194Y7.802I0.903J0.000
G3X86.096Y8.704I0.000J0.902
G3X85.194Y9.607I-0.902J0.000
G1Y10.083
G3X83.815Y8.704I0.000J-1.379
G3X85.194Y7.325I1.379J0.000
G3X86.573Y8.704I0.000J1.379
G3X85.194Y10.083I-1.379J0.000
G1Y10.559
G3X83.339Y8.704I0.000J-1.855
G3X85.194Y6.849I1.855J0.000
G3X87.049Y8.704I0.000J1.855
G3X85.194Y10.559I-1.855J0.000
G1Y11.035
G3X82.863Y8.704I0.000J-2.331
G3X85.194Y6.373I2.331J0.000
G3X87.525Y8.704I0.000J2.331
G3X85.194Y11.035I-2.331J0.000
G1Y10.559
G1Y10.083
G1Y9.607
G1Y9.130
G1X85.132Y9.126Z45.225F203.2
G1X85.069Y9.112Z45.198
G1X85.006Y9.087Z45.171
G1X84.946Y9.051Z45.143
G1X84.893Y9.006Z45.114
G1X84.847Y8.952Z45.086
G1X84.811Y8.892Z45.057
G1X84.786Y8.829Z45.030
G1X84.772Y8.766Z45.003
G1X84.768Y8.704Z44.978
G1X84.772Y8.642Z44.953
G1X84.786Y8.579Z44.927
G1X84.811Y8.516Z44.899
G1X84.847Y8.457Z44.871
G1X84.893Y8.403Z44.842
G1X84.946Y8.357Z44.814
G1X85.006Y8.322Z44.786
G1X85.069Y8.297Z44.758
G1X85.132Y8.282Z44.732
G1X85.194Y8.278Z44.707
G1X85.255Y8.282Z44.682
G1X85.318Y8.296Z44.655
G1X85.381Y8.321Z44.628
G1X85.440Y8.356Z44.600
G1X85.493Y8.401Z44.572
G1X85.539Y8.454Z44.544
G1X85.575Y8.512Z44.516
G1X85.600Y8.574Z44.488
G1X85.615Y8.637Z44.462
G1X85.620Y8.698Z44.438
G1X85.615Y8.637Z44.413
G1X85.600Y8.574Z44.386
G1X85.575Y8.512Z44.359
G1X85.539Y8.454Z44.331
G1X85.493Y8.401Z44.303
G1X85.440Y8.356Z44.275
G1X85.381Y8.321Z44.247
G1X85.318Y8.296Z44.219
G1X85.255Y8.282Z44.193
G1X85.194Y8.278Z44.168
G1X85.132Y8.282Z44.143
G1X85.069Y8.297Z44.117
G1X85.006Y8.322Z44.089
G1X84.946Y8.357Z44.061
G1X84.893Y8.403Z44.032
G1X84.847Y8.457Z44.004
G1X84.811Y8.516Z43.976
G1X84.786Y8.579Z43.948
G1X84.772Y8.642Z43.922
G1X84.768Y8.704Z43.896
G1X84.772Y8.766Z43.871
G1X84.786Y8.829Z43.845
G1X84.811Y8.892Z43.817
G1X84.847Y8.952Z43.789
G1X84.893Y9.006Z43.761
G1X84.946Y9.051Z43.732
G1X85.006Y9.087Z43.704
G1X85.069Y9.112Z43.676
G1X85.132Y9.126Z43.650
G1X85.194Y9.130Z43.625
G3X84.768Y8.704I0.000J-0.426F711.2
G3X85.194Y8.278I0.426J0.000
G3X85.620Y8.704I0.000J0.426
G3X85.194Y9.130I-0.426J0.000
G1Y9.607
G3X84.291Y8.704I0.000J-0.903
G3X85.194Y7.802I0.903J0.000
G3X86.096Y8.704I0.000J0.902
G3X85.194Y9.607I-0.902J0.000
G1Y10.083
G3X83.815Y8.704I0.000J-1.379
G3X85.194Y7.325I1.379J0.000
G3X86.573Y8.704I0.000J1.379
G3X85.194Y10.083I-1.379J0.000
G1Y10.559
G3X83.339Y8.704I0.000J-1.855
G3X85.194Y6.849I1.855J0.000
G3X87.049Y8.704I0.000J1.855
G3X85.194Y10.559I-1.855J0.000
G1Y11.035
G3X82.863Y8.704I0.000J-2.331
G3X85.194Y6.373I2.331J0.000
G3X87.525Y8.704I0.000J2.331
G3X85.194Y11.035I-2.331J0.000
G1Y10.559
G1Y10.083
G1Y9.607
G1Y9.130
G1X85.132Y9.126Z43.600F203.2
G1X85.069Y9.112Z43.573
G1X85.006Y9.087Z43.546
G1X84.946Y9.051Z43.518
G1X84.893Y9.006Z43.489
G1X84.847Y8.952Z43.461
G1X84.811Y8.892Z43.432
G1X84.786Y8.829Z43.405
G1X84.772Y8.766Z43.378
G1X84.768Y8.704Z43.353
G1X84.772Y8.642Z43.328
G1X84.786Y8.579Z43.302
G1X84.811Y8.516Z43.274
G1X84.847Y8.457Z43.246
G1X84.893Y8.403Z43.217
G1X84.946Y8.357Z43.189
G1X85.006Y8.322Z43.161
G1X85.069Y8.297Z43.133
G1X85.132Y8.282Z43.107
G1X85.194Y8.278Z43.082
G1X85.255Y8.282Z43.057
G1X85.318Y8.296Z43.030
G1X85.381Y8.321Z43.003
G1X85.440Y8.356Z42.975
G1X85.493Y8.401Z42.947
G1X85.539Y8.454Z42.919
G1X85.575Y8.512Z42.891
G1X85.600Y8.574Z42.863
G1X85.615Y8.637Z42.837
G1X85.620Y8.698Z42.812
G1X85.615Y8.637Z42.788
G1X85.600Y8.574Z42.761
G1X85.575Y8.512Z42.734
G1X85.539Y8.454Z42.706
G1X85.493Y8.401Z42.678
G1X85.440Y8.356Z42.650
G1X85.381Y8.321Z42.622
G1X85.318Y8.296Z42.594
G1X85.255Y8.282Z42.568
G1X85.194Y8.278Z42.543
G1X85.132Y8.282Z42.518
G1X85.069Y8.297Z42.492
G1X85.006Y8.322Z42.464
G1X84.946Y8.357Z42.436
G1X84.893Y8.403Z42.407
G1X84.847Y8.457Z42.379
G1X84.811Y8.516Z42.351
G1X84.786Y8.579Z42.323
G1X84.772Y8.642Z42.297
G1X84.768Y8.704Z42.271
G1X84.772Y8.766Z42.246
G1X84.786Y8.829Z42.220
G1X84.811Y8.892Z42.192
G1X84.847Y8.952Z42.164
G1X84.893Y9.006Z42.136
G1X84.946Y9.051Z42.107
G1X85.006Y9.087Z42.079
G1X85.069Y9.112Z42.051
G1X85.132Y9.126Z42.025
G1X85.194Y9.130Z42.000
G3X84.768Y8.704I0.000J-0.426F711.2
G3X85.194Y8.278I0.426J0.000
G3X85.620Y8.704I0.000J0.426
G3X85.194Y9.130I-0.426J0.000
G1Y9.607
G3X84.291Y8.704I0.000J-0.903
G3X85.194Y7.802I0.903J0.000
G3X86.096Y8.704I0.000J0.902
G3X85.194Y9.607I-0.902J0.000
G1Y10.083
G3X83.815Y8.704I0.000J-1.379
G3X85.194Y7.325I1.379J0.000
G3X86.573Y8.704I0.000J1.379
G3X85.194Y10.083I-1.379J0.000
G1Y10.559
G3X83.339Y8.704I0.000J-1.855
G3X85.194Y6.849I1.855J0.000
G3X87.049Y8.704I0.000J1.855
G3X85.194Y10.559I-1.855J0.000
G1Y11.035
G3X82.863Y8.704I0.000J-2.331
G3X85.194Y6.373I2.331J0.000
G3X87.525Y8.704I0.000J2.331
G3X85.194Y11.035I-2.331J0.000
G0Z50.500
M5
G0Z50.500
G0X0.000Y0.000
M2
