(VECTRIC POST REVISION)
(2410E23C85915A17A0D6BB4BFA509A68)
T1
G17
G21
G90
G0Z5.080
G0X0.000Y0.000
S17000M3
G0X35.151Y5.773Z5.080
G1Z-3.000F580.0
G2X33.031Y4.895I-2.121J2.122F4000.0
G1X23.031
G1X13.031
G2X10.121Y8.622I0.000J3.000
G1X15.121Y28.622
G1X20.121Y48.622
G2X25.941I2.910J-0.728
G1X30.941Y28.622
G1X35.941Y8.622
G2X35.151Y5.773I-2.910J-0.728
G0Z5.080
G0X92.987Y11.631
G1Z-3.000F580.0
G1X92.189Y10.870F4000.0
G1X91.355Y10.147
G1X90.486Y9.465
G1X89.585Y8.824
G1X88.652Y8.226
G1X87.688Y7.672
G1X86.696Y7.164
G1X85.677Y6.703
G1X84.631Y6.291
G1X83.561Y5.929
G1X82.469Y5.618
G1X81.355Y5.361
G1X80.222Y5.159
G1X79.071Y5.013
G1X77.904Y4.924
G1X76.723Y4.894
G1X75.542Y4.924
G1X74.375Y5.013
G1X73.224Y5.159
G1X72.091Y5.361
G1X70.977Y5.618
G1X69.885Y5.929
G1X68.815Y6.291
G1X67.769Y6.703
G1X66.750Y7.164
G1X65.758Y7.672
G1X64.794Y8.226
G1X63.861Y8.824
G1X62.960Y9.465
G1X62.091Y10.147
G1X61.257Y10.870
G1X60.459Y11.631
G1X59.698Y12.429
G1X58.976Y13.263
G1X58.293Y14.131
G1X57.652Y15.033
G1X57.054Y15.966
G1X56.500Y16.929
G1X55.992Y17.922
G1X55.531Y18.941
G1X55.119Y19.987
G1X54.757Y21.056
G1X54.447Y22.149
G1X54.190Y23.263
G1X53.987Y24.396
G1X53.841Y25.547
G1X53.752Y26.714
G1X53.722Y27.895
G1X53.752Y29.076
G1X53.841Y30.243
G1X53.987Y31.394
G1X54.190Y32.527
G1X54.447Y33.641
G1X54.757Y34.733
G1X55.119Y35.803
G1X55.531Y36.848
G1X55.992Y37.868
G1X56.500Y38.860
G1X57.054Y39.823
G1X57.652Y40.757
G1X58.293Y41.658
G1X58.976Y42.526
G1X59.698Y43.360
G1X60.459Y44.159
G1X61.257Y44.920
G1X62.091Y45.642
G1X62.960Y46.324
G1X63.861Y46.965
G1X64.794Y47.564
G1X65.758Y48.118
G1X66.750Y48.626
G1X67.769Y49.087
G1X68.815Y49.499
G1X69.885Y49.861
G1X70.977Y50.171
G1X72.091Y50.428
G1X73.224Y50.631
G1X74.375Y50.777
G1X75.542Y50.866
G1X76.723Y50.895
G1X77.904Y50.866
G1X79.071Y50.777
G1X80.222Y50.631
G1X81.355Y50.428
G1X82.469Y50.171
G1X83.561Y49.861
G1X84.631Y49.499
G1X85.677Y49.087
G1X86.696Y48.626
G1X87.688Y48.118
G1X88.652Y47.564
G1X89.585Y46.965
G1X90.486Y46.324
G1X91.355Y45.642
G1X92.189Y44.920
G1X92.987Y44.159
G1X93.748Y43.360
G1X94.470Y42.526
G1X95.153Y41.658
G1X95.794Y40.757
G1X96.392Y39.823
G1X96.946Y38.860
G1X97.454Y37.868
G1X97.915Y36.848
G1X98.327Y35.803
G1X98.689Y34.733
G1X99.000Y33.641
G1X99.257Y32.527
G1X99.459Y31.394
G1X99.605Y30.243
G1X99.694Y29.076
G1X99.724Y27.895
G1X99.694Y26.714
G1X99.605Y25.547
G1X99.459Y24.396
G1X99.257Y23.263
G1X99.000Y22.149
G1X98.689Y21.056
G1X98.327Y19.987
G1X97.915Y18.941
G1X97.454Y17.922
G1X96.946Y16.929
G1X96.392Y15.966
G1X95.794Y15.033
G1X95.153Y14.131
G1X94.470Y13.263
G1X93.748Y12.429
G1X92.987Y11.631
G0Z5.080
G0X164.940Y5.774
G1Z-3.000F580.0
G2X162.819Y4.895I-2.121J2.121F4000.0
G1X122.819
G2X119.819Y7.895I0.000J3.000
G1Y47.895
G2X122.819Y50.894I3.000J0.000
G1X162.819
G2X165.819Y47.895I0.000J-3.000
G1Y7.895
G2X164.940Y5.774I-3.000J0.000
G0Z5.080
G0X221.853Y18.031
G1Z-3.000F580.0
G1X211.849Y8.027F4000.0
G2X207.606I-2.121J2.121
G1X187.606Y28.027
G2Y32.269I2.121J2.121
G1X207.606Y52.269
G2X211.849I2.121J-2.121
G1X231.849Y32.269
G2Y28.027I-2.121J-2.121
G1X221.853Y18.031
G0Z5.080
M5
G0Z5.080
G0X0.000Y0.000
M2
