(VECTRIC POST REVISION)
(DBACA454EADF39A6347D6F40BF903BF0)
T1
G17
G21
G90
G0Z20.320
G0X0.000Y0.000
S10000M3
G0X42.308Y37.150
G0Z5.080
G1Z-5.927F1524.0
G1X45.021Y52.969F5080.0
G1X33.527Y64.172
G2X36.167Y72.295I3.324J3.410
G1X52.050Y74.603
G1X59.153Y88.996
G2X67.695I4.271J-2.108
G1X74.798Y74.603
G1X90.682Y72.295
G2X93.321Y64.172I-0.685J-4.713
G1X81.828Y52.969
G1X84.541Y37.150
G2X77.631Y32.129I-4.694J-0.805
G1X63.424Y39.598
G1X49.218Y32.129
G2X42.308Y37.150I-2.216J4.215
G1Z-11.853F1524.0
G1X45.021Y52.969F5080.0
G1X33.527Y64.172
G2X36.167Y72.295I3.324J3.410
G1X52.050Y74.603
G1X59.153Y88.996
G2X67.695I4.271J-2.108
G1X74.798Y74.603
G1X90.682Y72.295
G2X93.321Y64.172I-0.685J-4.713
G1X81.828Y52.969
G1X84.541Y37.150
G2X77.631Y32.129I-4.694J-0.805
G1X63.424Y39.598
G1X49.218Y32.129
G2X42.308Y37.150I-2.216J4.215
G1Z-17.780F1524.0
G1X45.021Y52.969F5080.0
G1X33.527Y64.172
G2X36.167Y72.295I3.324J3.410
G1X52.050Y74.603
G1X59.153Y88.996
G2X67.695I4.271J-2.108
G1X74.798Y74.603
G1X90.682Y72.295
G2X93.321Y64.172I-0.685J-4.713
G1X81.828Y52.969
G1X84.541Y37.150
G2X77.631Y32.129I-4.694J-0.805
G1X63.424Y39.598
G1X49.218Y32.129
G2X42.308Y37.150I-2.216J4.215
G1Z-23.707F1524.0
G1X45.021Y52.969F5080.0
G1X33.527Y64.172
G2X36.167Y72.295I3.324J3.410
G1X52.050Y74.603
G1X59.153Y88.996
G2X67.695I4.271J-2.108
G1X74.798Y74.603
G1X90.682Y72.295
G2X93.321Y64.172I-0.685J-4.713
G1X81.828Y52.969
G1X84.541Y37.150
G2X77.631Y32.129I-4.694J-0.805
G1X63.424Y39.598
G1X49.218Y32.129
G2X42.308Y37.150I-2.216J4.215
G1Z-29.633F1524.0
G1X45.021Y52.969F5080.0
G1X33.527Y64.172
G2X36.167Y72.295I3.324J3.410
G1X52.050Y74.603
G1X59.153Y88.996
G2X67.695I4.271J-2.108
G1X74.798Y74.603
G1X90.682Y72.295
G2X93.321Y64.172I-0.685J-4.713
G1X81.828Y52.969
G1X84.541Y37.150
G2X77.631Y32.129I-4.694J-0.805
G1X63.424Y39.598
G1X49.218Y32.129
G2X42.308Y37.150I-2.216J4.215
G1Z-35.560F1524.0
G1X45.021Y52.969F5080.0
G1X33.527Y64.172
G2X36.167Y72.295I3.324J3.410
G1X52.050Y74.603
G1X59.153Y88.996
G2X67.695I4.271J-2.108
G1X74.798Y74.603
G1X90.682Y72.295
G2X93.321Y64.172I-0.685J-4.713
G1X81.828Y52.969
G1X84.541Y37.150
G2X77.631Y32.129I-4.694J-0.805
G1X63.424Y39.598
G1X49.218Y32.129
G2X42.308Y37.150I-2.216J4.215
G0Z5.080
M5
G0Z20.320
G0X0.000Y0.000
M2
