; LightBurn 0.9.20
; GRBL device profile, user origin
; Bounds: X0 Y9.1 to X135.39 Y122
G00 G17 G40 G21 G54
G90
G0 X0 Y0
G91
M4
; Scan @ 25.4 mm/sec, 100% power
M8
G0X34.09Y-112.78
; Layer 5mm Ply
G1X0.51F1524S255
G1X0.63S0
G1X0.51S255
G1X0.72S0
G1X0.15S255
G1X0.72S0
G1X0.32S255
G1X0.09Y0.1S0
G1X-0.16S255
G1X-0.18S0
G1X-0.16S255
G1X-0.56S0
G1X-0.16S255
G1X-0.65S0
G1X-0.31S255
G1X-0.15S0
G1X-0.31S255
G1X-0.36S0
G1X-0.32S255
G1X-0.14S0
G1X-0.32S255
G1X-0.05Y0.1S0
G1X0.2S255
G1X0.48S0
G1X0.21S255
G1X0.24S0
G1X0.2S255
G1X0.49S0
G1X0.21S255
G1X0.65S0
G1X0.15S255
G1X0.46S0
G1X0.14S255
G1X0.3S0
G1X0.14S255
G1X4.33S0
G1X0.3S255
G1X0.87S0
G1X0.26S255
G1X1.78S0
G1X0.16S255
G1X0.16Y0.1S0
G1X-0.23S255
G1X-0.24
G1X-0.6S0
G1X-0.15S255
G1X-0.7S0
G1X-0.61S255
G1X-0.49S0
G1X-0.71S255
G1X-4.11S0
G1X-0.14S255
G1X-0.33S0
G1X-0.15S255
G1X-0.37S0
G1X-0.15S255
G1X-0.69S0
G1X-0.19S255
G1X-0.58S0
G1X-0.02S255
G1X-0.35S0
G1X-0.19S255
G1X-0.58S0
G1X-0.02S255
G1X0.62Y0.1S0
G1X0.19S255
G1X0.94S0
G1X0.19S255
G1X0.74S0
G1X0.16S255
G1X0.3S0
G1X0.14S255
G1X0.34S0
G1X0.15S255
G1X4.02S0
G1X0.22S255
G1X0.42S0
G1X0.23S255
G1X0.33S0
G1X0.2S255
G1X0.37S0
G1X0.19S255
G1X0.69S0
G1X0.16S255
G1X0.48S0
G1X0.15S255
G1X0.27S0
G1X0.15S255
G1X0.02Y0.1S0
G1X-0.15S255
G1X-0.32S0
G1X-0.14S255
G1X-0.4S0
G1X-0.15S255
G1X-0.71S0
G1X-0.18S255
G1X-0.49S0
G1X-0.18S255
G1X-0.25S0
G1X-0.19S255
G1X-0.56S0
G1X-0.19S255
G1X-4S0
G1X-0.14S255
G1X-0.33S0
G1X-0.15S255
G1X-0.24S0
G1X-0.15S255
G1X-0.25S0
G1X-0.17S255
G1X-0.39S0
G1X-0.19S255
G1X-0.95S0
G1X-0.19S255
G1X-0.04Y0.1S0
G1X0.21S255
G1X0.92S0
G1X0.21S255
G1X0.27S0
G1X0.47S255
G1X0.16S0
G1X0.16S255
G1X0.19S0
G1X0.14S255
G1X0.3S0
G1X0.15S255
G1X4.78S0
G1X0.19S255
G1X0.2S0
G1X0.18S255
G1X0.55S0
G1X0.18S255
G1X0.74S0
G1X0.16S255
G1X0.32S0
G1X0.15S255
G1X0.33S0
G1X0.15S255
G1Y0.1S0
G1X-0.15S255
G1X-0.33S0
G1X-0.15S255
G1X-0.26S0
G1X-0.15S255
G1X-0.79S0
G1X-0.18S255
G1X-0.59S0
G1X-0.18S255
G1X-0.18S0
G1X-0.19S255
G1X-4.82S0
G1X-0.16S255
G1X-0.2S0
G1X-0.16S255
G1X-0.16S0
G1X-0.15S255
G1X-0.18S0
G1X-0.15S255
G1X-0.27S0
G1X-0.15S255
G1X-0.28S0
G1X-0.29S255
G1X-0.22S0
G1X-0.32S255
G1X-0.3S0
G1X-0.29S255
G1X-0.23S0
G1X-0.31S255
G1Y0.1S0
G1X0.18S255
G1X0.04S0
G1X0.5S255
G1X0.42S0
G1X0.17S255
G1X0.04S0
G1X0.5S255
G1X0.37S0
G1X0.15S255
G1X0.32S0
G1X0.14S255
G1X0.22S0
G1X0.16S255
G1X0.17S0
G1X0.36S255
G1X4.87S0
G1X0.2S255
G1X0.19S0
G1X0.18S255
G1X0.61S0
G1X0.18S255
G1X0.27S0
G1X0.4S255
G1X0.17S0
G1X0.16S255
G1X0.2S0
G1X0.15S255
G1X0.31S0
G1X0.15S255
G1X-0.03Y0.1S0
G1X-0.15S255
G1X-0.25S0
G1X-0.15S255
G1X-0.17S0
G1X-0.15S255
G1X-0.17S0
G1X-0.15S255
G1X-0.24S0
G1X-0.15S255
G1X-0.2S0
G1X-0.18S255
G1X-0.61S0
G1X-0.18S255
G1X-0.23S0
G1X-0.25S255
G1X-0.37S0
G1X-0.24S255
G1X-4.64S0
G1X-0.15S255
G1X-0.28S0
G1X-0.15S255
G1X-0.33S0
G1X-0.15S255
G1X-0.89S0
G1X-0.18S255
G1X-0.96S0
G1X-0.17S255
G1X0.01Y0.1S0
G1X0.17S255
G1X0.96S0
G1X0.17S255
G1X0.89S0
G1X0.15S255
G1X0.33S0
G1X0.15S255
G1X0.34S0
G1X0.16S255
G1X4.57S0
G1X0.77S255
G1X0.32S0
G1X0.18S255
G1X0.61S0
G1X0.18S255
G1X0.17S0
G1X0.14S255
G1X0.31S0
G1X0.15S255
G1X0.2S0
G1X0.16S255
G1X0.16S0
G1X0.43S255
G1X-0.53Y0.1S0
G1X-0.15S255
G1X-0.26S0
G1X-0.14S255
G1X-0.34S0
G1X-0.14S255
G1X-0.17S0
G1X-0.18S255
G1X-0.59S0
G1X-0.18S255
G1X-0.92S0
G1X-0.17S255
G1X-4.52S0
G1X-0.15S255
G1X-0.42S0
G1X-0.15S255
G1X-0.31S0
G1X-0.15S255
G1X-0.89S0
G1X-0.17S255
G1X-0.96S0
G1X-0.18S255
G1X0.01Y0.1S0
G1X0.17S255
G1X0.96S0
G1X0.18S255
G1X0.91S0
G1X0.15S255
G1X0.25S0
G1X0.15S255
G1X0.51S0
G1X0.16S255
G1X4.46S0
G1X0.17S255
G1X0.92S0
G1X0.18S255
G1X0.56S0
G1X0.18S255
G1X0.18S0
G1X0.15S255
G1X0.34S0
G1X0.14S255
G1X0.32S0
G1X0.16S255
G1X0.07Y0.1S0
G1X-0.16S255
G1X-0.39S0
G1X-0.15S255
G1X-0.32S0
G1X-0.15S255
G1X-0.21S0
G1X-0.18S255
G1X-0.51S0
G1X-0.18S255
G1X-0.94S0
G1X-0.18S255
G1X-4.39S0
G1X-0.16S255
G1X-0.64S0
G1X-0.43S255
G1X-0.34S0
G1X-0.8S255
G1X-0.33S0
G1X-0.81S255
G1X7.91Y0.1S0
G1X0.17S255
G1X0.98S0
G1X0.2S255
G1X0.39S0
G1X0.2S255
G1X0.27S0
G1X0.15S255
G1X0.28S0
G1X0.15S255
G1X0.47S0
G1X0.16S255
G1X0.07Y0.1S0
G1X-0.16S255
G1X-0.59S0
G1X-0.18S255
G1X-0.11S0
G1X-0.19S255
G1X-0.39S0
G1X-0.65S255
G1X-0.41S0
G1X-0.8S255
G1Y0.1S0
G1X0.8S255
G1X0.57S0
G1X0.33S255
G1X0.68S0
G1X0.22S255
G1X0.79S0
G1X0.15S255
G1X-15.62Y0.3S0
G1X-0.15S255
G1X-1.79S0
G1X-0.25S255
G1X-0.85S0
G1X-0.26S255
G1X-0.18Y0.1S0
G1X0.63S255
G1X0.48S0
G1X0.61S255
G1X0.7S0
G1X0.15S255
G1X0.61S0
G1X0.46S255
G1X0.05Y0.1S0
G1X-0.15S255
G1X-0.27S0
G1X-0.14S255
G1X-0.49S0
G1X-0.16S255
G1X-0.68S0
G1X-0.2S255
G1X-0.37S0
G1X-0.19S255
G1X-0.34S0
G1X-0.21S255
G1X-0.36S0
G1X-0.21S255
G1X-0.04Y0.1S0
G1X0.18S255
G1X0.49S0
G1X0.19S255
G1X0.25S0
G1X0.18S255
G1X0.49S0
G1X0.18S255
G1X0.71S0
G1X0.16S255
G1X0.39S0
G1X0.15S255
G1X0.32S0
G1X0.15S255
G1X22.99Y0.1S0
G1X-0.37S255
G1X-0.68S0
G1X-0.16S255
G1X-0.7S0
G1X-0.57S255
G1X-0.52S0
G1X-0.17S255
G1X-19.82S0
G1X-0.14S255
G1X-0.34S0
G1X-0.14S255
G1X-0.33S0
G1X-0.15S255
G1X-0.75S0
G1X-0.18S255
G1X-0.55S0
G1X-0.18S255
G1X-0.2S0
G1X-0.18S255
G1X-0.55S0
G1X-0.18S255
G1X-0.02Y0.1S0
G1X0.19S255
G1X0.56S0
G1X0.18S255
G1X0.18S0
G1X0.18S255
G1X0.59S0
G1X0.18S255
G1X0.79S0
G1X0.16S255
G1X0.26S0
G1X0.14S255
G1X0.34S0
G1X0.14S255
G1X19.82S0
G1X0.17S255
G1X0.41S0
G1X0.26S255
G1X0.27S0
G1X0.27S255
G1X0.65S0
G1X0.15S255
G1X0.54S0
G1X0.15S255
G1X0.22S0
G1X0.16S255
G1X0.03Y0.1S0
G1X-0.14S255
G1X-0.31S0
G1X-0.14S255
G1X-0.44S0
G1X-0.16S255
G1X-0.65S0
G1X-0.21S255
G1X-0.51S0
G1X-0.19S255
G1X-0.36S0
G1X-0.17S255
G1X-19.83S0
G1X-0.14S255
G1X-0.32S0
G1X-0.14S255
G1X-0.21S0
G1X-0.15S255
G1X-0.18S0
G1X-0.4S255
G1X-0.27S0
G1X-0.18S255
G1X-0.6S0
G1X-0.18S255
G1X-0.2S0
G1X-0.18S255
G1X-0.53S0
G1X-0.21S255
G1Y0.1S0
G1X0.28S255
G1X0.39S0
G1X0.22S255
G1X0.22S0
G1X0.18S255
G1X0.61S0
G1X0.19S255
G1X0.2S0
G1X0.15S255
G1X0.23S0
G1X0.15S255
G1X0.17S0
G1X0.16S255
G1X0.16S0
G1X0.15S255
G1X0.26S0
G1X0.14S255
G1X19.2S0
G1X1.03S255
G1X0.91S0
G1X0.19S255
G1X0.69S0
G1X0.15S255
G1X0.36S0
G1X0.15S255
G1X0.33S0
G1X0.15S255
G1Y0.1S0
G1X-0.15S255
G1X-0.33S0
G1X-0.15S255
G1X-0.29S0
G1X-0.15S255
G1X-0.76S0
G1X-0.18S255
G1X-0.92S0
G1X-1.03S255
G1X-19.25S0
G1X-0.44S255
G1X-0.16S0
G1X-0.15S255
G1X-0.21S0
G1X-0.14S255
G1X-0.31S0
G1X-0.14S255
G1X-0.18S0
G1X-0.18S255
G1X-0.6S0
G1X-0.18S255
G1X-0.31S0
G1X-0.58S255
G1X-0.05S0
G1X-0.17S255
G1X0.01Y0.1S0
G1X0.17S255
G1X0.24S0
G1X0.19S255
G1X0.5S0
G1X0.18S255
G1X0.59S0
G1X0.19S255
G1X0.16S0
G1X0.15S255
G1X0.33S0
G1X0.15S255
G1X0.25S0
G1X0.16S255
G1X19.84S0
G1X0.17S255
G1X0.43S0
G1X0.17S255
G1X1.1S0
G1X0.2S255
G1X0.34S0
G1X0.27S255
G1X0.21S0
G1X0.16S255
G1X0.22S0
G1X0.15S255
G1X0.33S0
G1X0.15S255
G1X-0.02Y0.1S0
G1X-0.15S255
G1X-0.29S0
G1X-0.15S255
G1X-0.18S0
G1X-0.15S255
G1X-0.17S0
G1X-0.17S255
G1X-0.14S0
G1X-0.17S255
G1X-0.27S0
G1X-0.22S255
G1X-0.49S0
G1X-0.18S255
G1X-0.38S0
G1X-0.17S255
G1X-0.36S0
G1X-0.17S255
G1X-19.85S0
G1X-0.15S255
G1X-0.32S0
G1X-0.15S255
G1X-0.33S0
G1X-0.15S255
G1X-0.18S0
G1X-0.18S255
G1X-0.56S0
G1X-0.18S255
G1X-0.93S0
G1X-0.18S255
G1X0.04Y0.1S0
G1X0.18S255
G1X0.91S0
G1X0.19S255
G1X0.5S0
G1X0.18S255
G1X0.22S0
G1X0.14S255
G1X0.33S0
G1X0.14S255
G1X0.39S0
G1X0.16S255
G1X19.85S0
G1X0.17S255
G1X0.29S0
G1X0.17S255
G1X0.39S0
G1X0.81S255
G1X0.29S0
G1X0.15S255
G1X0.28S0
G1X0.15S255
G1X0.18S0
G1X0.16S255
G1X0.15S0
G1X0.18S255
G1X0.15S0
G1X0.17S255
G1X-0.1Y0.1S0
G1X-0.29S255
G1X-0.2S0
G1X-0.15S255
G1X-0.23S0
G1X-0.15S255
G1X-0.32S0
G1X-0.15S255
G1X-0.4S0
G1X-0.43S255
G1X-0.08S0
G1X-0.17S255
G1X-0.39S0
G1X-0.17S255
G1X-0.22S0
G1X-0.17S255
G1X-19.85S0
G1X-0.16S255
G1X-0.48S0
G1X-0.14S255
G1X-0.29S0
G1X-0.14S255
G1X-0.28S0
G1X-0.2S255
G1X-0.39S0
G1X-0.2S255
G1X-0.32S0
G1X-0.2S255
G1X-0.37S0
G1X-0.2S255
G1X0.08Y0.1S0
G1X0.63S255
G1X0.45S0
G1X0.65S255
G1X0.39S0
G1X0.19S255
G1X0.11S0
G1X0.19S255
G1X0.58S0
G1X0.16S255
G1X19.85S0
G1X0.17S255
G1X0.16S0
G1X0.17S255
G1X0.4S0
G1X0.17S255
G1X0.89S0
G1X0.15S255
G1X0.34S0
G1X0.14S255
G1X0.29S0
G1X0.16S255
G1X0.06Y0.1S0
G1X-0.15S255
G1X-0.36S0
G1X-0.14S255
G1X-0.34S0
G1X-0.14S255
G1X-0.89S0
G1X-0.18S255
G1X-0.4S0
G1X-0.17S255
G1X-0.09S0
G1X-0.17S255
G1X-19.85S0
G1X-0.16S255
G1X-0.78S0
G1X-0.23S255
G1X-0.67S0
G1X-0.34S255
G1X-0.76S0
G1X-0.32S255
G1X23.18Y0.1S0
G1X0.16S255
G1X0.03S0
G1X0.17S255
G1X0.41S0
G1X0.17S255
G1X0.9S0
G1X0.14S255
G1X0.31S0
G1X0.15S255
G1X0.43S0
G1X0.16S255
G1X0.07Y0.1S0
G1X-0.16S255
G1X-0.53S0
G1X-0.15S255
G1X-0.24S0
G1X-0.15S255
G1X-0.92S0
G1X-0.17S255
G1X-0.42S0
G1X-0.29S255
G1X0.07Y0.1S0
G1X0.22S255
G1X0.42S0
G1X0.8S255
G1X0.36S0
G1X0.39S255
G1X0.67S0
G1X0.16S255
G1X-29.54Y2.6S0
G1X-0.25S255
G1X-0.76S0
G1X-0.16S255
G1X-0.76S0
G1X-0.4S255
G1X-0.71S0
G1X-0.35S255
G1X-0.15Y0.1S0
G1X0.65S255
G1X0.4S0
G1X0.73S255
G1X0.66S0
G1X0.15S255
G1X0.59S0
G1X0.18S255
G1X0.12S0
G1X0.18S255
G1X0.04Y0.1S0
G1X-0.14S255
G1X-0.28S0
G1X-0.15S255
G1X-0.47S0
G1X-0.16S255
G1X-0.65S0
G1X-0.21S255
G1X-0.45S0
G1X-0.21S255
G1X-0.26S0
G1X-0.21S255
G1X-0.39S0
G1X-0.19S255
G1X-0.05Y0.1S0
G1X0.18S255
G1X0.51S0
G1X0.18S255
G1X0.19S0
G1X0.19S255
G1X0.57S0
G1X0.19S255
G1X0.68S0
G1X0.15S255
G1X0.39S0
G1X0.15S255
G1X0.32S0
G1X0.15S255
G1Y0.1S0
G1X-0.14S255
G1X-0.34S0
G1X-0.15S255
G1X-0.31S0
G1X-0.16S255
G1X-0.72S0
G1X-0.19S255
G1X-0.95S0
G1X-0.18S255
G1X-0.56S0
G1X-0.18S255
G1X-0.01Y0.1S0
G1X0.19S255
G1X0.56S0
G1X0.18S255
G1X0.95S0
G1X0.18S255
G1X0.8S0
G1X0.15S255
G1X0.26S0
G1X0.14S255
G1X0.34S0
G1X0.14S255
G1X-0.01Y0.1S0
G1X-0.15S255
G1X-0.31S0
G1X-0.14S255
G1X-0.2S0
G1X-0.16S255
G1X-0.16S0
G1X-0.43S255
G1X-0.29S0
G1X-0.2S255
G1X-0.93S0
G1X-0.19S255
G1X-0.51S0
G1X-0.22S255
G1Y0.1S0
G1X0.29S255
G1X0.37S0
G1X0.22S255
G1X0.28S0
G1X0.26S255
G1X0.33S0
G1X0.26S255
G1X0.27S0
G1X0.15S255
G1X0.25S0
G1X0.15S255
G1X0.17S0
G1X0.16S255
G1X0.16S0
G1X0.15S255
G1X0.24S0
G1X0.15S255
G1X36.02Y0.1S0
G1X-0.1S255
G1X-1.83S0
G1X-0.22S255
G1X-33.94S0
G1X-0.4S255
G1X-0.17S0
G1X-0.15S255
G1X-0.22S0
G1X-0.14S255
G1X-0.31S0
G1X-0.15S255
G1X-0.34S0
G1X-0.57S255
G1X-0.18
G1X-0.36S0
G1X-0.55S255
G1X-0.07S0
G1X-0.17S255
G1X0.01Y0.1S0
G1X0.17S255
G1X0.98S0
G1X0.17S255
G1X0.9S0
G1X0.15S255
G1X0.33S0
G1X0.15S255
G1X0.26S0
G1X0.16S255
G1X33.56S0
G1X0.17S255
G1X0.52S0
G1X0.6S255
G1X0.7S0
G1X0.15S255
G1X0.61S0
G1X0.46S255
G1X0.05Y0.1S0
G1X-0.14S255
G1X-0.27S0
G1X-0.15S255
G1X-0.49S0
G1X-0.15S255
G1X-0.69S0
G1X-0.2S255
G1X-0.36S0
G1X-0.2S255
G1X-0.44S0
G1X-0.17S255
G1X-33.5S0
G1X-0.15S255
G1X-0.33S0
G1X-0.15S255
G1X-0.33S0
G1X-0.15S255
G1X-0.89S0
G1X-0.17S255
G1X-0.97S0
G1X-0.17S255
G1X0.03Y0.1S0
G1X0.18S255
G1X0.48S0
G1X0.02S255
G1X0.43S0
G1X0.17S255
G1X0.9S0
G1X0.14S255
G1X0.32S0
G1X0.15S255
G1X0.4S0
G1X0.16S255
G1X33.43S0
G1X0.17S255
G1X0.4S0
G1X0.18S255
G1X0.48S0
G1X0.19S255
G1X0.7S0
G1X0.16S255
G1X0.4S0
G1X0.14S255
G1X0.32S0
G1X0.15S255
G1X0.01Y0.1S0
G1X-0.15S255
G1X-0.33S0
G1X-0.15S255
G1X-0.33S0
G1X-0.15S255
G1X-0.74S0
G1X-0.18S255
G1X-0.55S0
G1X-0.18S255
G1X-0.17S0
G1X-1.03S255
G1X-32.71S0
G1X-0.15S255
G1X-0.49S0
G1X-0.15S255
G1X-0.27S0
G1X-0.15S255
G1X-0.91S0
G1X-0.17S255
G1X-0.31S0
G1X-0.21S255
G1X-0.35S0
G1X-0.2S255
G1X0.08Y0.1S0
G1X0.61S255
G1X0.38S0
G1X0.81S255
G1X0.32S0
G1X0.47S255
G1X0.6S0
G1X0.16S255
G1X32.66S0
G1X0.17S255
G1X0.47S0
G1X0.17S255
G1X0.35S0
G1X0.18S255
G1X0.58S0
G1X0.19S255
G1X0.78S0
G1X0.16S255
G1X0.26S0
G1X0.15S255
G1X0.33S0
G1X0.15S255
G1X-0.01Y0.1S0
G1X-0.15S255
G1X-0.32S0
G1X-0.14S255
G1X-0.21S0
G1X-0.15S255
G1X-0.18S0
G1X-0.39S255
G1X-0.28S0
G1X-0.18S255
G1X-0.6S0
G1X-0.18S255
G1X-0.34S0
G1X-0.17S255
G1X-0.4S0
G1X-0.17S255
G1X-33.66S0
G1X-0.13S255
G1X-1.86S0
G1X-0.25S255
G1X35.97Y0.1S0
G1X0.17S255
G1X0.33S0
G1X0.17S255
G1X0.34S0
G1X0.18S255
G1X0.61S0
G1X0.18S255
G1X0.2S0
G1X0.15S255
G1X0.23S0
G1X0.15S255
G1X0.17S0
G1X0.16S255
G1X0.17S0
G1X0.15S255
G1X0.25S0
G1X0.15S255
G1X-0.06Y0.1S0
G1X-0.44S255
G1X-0.16S0
G1X-0.15S255
G1X-0.21S0
G1X-0.14S255
G1X-0.31S0
G1X-0.14S255
G1X-0.17S0
G1X-0.19S255
G1X-0.6S0
G1X-0.18S255
G1X-0.34S0
G1X-0.17S255
G1X-0.26S0
G1X-0.17S255
G1X0.06Y0.1S0
G1X0.17S255
G1X0.2S0
G1X0.17S255
G1X0.34S0
G1X0.19S255
G1X0.59S0
G1X0.18S255
G1X0.17S0
G1X0.14S255
G1X0.33S0
G1X0.15S255
G1X0.25S0
G1X0.16S255
G1X0.06Y0.1S0
G1X-0.15S255
G1X-0.32S0
G1X-0.14S255
G1X-0.34S0
G1X-0.15S255
G1X-0.18S0
G1X-0.18S255
G1X-0.56S0
G1X-0.18S255
G1X-0.36S0
G1X-0.17S255
G1X-0.13S0
G1X-0.17S255
G1X0.07Y0.1S0
G1X0.17S255
G1X0.06S0
G1X0.17S255
G1X0.39S0
G1X0.18S255
G1X0.51S0
G1X0.18S255
G1X0.21S0
G1X0.14S255
G1X0.33S0
G1X0.15S255
G1X0.38S0
G1X0.16S255
G1X0.07Y0.1S0
G1X-0.16S255
G1X-0.47S0
G1X-0.15S255
G1X-0.29S0
G1X-0.14S255
G1X-0.27S0
G1X-0.2S255
G1X-0.4S0
G1X-0.19S255
G1X-0.43S0
G1X-0.17S255
G1X-0.16
G1X0.07Y0.1S0
G1X0.26S255
G1X0.49S0
G1X0.66S255
G1X0.38S0
G1X0.18S255
G1X0.14S0
G1X0.17S255
G1X0.59S0
G1X0.15S255
G1X0.07Y0.1S0
G1X-0.16S255
G1X-0.76S0
G1X-0.26S255
G1X-0.64S0
G1X-0.37S255
G1X-0.64S0
G1X-0.2S255
G1X-41.88Y4.8S0
G1X0.19S255
G1X0.9S0
G1X0.5S255
G1X0.72S0
G1X0.15S255
G1X0.68S0
G1X0.38S255
G1X0.07Y0.1S0
G1X-0.15S255
G1X-0.22S0
G1X-0.16S255
G1X-0.53S0
G1X-0.15S255
G1X-0.69S0
G1X-0.23S255
G1X-0.24S0
G1X-0.24S255
G1X-0.78S0
G1X-0.19S255
G1X0.02Y0.1S0
G1X0.18S255
G1X0.72S0
G1X0.18S255
G1X0.45S0
G1X0.19S255
G1X0.69S0
G1X0.16S255
G1X0.43S0
G1X0.15S255
G1X0.3S0
G1X0.15S255
G1X0.01Y0.1S0
G1X-0.14S255
G1X-0.34S0
G1X-0.14S255
G1X-0.36S0
G1X-0.15S255
G1X-0.73S0
G1X-0.18S255
G1X-0.53S0
G1X-0.18S255
G1X-0.66S0
G1X-0.18S255
G1X0.03Y0.1S0
G1X0.17S255
G1X0.62S0
G1X0.18S255
G1X0.58S0
G1X0.17S255
G1X0.77S0
G1X0.16S255
G1X0.29S0
G1X0.14S255
G1X0.34S0
G1X0.15S255
G1X46.65Y0.1S0
G1X-0.37S255
G1X-0.68S0
G1X-0.16S255
G1X-0.71S0
G1X-0.55S255
G1X-0.55S0
G1X-0.57S255
G1X-43.07S0
G1X-0.15S255
G1X-0.32S0
G1X-0.15S255
G1X-0.23S0
G1X-0.15S255
G1X-0.21S0
G1X-0.27S255
G1X-0.34S0
G1X-0.18S255
G1X-0.6S0
G1X-0.18S255
G1X-0.57S0
G1X-0.18S255
G1X0.04Y0.1S0
G1X0.18S255
G1X0.52S0
G1X0.18S255
G1X0.61S0
G1X0.18S255
G1X0.23S0
G1X0.17S255
G1X0.15S0
G1X0.17S255
G1X0.16S0
G1X0.16S255
G1X0.18S0
G1X0.14S255
G1X0.3S0
G1X0.14S255
G1X42.97S0
G1X0.29S255
G1X0.22S0
G1X0.3S255
G1X0.31S0
G1X0.28S255
G1X0.24S0
G1X0.28S255
G1X0.65S0
G1X0.15S255
G1X0.54S0
G1X0.16S255
G1X0.21S0
G1X0.16S255
G1X0.03Y0.1S0
G1X-0.14S255
G1X-0.3S0
G1X-0.15S255
G1X-0.44S0
G1X-0.16S255
G1X-0.65S0
G1X-0.21S255
G1X-0.5S0
G1X-0.2S255
G1X-0.21S0
G1X-0.21S255
G1X-0.5S0
G1X-0.21S255
G1X-42.95S0
G1X-0.17S255
G1X-0.16S0
G1X-0.17S255
G1X-0.16S0
G1X-0.15S255
G1X-0.19S0
G1X-0.14S255
G1X-0.29S0
G1X-0.14S255
G1X-0.19S0
G1X-0.18S255
G1X-0.61S0
G1X-0.18S255
G1X-0.48S0
G1X-0.17S255
G1X0.05Y0.1S0
G1X0.17S255
G1X0.44S0
G1X0.18S255
G1X0.6S0
G1X0.18S255
G1X0.17S0
G1X0.14S255
G1X0.33S0
G1X0.14S255
G1X0.23S0
G1X0.16S255
G1X0.2S0
G1X0.28S255
G1X43.04S0
G1X0.18S255
G1X0.58S0
G1X0.2S255
G1X0.94S0
G1X0.19S255
G1X0.69S0
G1X0.15S255
G1X0.37S0
G1X0.14S255
G1X0.33S0
G1X0.15S255
G1Y0.1S0
G1X-0.14S255
G1X-0.34S0
G1X-0.15S255
G1X-0.29S0
G1X-0.16S255
G1X-0.74S0
G1X-0.19S255
G1X-0.96S0
G1X-0.18S255
G1X-44.23S0
G1X-0.15S255
G1X-0.29S0
G1X-0.15S255
G1X-0.33S0
G1X-0.15S255
G1X-0.17S0
G1X-0.18S255
G1X-0.58S0
G1X-0.18S255
G1X-0.39S0
G1X-0.18S255
G1X0.07Y0.1S0
G1X0.17S255
G1X0.35S0
G1X0.18S255
G1X0.54S0
G1X0.18S255
G1X0.19S0
G1X0.15S255
G1X0.33S0
G1X0.15S255
G1X0.35S0
G1X0.16S255
G1X44.1S0
G1X0.21S255
G1X0.98S0
G1X0.19S255
G1X0.36S0
G1X0.24S255
G1X0.22S0
G1X0.15S255
G1X0.24S0
G1X0.14S255
G1X0.33S0
G1X0.15S255
G1X-0.02Y0.1S0
G1X-0.15S255
G1X-0.29S0
G1X-0.15S255
G1X-0.18S0
G1X-0.16S255
G1X-0.16S0
G1X-0.19S255
G1X-0.1S0
G1X-0.19S255
G1X-0.27S0
G1X-0.21S255
G1X-1.02S0
G1X-0.5S255
G1X-43.65S0
G1X-0.16S255
G1X-0.44S0
G1X-0.14S255
G1X-0.31S0
G1X-0.14S255
G1X-0.25S0
G1X-0.18S255
G1X-0.46S0
G1X-0.19S255
G1X-0.32S0
G1X-0.17S255
G1X-0.69Y0.1S0
G1X0.93S255
G1X0.31S0
G1X0.23S255
G1X0.26S0
G1X0.23S255
G1X0.33S0
G1X0.15S255
G1X0.23S0
G1X0.15S255
G1X0.54S0
G1X0.15S255
G1X43.59S0
G1X0.38S255
G1X0.47S0
G1X0.36S255
G1X0.13S0
G1X0.33S255
G1X0.28S0
G1X0.15S255
G1X0.28S0
G1X0.15S255
G1X0.18S0
G1X0.15S255
G1X0.16S0
G1X0.17S255
G1X0.17S0
G1X0.17S255
G1X-0.1Y0.1S0
G1X-0.31S255
G1X-0.19S0
G1X-0.16S255
G1X-0.22S0
G1X-0.15S255
G1X-0.32S0
G1X-0.15S255
G1X-0.39S0
G1X-0.45S255
G1X-0.06S0
G1X-0.18S255
G1X-0.33S0
G1X-0.21S255
G1X-43.83S0
G1X-0.16S255
G1X-0.67S0
G1X-0.39S255
G1X-0.5S0
G1X-0.52S255
G1X-0.41S0
G1X-0.93S255
G1X47.49Y0.1S0
G1X0.18S255
G1X0.29S0
G1X0.17S255
G1X0.9S0
G1X0.14S255
G1X0.34S0
G1X0.15S255
G1X0.28S0
G1X0.16S255
G1X0.06Y0.1S0
G1X-0.15S255
G1X-0.36S0
G1X-0.14S255
G1X-0.34S0
G1X-0.14S255
G1X-0.89S0
G1X-0.17S255
G1X-0.28S0
G1X-0.19S255
G1X-0.7Y0.1S0
G1X0.19S255
G1X0.49S0
G1X0.2S255
G1X0.29S0
G1X0.17S255
G1X0.9S0
G1X0.15S255
G1X0.31S0
G1X0.14S255
G1X0.43S0
G1X0.16S255
G1X0.06Y0.1S0
G1X-0.15S255
G1X-0.53S0
G1X-0.15S255
G1X-0.24S0
G1X-0.15S255
G1X-0.92S0
G1X-0.17S255
G1X-0.34S0
G1X-0.25S255
G1X-0.29S0
G1X-0.25S255
G1X0.1Y0.1S0
G1X0.6S255
G1X0.43S0
G1X0.81S255
G1X0.35S0
G1X0.4S255
G1X0.66S0
G1X0.16S255
G1X-49.13Y5.8S0
G1X-0.4S255
G1X-0.66S0
G1X-0.15S255
G1X-0.69S0
G1X-0.61S255
G1X-0.83S0
G1X-0.18S255
G1Y0.1S0
G1X0.19S255
G1X0.72S0
G1X0.25S255
G1X0.31S0
G1X0.25S255
G1X0.65S0
G1X0.16S255
G1X0.52S0
G1X0.15S255
G1X0.24S0
G1X0.15S255
G1X0.03Y0.1S0
G1X-0.14S255
G1X-0.31S0
G1X-0.15S255
G1X-0.43S0
G1X-0.15S255
G1X-0.66S0
G1X-0.2S255
G1X-0.52S0
G1X-0.2S255
G1X-0.66S0
G1X-0.18S255
G1X0.02Y0.1S0
G1X0.18S255
G1X1.4S0
G1X0.19S255
G1X0.69S0
G1X0.16S255
G1X0.35S0
G1X0.15S255
G1X0.33S0
G1X0.15S255
G1X47.78S0
G1X0.51S255
G1X0.66S0
G1X0.43S255
G1X0.74S0
G1X0.16S255
G1X0.72S0
G1X0.32S255
G1X0.09Y0.1S0
G1X-0.16S255
G1X-0.19S0
G1X-0.16S255
G1X-0.56S0
G1X-0.15S255
G1X-0.69S0
G1X-0.3S255
G1X-0.07S0
G1X-0.3S255
G1X-0.4S0
G1X-0.38S255
G1X-0.04S0
G1X-0.37S255
G1X-47.64S0
G1X-0.15S255
G1X-0.34S0
G1X-0.14S255
G1X-0.28S0
G1X-0.16S255
G1X-0.76S0
G1X-0.18S255
G1X-1.38S0
G1X-0.18S255
G1X0.04Y0.1S0
G1X0.17S255
G1X1.33S0
G1X0.19S255
G1X0.33S0
G1X0.31S255
G1X0.2S0
G1X0.15S255
G1X0.22S0
G1X0.15S255
G1X0.32S0
G1X0.15S255
G1X47.59S0
G1X0.21S255
G1X0.48S0
G1X0.21S255
G1X0.28S0
G1X0.2S255
G1X0.41S0
G1X0.2S255
G1X0.68S0
G1X0.16S255
G1X0.45S0
G1X0.15S255
G1X0.29S0
G1X0.15S255
G1X0.02Y0.1S0
G1X-0.15S255
G1X-0.33S0
G1X-0.14S255
G1X-0.37S0
G1X-0.16S255
G1X-0.72S0
G1X-0.18S255
G1X-0.51S0
G1X-0.18S255
G1X-0.22S0
G1X-0.2S255
G1X-0.57S0
G1X-0.19S255
G1X-47.58S0
G1X-0.15S255
G1X-0.28S0
G1X-0.15S255
G1X-0.17S0
G1X-0.16S255
G1X-0.17S0
G1X-0.16S255
G1X-0.17S0
G1X-0.16S255
G1X-0.27S0
G1X-0.22S255
G1X-0.47S0
G1X-0.19S255
G1X-0.57S0
G1X-0.17S255
G1X0.05Y0.1S0
G1X0.17S255
G1X0.52S0
G1X0.81S255
G1X0.29S0
G1X0.15S255
G1X0.29S0
G1X0.15S255
G1X0.19S0
G1X0.15S255
G1X0.16S0
G1X0.19S255
G1X0.11S0
G1X0.18S255
G1X48.4S0
G1X0.19S255
G1X0.19S0
G1X0.18S255
G1X0.57S0
G1X0.18S255
G1X0.76S0
G1X0.15S255
G1X0.3S0
G1X0.15S255
G1X0.34S0
G1X0.14S255
G1Y0.1S0
G1X-0.15S255
G1X-0.33S0
G1X-0.14S255
G1X-0.24S0
G1X-0.16S255
G1X-0.25S0
G1X-0.15S255
G1X-0.4S0
G1X-0.19S255
G1X-0.59S0
G1X-0.18S255
G1X-0.21S0
G1X-0.2S255
G1X-48.47S0
G1X-0.25S255
G1X-0.21S0
G1X-0.16S255
G1X-0.23S0
G1X-0.15S255
G1X-0.33S0
G1X-0.14S255
G1X-0.43S0
G1X-0.38S255
G1X-0.1S0
G1X-0.17S255
G1X-0.48S0
G1X-0.17S255
G1X0.05Y0.1S0
G1X0.18S255
G1X0.43S0
G1X0.17S255
G1X0.89S0
G1X0.15S255
G1X0.34S0
G1X0.14S255
G1X0.3S0
G1X0.15S255
G1X48.66S0
G1X0.33S255
G1X0.28S0
G1X0.18S255
G1X0.61S0
G1X0.18S255
G1X0.24S0
G1X0.46S255
G1X0.17S0
G1X0.15S255
G1X0.19S0
G1X0.15S255
G1X0.3S0
G1X0.14S255
G1X-0.03Y0.1S0
G1X-0.16S255
G1X-0.2S0
G1X-0.16S255
G1X-0.16S0
G1X-0.16S255
G1X-0.18S0
G1X-0.14S255
G1X-0.27S0
G1X-0.15S255
G1X-0.19S0
G1X-0.18S255
G1X-0.61S0
G1X-0.18S255
G1X-0.46S0
G1X-0.34S255
G1X-48.4S0
G1X-0.16S255
G1X-0.36S0
G1X-0.15S255
G1X-0.33S0
G1X-0.14S255
G1X-0.89S0
G1X-0.18S255
G1X-0.37S0
G1X-0.18S255
G1X0.07Y0.1S0
G1X0.17S255
G1X0.32S0
G1X0.17S255
G1X0.9S0
G1X0.15S255
G1X0.3S0
G1X0.14S255
G1X0.45S0
G1X0.15S255
G1X48.62S0
G1X0.23S255
G1X0.3S0
G1X0.17S255
G1X0.61S0
G1X0.18S255
G1X0.17S0
G1X0.14S255
G1X0.32S0
G1X0.15S255
G1X0.22S0
G1X0.15S255
G1X0.18S0
G1X0.36S255
G1X-0.47Y0.1S0
G1X-0.16S255
G1X-0.27S0
G1X-0.15S255
G1X-0.34S0
G1X-0.14S255
G1X-0.17S0
G1X-0.18S255
G1X-0.59S0
G1X-0.18S255
G1X-0.24S0
G1X-0.19S255
G1X-48.65S0
G1X-0.16S255
G1X-0.54S0
G1X-0.15S255
G1X-0.22S0
G1X-0.16S255
G1X-0.29S0
G1X-0.81S255
G1X-0.26S0
G1X-0.92S255
G1Y0.1S0
G1X0.92S255
G1X0.27S0
G1X0.8S255
G1X0.37S0
G1X0.37S255
G1X0.69S0
G1X0.16S255
G1X48.61S0
G1X0.18S255
G1X0.24S0
G1X0.18S255
G1X0.55S0
G1X0.18S255
G1X0.19S0
G1X0.14S255
G1X0.34S0
G1X0.14S255
G1X0.35S0
G1X0.15S255
G1X0.07Y0.1S0
G1X-0.16S255
G1X-0.42S0
G1X-0.14S255
G1X-0.32S0
G1X-0.14S255
G1X-0.23S0
G1X-0.18S255
G1X-0.48S0
G1X-0.19S255
G1X-0.28S0
G1X-0.19S255
G1X-0.5S0
G1X-0.19S255
G1X0.05Y0.1S0
G1X0.23S255
G1X0.33S0
G1X0.24S255
G1X0.36S0
G1X0.22S255
G1X0.32S0
G1X0.21S255
G1X0.31S0
G1X0.14S255
G1X0.26S0
G1X0.15S255
G1X0.51S0
G1X0.16S255
G1X0.06Y0.1S0
G1X-0.16S255
G1X-0.63S0
G1X-0.43S255
G1X-0.45S0
G1X-0.58S255
G1X-0.53S0
G1X-0.63S255
G1X-28.98Y2S0
G1X0.4S255
G1X6.55S0
G1X0.39S255
G1X0.2Y0.1S0
G1X-0.79S255
G1X-6.15S0
G1X-0.79S255
G1X-0.08Y0.1S0
G1X0.28S255
G1X0.4S0
G1X0.28S255
G1X5.98S0
G1X0.28S255
G1X0.4S0
G1X0.28S255
G1X0.04Y0.1S0
G1X-0.23S255
G1X-0.57S0
G1X-0.24S255
G1X-5.9S0
G1X-0.23S255
G1X-0.57S0
G1X-0.24S255
G1X0.84Y0.1S0
G1X0.23S255
G1X6.71S0
G1X0.23S255
G1X4.9Y0.1S0
G1X-0.23S255
G1X-0.83S0
G1X-0.4S255
G1X-0.94S0
G1X-0.35S255
G1X-0.65S0
G1X-0.23S255
G1X-1.26S0
G1X-0.23S255
G1X-0.37S0
G1X-0.1S255
G1X-3.88S0
G1X-0.16S255
G1X-0.51S0
G1X-0.28S255
G1X-1.42S0
G1X-0.22S255
G1X-0.38S0
G1X-0.09S255
G1X-3.46Y0.1S0
G1X1.38S255
G1X0.29S0
G1X0.22S255
G1X0.63S0
G1X0.23S255
G1X0.44S0
G1X0.62S255
G1X0.12S0
G1X0.23S255
G1X0.35S0
G1X0.22S255
G1X0.65S0
G1X0.67S255
G1X0.16S0
G1X0.39S255
G1X0.46S0
G1X0.33S255
G1X0.65S0
G1X0.22S255
G1X0.35S0
G1X0.23S255
G1X0.62S0
G1X0.23S255
G1X0.44S0
G1X0.62S255
G1X0.13S0
G1X0.22S255
G1X1.12S0
G1X0.45S255
G1X0.35S0
G1X0.79S255
G1X0.49S0
G1X0.86S255
G1X0.46S0
G1X0.45S255
G1X-0.24Y0.1S0
G1X-0.24S255
G1X-0.35S0
G1X-0.26S255
G1X-0.48S0
G1X-0.28S255
G1X-0.32S0
G1X-0.28S255
G1X-0.41S0
G1X-0.29S255
G1X-0.49S0
G1X-0.25S255
G1X-1.08S0
G1X-0.22S255
G1X-0.04S0
G1X-0.18S255
G1X-0.31S0
G1X-0.3S255
G1X-0.36S0
G1X-0.23S255
G1X-0.62S0
G1X-0.23S255
G1X-0.35S0
G1X-0.22S255
G1X-0.61S0
G1X-0.2S255
G1X-0.01S0
G1X-0.2S255
G1X-0.6S0
G1X-0.24S255
G1X-0.05S0
G1X-0.18S255
G1X-0.36S0
G1X-0.27S255
G1X-0.59S0
G1X-0.22S255
G1X-0.35S0
G1X-0.23S255
G1X-0.03S0
G1X-0.18S255
G1X-0.31S0
G1X-0.3S255
G1X-0.36S0
G1X-0.23S255
G1X-0.63S0
G1X-0.22S255
G1X-0.29S0
G1X-1.38S255
G1Y0.1S0
G1X0.24S255
G1X1.43S0
G1X0.22S255
G1X0.63S0
G1X0.23S255
G1X0.32S0
G1X0.25S255
G1X0.51S0
G1X0.33S255
G1X0.35S0
G1X0.22S255
G1X0.57S0
G1X0.23S255
G1X0.54S0
G1X0.33S255
G1X0.59S0
G1X0.2S255
G1X0.07S0
G1X0.21S255
G1X0.57S0
G1X0.22S255
G1X0.35S0
G1X0.23S255
G1X0.62S0
G1X0.23S255
G1X0.32S0
G1X0.25S255
G1X0.51S0
G1X0.33S255
G1X1.07S0
G1X0.23S255
G1X0.47S0
G1X0.24S255
G1X0.62S0
G1X0.23S255
G1X0.22S0
G1X0.22S255
G1X0.66S0
G1X0.22S255
G1X0.29S0
G1X0.23S255
G1Y0.1S0
G1X-0.23S255
G1X-0.28S0
G1X-0.23S255
G1X-2S0
G1X-0.23S255
G1X-0.43S0
G1X-0.23S255
G1X-1.07S0
G1X-0.27S255
G1X-0.61S0
G1X-0.24S255
G1X-0.29S0
G1X-0.23S255
G1X-0.62S0
G1X-0.23S255
G1X-0.35S0
G1X-0.22S255
G1X-0.54S0
G1X-0.21S255
G1X-0.13S0
G1X-0.21S255
G1X-0.55S0
G1X-0.27S255
G1X-0.61S0
G1X-0.23S255
G1X-0.56S0
G1X-0.22S255
G1X-0.35S0
G1X-0.27S255
G1X-0.61S0
G1X-0.24S255
G1X-0.29S0
G1X-0.23S255
G1X-0.63S0
G1X-0.22S255
G1X-1.43S0
G1X-0.24S255
G1Y0.1S0
G1X0.24S255
G1X1.43S0
G1X0.22S255
G1X0.63S0
G1X0.23S255
G1X0.28S0
G1X0.23S255
G1X0.66S0
G1X0.24S255
G1X0.35S0
G1X0.22S255
G1X0.57S0
G1X0.24S255
G1X0.62S0
G1X0.24S255
G1X0.51S0
G1X0.22S255
G1X0.2S0
G1X0.21S255
G1X0.5S0
G1X0.22S255
G1X0.35S0
G1X0.23S255
G1X0.62S0
G1X0.23S255
G1X0.28S0
G1X0.23S255
G1X0.66S0
G1X0.24S255
G1X1.07S0
G1X0.23S255
G1X0.41S0
G1X0.23S255
G1X1.96S0
G1X0.27S255
G1X0.3S0
G1X0.23S255
G1Y0.1S0
G1X-0.23S255
G1X-0.36S0
G1X-0.48S255
G1X-1.7S0
G1X-0.23S255
G1X-0.4S0
G1X-0.23S255
G1X-1.07S0
G1X-0.23S255
G1X-0.68S0
G1X-0.23S255
G1X-0.27S0
G1X-0.23S255
G1X-0.62S0
G1X-0.23S255
G1X-0.35S0
G1X-0.22S255
G1X-0.46S0
G1X-0.22S255
G1X-0.26S0
G1X-0.22S255
G1X-0.48S0
G1X-0.23S255
G1X-0.55S0
G1X-0.28S255
G1X-0.61S0
G1X-0.22S255
G1X-0.35S0
G1X-0.23S255
G1X-0.68S0
G1X-0.23S255
G1X-0.27S0
G1X-0.23S255
G1X-0.63S0
G1X-0.22S255
G1X-1.43S0
G1X-0.24S255
G1Y0.1S0
G1X0.24S255
G1X1.43S0
G1X0.22S255
G1X0.63S0
G1X0.23S255
G1X0.27S0
G1X0.23S255
G1X0.68S0
G1X0.23S255
G1X0.35S0
G1X0.22S255
G1X0.69S0
G1X0.98S255
G1X0.44S0
G1X0.22S255
G1X0.34S0
G1X0.22S255
G1X0.42S0
G1X0.22S255
G1X0.35S0
G1X0.23S255
G1X0.62S0
G1X0.23S255
G1X0.27S0
G1X0.23S255
G1X0.68S0
G1X0.23S255
G1X1.07S0
G1X0.23S255
G1X0.4S0
G1X1.19S255
G1X0.44S0
G1X0.65S255
G1X0.49S0
G1X0.23S255
G1Y0.1S0
G1X-0.23S255
G1X-0.8S0
G1X-0.47S255
G1X-0.31S0
G1X-1.19S255
G1X-0.4S0
G1X-0.23S255
G1X-1.07S0
G1X-0.23S255
G1X-0.67S0
G1X-0.24S255
G1X-0.27S0
G1X-0.23S255
G1X-0.62S0
G1X-0.23S255
G1X-0.35S0
G1X-0.22S255
G1X-0.39S0
G1X-0.22S255
G1X-0.4S0
G1X-0.23S255
G1X-0.4S0
G1X-0.75S255
G1X-0.92S0
G1X-0.22S255
G1X-0.35S0
G1X-0.23S255
G1X-0.68S0
G1X-0.23S255
G1X-0.27S0
G1X-0.23S255
G1X-0.62S0
G1X-0.23S255
G1X-1.43S0
G1X-0.24S255
G1Y0.1S0
G1X1.26S255
G1X0.41S0
G1X0.23S255
G1X0.62S0
G1X0.23S255
G1X0.28S0
G1X0.24S255
G1X0.64S0
G1X0.25S255
G1X0.35S0
G1X0.24S255
G1X1.42S0
G1X0.23S255
G1X0.37S0
G1X0.23S255
G1X0.46S0
G1X0.23S255
G1X0.35S0
G1X0.22S255
G1X0.35S0
G1X0.24S255
G1X0.61S0
G1X0.23S255
G1X0.29S0
G1X0.23S255
G1X0.64S0
G1X0.25S255
G1X1.07S0
G1X0.23S255
G1X0.42S0
G1X0.22S255
G1X0.7S0
G1X0.23S255
G1X0.27S0
G1X0.26S255
G1X1.07S0
G1X0.23S255
G1Y0.1S0
G1X-0.23S255
G1X-1.12S0
G1X-0.22S255
G1X-0.29S0
G1X-0.22S255
G1X-0.65S0
G1X-0.23S255
G1X-0.44S0
G1X-0.23S255
G1X-1.07S0
G1X-0.29S255
G1X-0.58S0
G1X-0.23S255
G1X-0.32S0
G1X-0.23S255
G1X-0.57S0
G1X-0.27S255
G1X-0.35S0
G1X-0.22S255
G1X-0.31S0
G1X-0.23S255
G1X-0.54S0
G1X-0.23S255
G1X-0.34S0
G1X-0.23S255
G1X-0.58S0
G1X-0.07S255
G1X-0.73S0
G1X-0.27S255
G1X-0.35S0
G1X-0.29S255
G1X-0.58S0
G1X-0.24S255
G1X-0.31S0
G1X-0.23S255
G1X-0.58S0
G1X-0.26S255
G1X-0.41S0
G1X-1.26S255
G1Y0.1S0
G1X0.24S255
G1X1.43S0
G1X0.32S255
G1X0.49S0
G1X0.24S255
G1X0.37S0
G1X0.25S255
G1X0.47S0
G1X0.35S255
G1X0.34S0
G1X0.22S255
G1X0.01S0
G1X0.11S255
G1X0.53S0
G1X0.24S255
G1X0.52S0
G1X0.24S255
G1X0.33S0
G1X0.23S255
G1X0.6S0
G1X0.24S255
G1X0.27S0
G1X0.22S255
G1X0.35S0
G1X0.33S255
G1X0.48S0
G1X0.25S255
G1X0.36S0
G1X0.25S255
G1X0.47S0
G1X0.35S255
G1X1.07S0
G1X0.23S255
G1X0.49S0
G1X0.25S255
G1X0.52S0
G1X0.24S255
G1X0.34S0
G1X0.23S255
G1X0.56S0
G1X0.21S255
G1X0.33S0
G1X0.23S255
G1X0.25Y0.1S0
G1X-0.63S255
G1X-0.22S0
G1X-0.38S255
G1X-0.14S0
G1X-0.39S255
G1X-0.45S0
G1X-0.37S255
G1X-0.17S0
G1X-0.34S255
G1X-0.31S0
G1X-0.63S255
G1X-0.92S0
G1X-0.22S255
G1X-0.05S0
G1X-0.24S255
G1X-0.15S0
G1X-0.36S255
G1X-0.45S0
G1X-0.37S255
G1X-0.13S0
G1X-0.25S255
G1X-0.06S0
G1X-0.21S255
G1X-0.35S0
G1X-0.22S255
G1X-0.24S0
G1X-0.23S255
G1X-0.68S0
G1X-0.23S255
G1X-0.34S0
G1X-0.36S255
G1X-0.18S0
G1X-0.36S255
G1X-0.28S0
G1X-0.37S255
G1X-0.05S0
G1X-0.22S255
G1X-0.34S0
G1X-0.22S255
G1X-0.06S0
G1X-0.23S255
G1X-0.15S0
G1X-0.36S255
G1X-0.45S0
G1X-0.37S255
G1X-0.13S0
G1X-0.25S255
G1X-0.06S0
G1X-0.21S255
G1X-1.43S0
G1X-0.24S255
G1Y0.1S0
G1X0.24S255
G1X1.43S0
G1X0.21S255
G1X0.16S0
G1X0.56S255
G1X0.65S0
G1X0.53S255
G1X0.16S0
G1X0.22S255
G1X0.34S0
G1X0.21S255
G1X0.12S0
G1X0.31S255
G1X0.39S0
G1X0.67S255
G1X0.42S0
G1X0.24S255
G1X0.74S0
G1X0.24S255
G1X0.2S0
G1X0.22S255
G1X0.35S0
G1X0.21S255
G1X0.16S0
G1X0.57S255
G1X0.64S0
G1X0.53S255
G1X0.17S0
G1X0.21S255
G1X0.92S0
G1X0.63S255
G1X0.43S0
G1X0.64S255
G1X0.69S0
G1X0.68S255
G1X0.33S0
G1X0.63S255
G1X-0.25Y0.1S0
G1X-0.21S255
G1X-3.19S0
G1X-0.21S255
G1X-11.95S0
G1X-0.24S255
G1Y0.1S0
G1X0.24S255
G1X11.97S0
G1X0.19S255
G1X3.21S0
G1X0.19S255
G1Y0.1S0
G1X-0.16S255
G1X-3.24S0
G1X-0.16S255
G1X-10.91S0
G1X-1.33S255
G1Y0.1S0
G1X1.33S255
G1X6.71S0
G1X0.22S255
G1Y0.1S0
G1X-0.22S255
G1X-27.26Y2S0
G1X0.64S255
G1X0.53S0
G1X0.55S255
G1X0.71S0
G1X0.16S255
G1X0.65S0
G1X0.41S255
G1X47.9S0
G1X0.93S255
G1X0.4S0
G1X0.5S255
G1X0.73S0
G1X0.15S255
G1X0.72S0
G1X0.32S255
G1X0.09Y0.1S0
G1X-0.16S255
G1X-0.18S0
G1X-0.16S255
G1X-0.56S0
G1X-0.16S255
G1X-0.65S0
G1X-0.34S255
G1X-0.09S0
G1X-0.34S255
G1X-0.27S0
G1X-0.93S255
G1X-47.84S0
G1X-0.15S255
G1X-0.24S0
G1X-0.15S255
G1X-0.52S0
G1X-0.15S255
G1X-0.69S0
G1X-0.22S255
G1X-0.28S0
G1X-0.22S255
G1X-0.35S0
G1X-0.23S255
G1X-0.39S0
G1X-0.22S255
G1X-0.04Y0.1S0
G1X0.19S255
G1X0.54S0
G1X0.19S255
G1X0.25S0
G1X0.19S255
G1X0.46S0
G1X0.19S255
G1X0.69S0
G1X0.16S255
G1X0.42S0
G1X0.15S255
G1X0.31S0
G1X0.14S255
G1X47.87S0
G1X0.18S255
G1X0.9S0
G1X0.21S255
G1X0.48S0
G1X0.2S255
G1X0.66S0
G1X0.15S255
G1X0.46S0
G1X0.14S255
G1X0.3S0
G1X0.14S255
G1X0.02Y0.1S0
G1X-0.14S255
G1X-0.33S0
G1X-0.15S255
G1X-0.37S0
G1X-0.16S255
G1X-0.68S0
G1X-0.19S255
G1X-0.58S0
G1X-0.05S255
G1X-0.92S0
G1X-0.21S255
G1X-47.91S0
G1X-0.15S255
G1X-0.33S0
G1X-0.15S255
G1X-0.35S0
G1X-0.15S255
G1X-0.73S0
G1X-0.18S255
G1X-0.54S0
G1X-0.18S255
G1X-0.21S0
G1X-0.18S255
G1X-0.58S0
G1X-0.19S255
G1X0.01Y0.1S0
G1X0.18S255
G1X0.57S0
G1X0.19S255
G1X0.19S0
G1X0.18S255
G1X0.58S0
G1X0.18S255
G1X0.77S0
G1X0.16S255
G1X0.28S0
G1X0.14S255
G1X0.34S0
G1X0.15S255
G1X48S0
G1X0.23S255
G1X1.45S0
G1X0.19S255
G1X0.74S0
G1X0.15S255
G1X0.31S0
G1X0.14S255
G1X0.34S0
G1X0.15S255
G1X-0.01Y0.1S0
G1X-0.14S255
G1X-0.33S0
G1X-0.15S255
G1X-0.24S0
G1X-0.16S255
G1X-0.25S0
G1X-0.14S255
G1X-0.41S0
G1X-0.19S255
G1X-1.33S0
G1X-0.24S255
G1X-48.12S0
G1X-0.15S255
G1X-0.32S0
G1X-0.14S255
G1X-0.23S0
G1X-0.15S255
G1X-0.19S0
G1X-0.33S255
G1X-0.31S0
G1X-0.18S255
G1X-0.6S0
G1X-0.18S255
G1X-0.21S0
G1X-0.19S255
G1X-0.5S0
G1X-0.19S255
G1X0.09Y0.1S0
G1X0.28S255
G1X0.13S0
G1X0.3S255
G1X0.29S0
G1X0.18S255
G1X0.61S0
G1X0.18S255
G1X0.21S0
G1X0.17S255
G1X0.18S0
G1X0.16S255
G1X0.16S0
G1X0.16S255
G1X0.18S0
G1X0.14S255
G1X0.28S0
G1X0.15S255
G1X48.26S0
G1X0.23S255
G1X1.17S0
G1X0.21S255
G1X0.28S0
G1X0.45S255
G1X0.17S0
G1X0.16S255
G1X0.19S0
G1X0.14S255
G1X0.3S0
G1X0.15S255
G1X-0.04Y0.1S0
G1X-0.15S255
G1X-0.21S0
G1X-0.16S255
G1X-0.16S0
G1X-0.15S255
G1X-0.18S0
G1X-0.15S255
G1X-0.27S0
G1X-0.14S255
G1X-0.28S0
G1X-0.29S255
G1X-0.24S0
G1X-0.31S255
G1X-0.39S0
G1X-0.21S255
G1X-48.43S0
G1X-0.2S255
G1X-0.08S0
G1X-0.2S255
G1X-0.15S0
G1X-0.16S255
G1X-0.19S0
G1X-0.15S255
G1X-0.29S0
G1X-0.15S255
G1X-0.17S0
G1X-0.19S255
G1X-0.6S0
G1X-0.18S255
G1X-0.38S0
G1X-0.55S255
G1X-0.11Y0.1S0
G1X0.2S255
G1X0.38S0
G1X0.19S255
G1X0.27S0
G1X0.18S255
G1X0.6S0
G1X0.18S255
G1X0.17S0
G1X0.14S255
G1X0.33S0
G1X0.15S255
G1X0.24S0
G1X0.15S255
G1X0.23S0
G1X0.21S255
G1X48.65S0
G1X0.2S255
G1X0.32S0
G1X0.17S255
G1X0.04S0
G1X0.51S255
G1X0.36S0
G1X0.15S255
G1X0.32S0
G1X0.14S255
G1X0.22S0
G1X0.16S255
G1X0.17S0
G1X0.36S255
G1X-0.47Y0.1S0
G1X-0.15S255
G1X-0.28S0
G1X-0.15S255
G1X-0.33S0
G1X-0.15S255
G1X-0.89S0
G1X-0.18S255
G1X-0.28S0
G1X-0.18S255
G1X-49.08S0
G1X-0.16S255
G1X-0.3S0
G1X-0.14S255
G1X-0.34S0
G1X-0.15S255
G1X-0.17S0
G1X-0.18S255
G1X-0.58S0
G1X-0.17S255
G1X-0.24S0
G1X-0.18S255
G1X-0.5S0
G1X-0.18S255
G1X-0.02Y0.1S0
G1X0.19S255
G1X0.51S0
G1X0.19S255
G1X0.25S0
G1X0.18S255
G1X0.53S0
G1X0.18S255
G1X0.2S0
G1X0.14S255
G1X0.33S0
G1X0.15S255
G1X0.37S0
G1X0.15S255
G1X49.04S0
G1X0.18S255
G1X0.27S0
G1X0.17S255
G1X0.89S0
G1X0.15S255
G1X0.33S0
G1X0.15S255
G1X0.34S0
G1X0.16S255
G1X0.06Y0.1S0
G1X-0.15S255
G1X-0.42S0
G1X-0.14S255
G1X-0.32S0
G1X-0.15S255
G1X-0.89S0
G1X-0.17S255
G1X-0.29S0
G1X-0.19S255
G1X-0.49S0
G1X-0.19S255
G1X-48.27S0
G1X-0.16S255
G1X-0.45S0
G1X-0.14S255
G1X-0.3S0
G1X-0.15S255
G1X-0.25S0
G1X-0.19S255
G1X-0.44S0
G1X-0.19S255
G1X-0.29S0
G1X-0.2S255
G1X-0.47S0
G1X-0.19S255
G1X0.05Y0.1S0
G1X0.24S255
G1X0.27S0
G1X0.25S255
G1X0.4S0
G1X0.27S255
G1X0.17S0
G1X0.26S255
G1X0.35S0
G1X0.15S255
G1X0.21S0
G1X0.16S255
G1X0.55S0
G1X0.15S255
G1X48.25S0
G1X0.23S255
G1X0.34S0
G1X0.23S255
G1X0.32S0
G1X0.18S255
G1X0.91S0
G1X0.15S255
G1X0.26S0
G1X0.14S255
G1X0.51S0
G1X0.16S255
G1X0.06Y0.1S0
G1X-0.15S255
G1X-0.64S0
G1X-0.43S255
G1X-0.34S0
G1X-0.8S255
G1X-0.41S0
G1X-0.63S255
G1X-48.27S0
G1X-0.16S255
G1X-0.69S0
G1X-0.36S255
G1X-0.54S0
G1X-0.47S255
G1X-0.64S0
G1X-0.52S255
G1X2.93Y6.5S0
G1X0.05S255
G1X1.07S0
G1X0.04S255
G1X44.87S0
G1X0.93S255
G1X0.49S0
G1X0.35S255
G1X0.78S0
G1X0.15S255
G1X0.76S0
G1X0.26S255
G1X0.11Y0.1S0
G1X-0.18S255
G1X-0.13S0
G1X-0.17S255
G1X-0.58S0
G1X-0.16S255
G1X-0.69S0
G1X-0.64S255
G1X-0.35S0
G1X-0.93S255
G1X-42.66S0
G1X-0.44S255
G1X-0.63S0
G1X-0.15S255
G1X-0.68S0
G1X-0.67S255
G1X-0.43S0
G1X-0.69S255
G1X-0.08Y0.1S0
G1X0.21S255
G1X0.43S0
G1X0.21S255
G1X0.27S0
G1X0.23S255
G1X0.38S0
G1X0.24S255
G1X0.64S0
G1X0.16S255
G1X0.5S0
G1X0.15S255
G1X0.26S0
G1X0.14S255
G1X42.66S0
G1X0.18S255
G1X0.98S0
G1X0.19S255
G1X0.39S0
G1X0.2S255
G1X0.69S0
G1X0.15S255
G1X0.47S0
G1X0.15S255
G1X0.28S0
G1X0.15S255
G1X0.02Y0.1S0
G1X-0.15S255
G1X-0.32S0
G1X-0.15S255
G1X-0.38S0
G1X-0.16S255
G1X-0.71S0
G1X-0.18S255
G1X-0.5S0
G1X-0.18S255
G1X-0.86S0
G1X-0.2S255
G1X-42.69S0
G1X-0.14S255
G1X-0.32S0
G1X-0.14S255
G1X-0.42S0
G1X-0.15S255
G1X-0.67S0
G1X-0.19S255
G1X-0.55S0
G1X-0.19S255
G1X-0.19S0
G1X-0.19S255
G1X-0.55S0
G1X-0.19S255
G1X-0.01Y0.1S0
G1X0.18S255
G1X0.58S0
G1X0.19S255
G1X0.95S0
G1X0.18S255
G1X0.71S0
G1X0.16S255
G1X0.34S0
G1X0.14S255
G1X0.34S0
G1X0.14S255
G1X42.77S0
G1X0.22S255
G1X0.72S0
G1X0.18S255
G1X0.56S0
G1X0.18S255
G1X0.75S0
G1X0.15S255
G1X0.32S0
G1X0.14S255
G1X0.34S0
G1X0.15S255
G1X-0.01Y0.1S0
G1X-0.14S255
G1X-0.34S0
G1X-0.14S255
G1X-0.25S0
G1X-0.16S255
G1X-0.79S0
G1X-0.19S255
G1X-0.59S0
G1X-0.18S255
G1X-0.58S0
G1X-0.24S255
G1X-42.87S0
G1X-0.14S255
G1X-0.34S0
G1X-0.14S255
G1X-0.27S0
G1X-0.16S255
G1X-0.77S0
G1X-0.19S255
G1X-0.96S0
G1X-0.18S255
G1X-0.57S0
G1X-0.18S255
G1X0.04Y0.1S0
G1X0.19S255
G1X0.47S0
G1X0.19S255
G1X0.98S0
G1X0.19S255
G1X0.31S0
G1X0.37S255
G1X0.18S0
G1X0.15S255
G1X0.21S0
G1X0.15S255
G1X0.32S0
G1X0.14S255
G1X43S0
G1X0.23S255
G1X0.47S0
G1X0.18S255
G1X0.6S0
G1X0.18S255
G1X0.26S0
G1X0.43S255
G1X0.17S0
G1X0.15S255
G1X0.2S0
G1X0.15S255
G1X0.31S0
G1X0.14S255
G1X-0.03Y0.1S0
G1X-0.15S255
G1X-0.23S0
G1X-0.16S255
G1X-0.16S0
G1X-0.16S255
G1X-0.17S0
G1X-0.15S255
G1X-0.25S0
G1X-0.15S255
G1X-0.19S0
G1X-0.18S255
G1X-0.62S0
G1X-0.18S255
G1X-0.35S0
G1X-0.22S255
G1X-43.14S0
G1X-0.15S255
G1X-0.26S0
G1X-0.15S255
G1X-0.17S0
G1X-0.16S255
G1X-0.17S0
G1X-0.15S255
G1X-0.21S0
G1X-0.16S255
G1X-0.27S0
G1X-0.23S255
G1X-0.42S0
G1X-0.21S255
G1X-0.36S0
G1X-0.67S255
G1X0.03Y0.1S0
G1X0.6S255
G1X0.4S0
G1X0.79S255
G1X0.31S0
G1X0.14S255
G1X0.3S0
G1X0.15S255
G1X0.2S0
G1X0.15S255
G1X0.16S0
G1X0.46S255
G1X43.29S0
G1X0.19S255
G1X0.29S0
G1X0.18S255
G1X0.6S0
G1X0.18S255
G1X0.17S0
G1X0.15S255
G1X0.31S0
G1X0.15S255
G1X0.21S0
G1X0.15S255
G1X0.17S0
G1X0.4S255
G1X-0.5Y0.1S0
G1X-0.16S255
G1X-0.26S0
G1X-0.15S255
G1X-0.33S0
G1X-0.15S255
G1X-0.16S0
G1X-0.19S255
G1X-0.58S0
G1X-0.19S255
G1X-0.23S0
G1X-0.19S255
G1X-43.9S0
G1X-0.16S255
G1X-0.25S0
G1X-0.14S255
G1X-0.33S0
G1X-0.15S255
G1X-0.49S0
G1X-0.24S255
G1X-0.17S0
G1X-0.17S255
G1X-0.31S0
G1X-0.19S255
G1X-0.41S0
G1X-0.19S255
G1X-0.04Y0.1S0
G1X0.18S255
G1X0.5S0
G1X0.19S255
G1X0.27S0
G1X0.18S255
G1X0.89S0
G1X0.14S255
G1X0.34S0
G1X0.15S255
G1X0.31S0
G1X0.15S255
G1X43.86S0
G1X0.19S255
G1X0.23S0
G1X0.18S255
G1X0.56S0
G1X0.18S255
G1X0.18S0
G1X0.15S255
G1X0.33S0
G1X0.15S255
G1X0.33S0
G1X0.16S255
G1X0.06Y0.1S0
G1X-0.15S255
G1X-0.41S0
G1X-0.14S255
G1X-0.33S0
G1X-0.14S255
G1X-0.22S0
G1X-0.18S255
G1X-0.5S0
G1X-0.18S255
G1X-0.27S0
G1X-0.19S255
G1X-0.5S0
G1X-0.19S255
G1X-43.09S0
G1X-0.16S255
G1X-0.38S0
G1X-0.14S255
G1X-0.33S0
G1X-0.15S255
G1X-0.89S0
G1X-0.17S255
G1X-0.27S0
G1X-0.19S255
G1X-0.52S0
G1X-0.18S255
G1X0.02Y0.1S0
G1X0.19S255
G1X0.46S0
G1X0.2S255
G1X0.3S0
G1X0.17S255
G1X0.9S0
G1X0.15S255
G1X0.29S0
G1X0.14S255
G1X0.47S0
G1X0.15S255
G1X43.07S0
G1X0.22S255
G1X0.38S0
G1X0.22S255
G1X0.34S0
G1X0.2S255
G1X0.36S0
G1X0.2S255
G1X0.29S0
G1X0.15S255
G1X0.27S0
G1X0.15S255
G1X0.49S0
G1X0.16S255
G1X0.06Y0.1S0
G1X-0.15S255
G1X-0.61S0
G1X-0.47S255
G1X-0.41S0
G1X-0.62S255
G1X-0.49S0
G1X-0.66S255
G1X-43.08S0
G1X-0.16S255
G1X-0.57S0
G1X-0.16S255
G1X-0.17S0
G1X-0.17S255
G1X-0.3S0
G1X-0.81S255
G1X-0.36S0
G1X-0.28S255
G1X-0.17S0
G1X-0.28S255
G1X0.14Y0.1S0
G1X0.45S255
G1X0.51S0
G1X0.8S255
G1X0.41S0
G1X0.29S255
G1X0.74S0
G1X0.16S255
G1X43.22S0
G1X0.24S255
G1X0.9S0
G1X0.22S255
G1X0.81S0
G1X0.07S255
G1X46.84Y4.2S0
G1X-0.56S255
G1X-11.7Y0.1S0
G1X0.32S255
G1X1.4S0
G1X0.32S255
G1X5.4S0
G1X0.33S255
G1X1.82S0
G1X1.39S255
G1X0.44S0
G1X1.06S255
G1X1.57S0
G1X0.26S255
G1X1.71S0
G1X1.14S255
G1X1.04S0
G1X0.27S255
G1X1.34S0
G1X0.81S255
G1Y0.1S0
G1X-0.81S255
G1X-1.34S0
G1X-0.27S255
G1X-0.86S0
G1X-1.32S255
G1X-1.71S0
G1X-0.26S255
G1X-1.46S0
G1X-1.17S255
G1X-0.44S0
G1X-1.39S255
G1X-1.52S0
G1X-0.92S255
G1X-0.64S0
G1X-0.31S255
G1X-0.9S0
G1X-0.34S255
G1X-1.33S0
G1X-0.31S255
G1X-0.41S0
G1X-0.32S255
G1X-0.25S0
G1X-0.86S255
G1X-0.9S0
G1X-0.83S255
G1X-0.11Y0.1S0
G1X1.05S255
G1X0.69S0
G1X1.11S255
G1X0.07S0
G1X0.31S255
G1X0.45S0
G1X0.31S255
G1X1.29S0
G1X0.42S255
G1X0.86S0
G1X0.31S255
G1X0.51S0
G1X1.18S255
G1X1.4S0
G1X0.34S255
G1X1.48S0
G1X0.17S255
G1X0.73S0
G1X0.34S255
G1X1.39S0
G1X0.26S255
G1X1.71S0
G1X0.27S255
G1X0.7S0
G1X0.47S255
G1X0.74S0
G1X0.27S255
G1X1.61S0
G1X0.27S255
G1Y0.1S0
G1X-0.27S255
G1X-1.61S0
G1X-0.27S255
G1X-0.66S0
G1X-0.35S255
G1X-0.9S0
G1X-0.27S255
G1X-1.71S0
G1X-0.26S255
G1X-1.34S0
G1X-0.3S255
G1X-2.35S0
G1X-0.35S255
G1X-1.44S0
G1X-0.38S255
G1X-0.52S0
G1X-0.43S255
G1X-0.43S0
G1X-0.31S255
G1X-0.82S0
G1X-0.5S255
G1X-1.25S0
G1X-0.31S255
G1X-0.46S0
G1X-0.61S255
G1X-0.55S0
G1X-0.39S255
G1X-0.55S0
G1X-0.47S255
G1X-0.25S0
G1X-0.46S255
G1X-0.04Y0.1S0
G1X0.35S255
G1X0.55S0
G1X0.37S255
G1X0.47S0
G1X0.34S255
G1X0.77S0
G1X0.46S255
G1X0.47S0
G1X0.31S255
G1X1.22S0
G1X0.28S255
G1X0.28
G1X0.79S0
G1X0.31S255
G1X0.38S0
G1X0.35S255
G1X0.76S0
G1X0.31S255
G1X1.52S0
G1X0.35S255
G1X2.28S0
G1X0.28S255
G1X1.31S0
G1X0.26S255
G1X1.71S0
G1X0.27S255
G1X1.01S0
G1X0.31S255
G1X0.59S0
G1X0.27S255
G1X1.61S0
G1X0.27S255
G1Y0.1S0
G1X-0.27S255
G1X-1.61S0
G1X-0.27S255
G1X-0.54S0
G1X-0.29S255
G1X-1.08S0
G1X-0.27S255
G1X-1.4S0
G1X-1.55S255
G1X-0.32S0
G1X-0.28S255
G1X-2.18S0
G1X-0.34S255
G1X-1.6S0
G1X-0.32S255
G1X-0.85S0
G1X-0.32S255
G1X-0.35S0
G1X-0.31S255
G1X-0.75S0
G1X-0.29S255
G1X-0.07S0
G1X-0.28S255
G1X-1.18S0
G1X-0.31S255
G1X-0.48S0
G1X-0.38S255
G1X-0.86S0
G1X-0.34S255
G1X-0.42S0
G1X-0.34S255
G1X-0.66S0
G1X-0.34S255
G1X-41.85Y0.1S0
G1X0.88S255
G1X0.32S0
G1X0.66S255
G1X0.68S0
G1X0.15S255
G1X0.63S0
G1X0.43S255
G1X38.1S0
G1X0.31S255
G1X0.71S0
G1X0.33S255
G1X0.43S0
G1X0.33S255
G1X0.89S0
G1X0.34S255
G1X0.48S0
G1X0.31S255
G1X1.14S0
G1X0.29S255
G1X0.13S0
G1X0.3S255
G1X0.71S0
G1X0.31S255
G1X0.52S0
G1X0.12S255
G1X0.87S0
G1X0.32S255
G1X1.72S0
G1X0.34S255
G1X2.08S0
G1X0.28S255
G1X0.31S0
G1X1.55S255
G1X1.4S0
G1X0.27S255
G1X1.12S0
G1X0.29S255
G1X0.5S0
G1X0.27S255
G1X1.61S0
G1X0.27S255
G1Y0.1S0
G1X-0.27S255
G1X-1.08S0
G1X-0.8S255
G1X-0.47S0
G1X-0.29S255
G1X-1.15S0
G1X-0.27S255
G1X-1.4S0
G1X-1.55S255
G1X-0.32S0
G1X-0.29S255
G1X-1.96S0
G1X-0.34S255
G1X-1.82S0
G1X-0.41S255
G1X-1.42S0
G1X-0.31S255
G1X-0.67S0
G1X-0.3S255
G1X-0.2S0
G1X-0.3S255
G1X-1.1S0
G1X-0.31S255
G1X-0.48S0
G1X-0.32S255
G1X-0.85S0
G1X-0.37S255
G1X-0.44S0
G1X-0.33S255
G1X-0.74S0
G1X-0.3S255
G1X-38.03S0
G1X-0.14S255
G1X-0.26S0
G1X-0.15S255
G1X-0.5S0
G1X-0.16S255
G1X-0.64S0
G1X-0.24S255
G1X-0.37S0
G1X-0.24S255
G1X-0.57S0
G1X-0.18S255
G1Y0.1S0
G1X0.18S255
G1X0.53S0
G1X0.2S255
G1X0.54S0
G1X0.19S255
G1X0.67S0
G1X0.15S255
G1X0.42S0
G1X0.14S255
G1X0.32S0
G1X0.14S255
G1X39.04S0
G1X0.34S255
G1X0.49S0
G1X0.56S255
G1X0.61S0
G1X0.31S255
G1X0.48S0
G1X0.31S255
G1X1.06S0
G1X0.31S255
G1X0.27S0
G1X0.3S255
G1X0.63S0
G1X0.31S255
G1X1.12S0
G1X0.66S255
G1X1.97S0
G1X0.34S255
G1X1.8S0
G1X0.32S255
G1X0.35S0
G1X0.26S255
G1X0.72S0
G1X0.26S255
G1X1.71S0
G1X0.27S255
G1X1.17S0
G1X0.28S255
G1X0.46S0
G1X1.05S255
G1X0.83S0
G1X0.27S255
G1Y0.1S0
G1X-0.27S255
G1X-0.71S0
G1X-1.17S255
G1X-0.45S0
G1X-0.28S255
G1X-1.18S0
G1X-0.27S255
G1X-1.71S0
G1X-0.26S255
G1X-0.63S0
G1X-0.27S255
G1X-0.48S0
G1X-0.4S255
G1X-1.59S0
G1X-0.32S255
G1X-2.15S0
G1X-0.93S255
G1X-0.77S0
G1X-0.31S255
G1X-0.6S0
G1X-0.3S255
G1X-0.34S0
G1X-0.3S255
G1X-1.03S0
G1X-0.31S255
G1X-0.48S0
G1X-0.31S255
G1X-0.13S0
G1X-0.95S255
G1X-0.58S0
G1X-0.34S255
G1X-39.03S0
G1X-0.14S255
G1X-0.34S0
G1X-0.14S255
G1X-0.34S0
G1X-0.16S255
G1X-0.71S0
G1X-0.18S255
G1X-1.3S0
G1X-0.18S255
G1Y0.1S0
G1X0.18S255
G1X1.3S0
G1X0.19S255
G1X0.77S0
G1X0.15S255
G1X0.28S0
G1X0.14S255
G1X0.34S0
G1X0.14S255
G1X39.03S0
G1X0.34S255
G1X0.75S0
G1X1.22S255
G1X0.48S0
G1X0.31S255
G1X0.99S0
G1X0.3S255
G1X0.42S0
G1X0.3S255
G1X0.56S0
G1X0.31S255
G1X0.57S0
G1X0.96S255
G1X2.4S0
G1X0.32S255
G1X0.75S0
G1X1.08S255
G1X0.64S0
G1X0.27S255
G1X0.55S0
G1X0.26S255
G1X1.71S0
G1X0.27S255
G1X1.17S0
G1X0.29S255
G1X0.45S0
G1X0.27S255
G1X0.63S0
G1X0.34S255
G1X0.64S0
G1X0.27S255
G1Y0.1S0
G1X-0.27S255
G1X-0.59S0
G1X-0.3S255
G1X-0.72S0
G1X-0.27S255
G1X-0.46S0
G1X-0.29S255
G1X-1.16S0
G1X-0.27S255
G1X-1.71S0
G1X-0.26S255
G1X-0.46S0
G1X-0.27S255
G1X-0.87S0
G1X-0.94S255
G1X-0.69S0
G1X-0.3S255
G1X-2.8S0
G1X-0.74S255
G1X-0.47S0
G1X-0.31S255
G1X-0.52S0
G1X-0.31S255
G1X-0.48S0
G1X-0.31S255
G1X-0.94S0
G1X-0.32S255
G1X-0.48S0
G1X-0.69S255
G1X-1.28S0
G1X-0.34S255
G1X-39.03S0
G1X-0.15S255
G1X-0.32S0
G1X-0.15S255
G1X-0.21S0
G1X-0.16S255
G1X-0.18S0
G1X-0.36S255
G1X-0.31S0
G1X-0.19S255
G1X-1.28S0
G1X-0.18S255
G1X-32.65S0
G1X-0.35S255
G1X-0.7S0
G1X-0.15S255
G1X-0.74S0
G1X-0.45S255
G1X-0.72S0
G1X-0.47S255
G1X-0.1Y0.1S0
G1X0.26S255
G1X0.17S0
G1X0.26S255
G1X0.48S0
G1X0.27S255
G1X0.15S0
G1X0.27S255
G1X0.68S0
G1X0.16S255
G1X0.55S0
G1X0.16S255
G1X0.2S0
G1X0.15S255
G1X32.57S0
G1X0.18S255
G1X0.57S0
G1X0.21S255
G1X0.43S0
G1X0.23S255
G1X0.26S0
G1X0.16S255
G1X0.21S0
G1X0.15S255
G1X0.17S0
G1X0.16S255
G1X0.17S0
G1X0.15S255
G1X0.26S0
G1X0.15S255
G1X39.06S0
G1X0.34S255
G1X1.66S0
G1X0.31S255
G1X0.48S0
G1X0.33S255
G1X0.89S0
G1X0.31S255
G1X0.56S0
G1X0.31S255
G1X0.48S0
G1X0.31S255
G1X0.43S0
G1X0.44S255
G1X3.18S0
G1X0.3S255
G1X0.65S0
G1X0.27S255
G1X1.63S0
G1X0.27S255
G1X0.37S0
G1X0.26S255
G1X1.71S0
G1X0.27S255
G1X1.14S0
G1X0.3S255
G1X0.47S0
G1X0.27S255
G1X0.76S0
G1X0.29S255
G1X0.56S0
G1X0.27S255
G1Y0.1S0
G1X-0.27S255
G1X-0.55S0
G1X-0.28S255
G1X-0.78S0
G1X-0.27S255
G1X-0.51S0
G1X-0.29S255
G1X-1.11S0
G1X-0.27S255
G1X-1.71S0
G1X-0.26S255
G1X-0.29S0
G1X-0.27S255
G1X-1.71S0
G1X-0.27S255
G1X-0.63S0
G1X-0.28S255
G1X-3.37S0
G1X-0.33S255
G1X-0.39S0
G1X-0.31S255
G1X-0.44S0
G1X-0.31S255
G1X-0.63S0
G1X-0.32S255
G1X-0.83S0
G1X-0.35S255
G1X-0.48S0
G1X-0.31S255
G1X-0.91S0
G1X-0.12S255
G1X-0.63S0
G1X-0.34S255
G1X-39.11S0
G1X-0.46S255
G1X-0.16S0
G1X-0.15S255
G1X-0.2S0
G1X-0.15S255
G1X-0.3S0
G1X-0.14S255
G1X-0.31S0
G1X-0.79S255
G1X-0.57S0
G1X-0.18S255
G1X-32.53S0
G1X-0.14S255
G1X-0.3S0
G1X-0.15S255
G1X-0.45S0
G1X-0.15S255
G1X-0.69S0
G1X-0.19S255
G1X-0.43S0
G1X-0.19S255
G1X-0.35S0
G1X-0.2S255
G1X-0.42S0
G1X-0.19S255
G1X0.67Y0.1S0
G1X0.18S255
G1X0.27S0
G1X0.18S255
G1X0.53S0
G1X0.18S255
G1X0.71S0
G1X0.16S255
G1X0.37S0
G1X0.14S255
G1X0.33S0
G1X0.15S255
G1X32.51S0
G1X0.18S255
G1X0.58S0
G1X0.17S255
G1X0.15S0
G1X0.27S255
G1X0.48S0
G1X0.15S255
G1X0.33S0
G1X0.14S255
G1X0.25S0
G1X0.16S255
G1X0.28S0
G1X0.09S255
G1X39.29S0
G1X0.34S255
G1X0.47S0
G1X0.31S255
G1X0.86S0
G1X0.32S255
G1X0.49S0
G1X0.39S255
G1X0.76S0
G1X0.31S255
G1X0.7S0
G1X0.31S255
G1X0.41S0
G1X0.31S255
G1X0.4S0
G1X0.29S255
G1X0.76S0
G1X0.32S255
G1X2.33S0
G1X0.28S255
G1X0.62S0
G1X0.27S255
G1X1.8S0
G1X0.27S255
G1X0.2S0
G1X0.26S255
G1X1.71S0
G1X0.27S255
G1X1.06S0
G1X0.31S255
G1X0.54S0
G1X0.27S255
G1X0.78S0
G1X0.28S255
G1X0.55S0
G1X0.27S255
G1Y0.1S0
G1X-0.27S255
G1X-0.56S0
G1X-0.3S255
G1X-0.75S0
G1X-0.27S255
G1X-0.6S0
G1X-0.33S255
G1X-0.98S0
G1X-0.27S255
G1X-1.71S0
G1X-0.26S255
G1X-0.12S0
G1X-0.27S255
G1X-1.88S0
G1X-0.27S255
G1X-0.62S0
G1X-0.29S255
G1X-2.35S0
G1X-0.34S255
G1X-0.68S0
G1X-0.31S255
G1X-0.41S0
G1X-0.31S255
G1X-0.37S0
G1X-0.31S255
G1X-0.78S0
G1X-0.31S255
G1X-0.23S0
G1X-0.41S0
G1X-0.47S255
G1X-0.5S0
G1X-0.36S255
G1X-0.74S0
G1X-0.35S255
G1X-0.5S0
G1X-0.34S255
G1X-39.6S0
G1X-0.15S255
G1X-0.31S0
G1X-0.15S255
G1X-0.33S0
G1X-0.15S255
G1X-0.89S0
G1X-0.18S255
G1X-0.58S0
G1X-0.18S255
G1X-32.51S0
G1X-0.14S255
G1X-0.34S0
G1X-0.15S255
G1X-0.29S0
G1X-0.16S255
G1X-0.76S0
G1X-0.18S255
G1X-0.57S0
G1X-0.18S255
G1X-0.23S0
G1X-0.17S255
G1X-0.54Y0.1S0
G1X0.44S255
G1X0.12S0
G1X0.17S255
G1X0.2S0
G1X0.18S255
G1X0.59S0
G1X0.19S255
G1X0.37S0
G1X0.2S255
G1X0.24S0
G1X0.15S255
G1X0.24S0
G1X0.14S255
G1X0.33S0
G1X0.15S255
G1X32.19S0
G1X0.1S255
G1X0.22S0
G1X0.18S255
G1X0.59S0
G1X0.17S255
G1X0.89S0
G1X0.15S255
G1X0.33S0
G1X0.14S255
G1X0.38S0
G1X0.16S255
G1X39.53S0
G1X0.34S255
G1X0.56S0
G1X0.45S255
G1X0.41S0
G1X0.49S255
G1X0.54S0
G1X0.28S255
G1X0.02S0
G1X0.62S255
G1X0.15S0
G1X0.32S255
G1X0.85S0
G1X0.31S255
G1X0.33S0
G1X0.31S255
G1X0.45S0
G1X0.4S255
G1X0.41S0
G1X0.44S255
G1X1.43S0
G1X0.04S255
G1X0.88S0
G1X0.31S255
G1X0.64S0
G1X0.27S255
G1X1.97S0
G1X0.27S255
G1X0.03S0
G1X0.26S255
G1X1.71S0
G1X0.27S255
G1X0.85S0
G1X0.39S255
G1X0.67S0
G1X0.27S255
G1X0.69S0
G1X0.33S255
G1X0.59S0
G1X0.27S255
G1Y0.1S0
G1X-0.27S255
G1X-0.65S0
G1X-0.45S255
G1X-0.51S0
G1X-0.27S255
G1X-0.77S0
G1X-0.56S255
G1X-0.58S0
G1X-0.27S255
G1X-1.71S0
G1X-0.47S255
G1X-2.06S0
G1X-0.27S255
G1X-0.68S0
G1X-0.37S255
G1X-0.57S0
G1X-0.25S255
G1X-1.5S0
G1X-1.1S255
G1X-0.53S0
G1X-0.31S255
G1X-0.29S0
G1X-0.32S255
G1X-0.92S0
G1X-0.32S255
G1X-0.07S0
G1X-0.6S255
G1X-0.08S0
G1X-0.28S255
G1X-0.61S0
G1X-1.19S255
G1X-0.65S0
G1X-0.34S255
G1X-39.47S0
G1X-0.15S255
G1X-0.46S0
G1X-0.15S255
G1X-0.29S0
G1X-0.15S255
G1X-0.9S0
G1X-0.17S255
G1X-0.6S0
G1X-0.18S255
G1X-0.07S0
G1X-0.24S255
G1X-32.22S0
G1X-0.14S255
G1X-0.3S0
G1X-0.15S255
G1X-0.18S0
G1X-0.16S255
G1X-0.16S0
G1X-0.21S255
G1X-0.05S0
G1X-0.21S255
G1X-0.24S0
G1X-0.18S255
G1X-0.61S0
G1X-0.18S255
G1X-0.18S0
G1X-0.18S255
G1X-0.02S0
G1X-0.18S255
G1X-0.2S0
G1X-0.27S255
G1X-0.05Y0.1S0
G1X0.2S255
G1X0.46S0
G1X0.24S255
G1X0.18S0
G1X0.18S255
G1X0.61S0
G1X0.18S255
G1X0.19S0
G1X0.14S255
G1X0.28S0
G1X0.14S255
G1X0.19S0
G1X0.15S255
G1X0.16S0
G1X0.16S255
G1X0.19S0
G1X0.16S255
G1X32.4S0
G1X0.35S255
G1X0.6S0
G1X0.81S255
G1X0.3S0
G1X0.17S255
G1X0.18S0
G1X0.16S255
G1X0.56S0
G1X0.16S255
G1X39.4S0
G1X0.34S255
G1X0.81S0
G1X0.89S255
G1X0.75S0
G1X0.28S255
G1X0.17S0
G1X0.51S255
G1X0.03S0
G1X0.33S255
G1X0.99S0
G1X0.31S255
G1X0.26S0
G1X0.31S255
G1X0.68S0
G1X0.8S255
G1X1.65S0
G1X1.12S255
G1X0.75S0
G1X1.24S255
G1X1.17S0
G1X0.39S255
G1X1.71S0
G1X1.29S255
G1X0.89S0
G1X1.13S255
G1X0.48S0
G1X0.81S255
G1Y0.1S0
G1X-0.81S255
G1X-0.66S0
G1X-0.95S255
G1X-1.14S0
G1X-1.04S255
G1X-1.71S0
G1X-0.3S255
G1X-1.26S0
G1X-1.24S255
G1X-0.87S0
G1X-0.93S255
G1X-8.84S0
G1X-0.34S255
G1X-39.34S0
G1X-0.15S255
G1X-0.73S0
G1X-0.31S255
G1X-0.4S0
G1X-0.8S255
G1X-0.61S0
G1X-0.2S255
G1X-32.63S0
G1X-0.34S255
G1X-0.18S0
G1X-0.16S255
G1X-0.22S0
G1X-0.15S255
G1X-0.32S0
G1X-0.14S255
G1X-0.17S0
G1X-0.18S255
G1X-0.6S0
G1X-0.18S255
G1X-0.19S0
G1X-0.2S255
G1X-0.54S0
G1X-0.19S255
G1X-0.01Y0.1S0
G1X0.18S255
G1X0.57S0
G1X0.18S255
G1X0.21S0
G1X0.18S255
G1X0.58S0
G1X0.18S255
G1X0.17S0
G1X0.14S255
G1X0.34S0
G1X0.15S255
G1X0.28S0
G1X0.15S255
G1X75.63S0
G1X0.34S255
G1X9.3S0
G1X0.1S255
G1X-9.4Y0.1S0
G1X-0.34S255
G1X-75.56S0
G1X-0.16S255
G1X-0.35S0
G1X-0.14S255
G1X-0.33S0
G1X-0.15S255
G1X-0.19S0
G1X-0.18S255
G1X-0.54S0
G1X-0.19S255
G1X-0.24S0
G1X-0.18S255
G1X-0.54S0
G1X-0.18S255
G1X0.02Y0.1S0
G1X0.19S255
G1X0.47S0
G1X0.19S255
G1X0.31S0
G1X0.18S255
G1X0.47S0
G1X0.19S255
G1X0.23S0
G1X0.15S255
G1X0.31S0
G1X0.14S255
G1X0.43S0
G1X0.15S255
G1X75.5S0
G1X0.34S255
G1X5.33S0
G1X0.31S255
G1Y0.1S0
G1X-0.31S255
G1X-5.33S0
G1X-0.34S255
G1X-75.43S0
G1X-0.16S255
G1X-0.52S0
G1X-0.14S255
G1X-0.25S0
G1X-0.15S255
G1X-0.31S0
G1X-0.22S255
G1X-0.3S0
G1X-0.22S255
G1X-0.41S0
G1X-0.23S255
G1X-0.29S0
G1X-0.23S255
G1X0.09Y0.1S0
G1X0.57S255
G1X0.58S0
G1X0.57S255
G1X0.46S0
G1X0.42S255
G1X0.65S0
G1X0.16S255
G1X75.36S0
G1X0.34S255
G1X5.33S0
G1X0.31S255
G1Y0.1S0
G1X-0.31S255
G1X-5.33S0
G1X-0.34S255
G1X-4.45Y1.1S0
G1X0.97S255
G1X8.07S0
G1X0.97S255
G1X8.95S0
G1X0.96S255
G1X0.16Y0.1S0
G1X-1.12S255
G1X-8.8S0
G1X-1.12S255
G1X-7.92S0
G1X-1.12S255
G1Y0.1S0
G1X0.33S255
G1X0.42S0
G1X0.46S255
G1X7.83S0
G1X0.33S255
G1X0.42S0
G1X0.45S255
G1X8.72S0
G1X0.33S255
G1X0.42S0
G1X0.45S255
G1X0.06Y0.1S0
G1X-0.32S255
G1X-9.6S0
G1X-0.32S255
G1X-8.72S0
G1X-0.32S255
G1X0.07Y0.1S0
G1X0.29S255
G1X8.75S0
G1X0.29S255
G1X9.63S0
G1X0.29S255
G1X0.02Y0.1S0
G1X-0.28S255
G1X-9.64S0
G1X-0.28S255
G1X-8.76S0
G1X-0.28S255
G1X-4.77Y0.1S0
G1X1.46S255
G1X0.6S0
G1X0.72S255
G1X1.4S0
G1X0.1S255
G1X0.5S0
G1X0.29S255
G1X0.9S0
G1X0.72S255
G1X2.03S0
G1X1.52S255
G1X0.46S0
G1X0.29S255
G1X0.87S0
G1X0.29S255
G1X1.07S0
G1X0.1S255
G1X0.5S0
G1X0.28S255
G1X0.59S0
G1X0.29S255
G1X1.15S0
G1X0.67S255
G1X0.24S0
G1X0.29S255
G1X1.03S0
G1X0.32S255
G1X1.07S0
G1X0.29S255
G1X0.58S0
G1X0.29S255
G1X0.87S0
G1X0.29S255
G1X1.07S0
G1X0.1S255
G1X0.5S0
G1X0.28S255
G1X2.24S0
G1X0.31S255
G1X1.15S0
G1X0.83S255
G1X0.75S0
G1X0.83S255
G1X1.01S0
G1X0.64S255
G1Y0.1S0
G1X-0.77S255
G1X-0.72S0
G1X-1.18S255
G1X-0.36S0
G1X-1.21S255
G1X-0.97S0
G1X-0.31S255
G1X-2.23S0
G1X-0.29S255
G1X-0.15S0
G1X-0.77S255
G1X-0.75S0
G1X-0.29S255
G1X-0.87S0
G1X-0.29S255
G1X-0.58S0
G1X-0.29S255
G1X-1.03S0
G1X-0.4S255
G1X-0.99S0
G1X-0.29S255
G1X-0.07S0
G1X-0.97S255
G1X-1.02S0
G1X-0.29S255
G1X-0.58S0
G1X-0.29S255
G1X-0.15S0
G1X-0.76S255
G1X-0.76S0
G1X-0.29S255
G1X-0.87S0
G1X-0.29S255
G1X-0.46S0
G1X-1.52S255
G1X-1.88S0
G1X-1.02S255
G1X-0.75S0
G1X-0.29S255
G1X-0.15S0
G1X-0.76S255
G1X-0.94S0
G1X-1.02S255
G1X-0.45S0
G1X-1.46S255
G1Y0.1S0
G1X1.46S255
G1X0.35S0
G1X0.45S255
G1X0.33S0
G1X0.44S255
G1X0.72S0
G1X1.03S255
G1X0.3
G1X0.64S0
G1X0.44S255
G1X0.33S0
G1X0.44S255
G1X1.79S0
G1X1.52S255
G1X0.46S0
G1X0.29S255
G1X0.87S0
G1X0.29S255
G1X0.64S0
G1X1.03S255
G1X0.29
G1X0.58S0
G1X0.29S255
G1X0.95S0
G1X0.53S255
G1X0.14S0
G1X0.73S255
G1X0.95S0
G1X0.48S255
G1X0.99S0
G1X0.29S255
G1X0.58S0
G1X0.29S255
G1X0.87S0
G1X0.29S255
G1X0.64S0
G1X1.02S255
G1X0.01S0
G1X0.29S255
G1X2.23S0
G1X0.31S255
G1X0.86S0
G1X0.54S255
G1X0.33S0
G1X0.45S255
G1X0.36S0
G1X0.45S255
G1X0.4S0
G1X0.42S255
G1X0.57S0
G1X0.44S255
G1X0.21S0
G1X0.18S255
G1X-0.54Y0.1S0
G1X-0.32S255
G1X-0.49S0
G1X-0.3S255
G1X-0.84S0
G1X-0.18S255
G1X-0.36S0
G1X-0.17S255
G1X-0.85S0
G1X-0.38S255
G1X-0.78S0
G1X-0.31S255
G1X-2.23S0
G1X-0.57S255
G1X-0.4S0
G1X-0.42S255
G1X-0.57S0
G1X-0.29S255
G1X-0.87S0
G1X-0.29S255
G1X-0.58S0
G1X-0.29S255
G1X-0.95S0
G1X-0.56S255
G1X-0.91S0
G1X-0.43S255
G1X-0.67S0
G1X-0.34S255
G1X-0.91S0
G1X-0.29S255
G1X-0.58S0
G1X-0.57S255
G1X-0.4S0
G1X-0.42S255
G1X-0.57S0
G1X-0.29S255
G1X-0.87S0
G1X-0.29S255
G1X-1.68S0
G1X-0.3S255
G1X-1.72S0
G1X-0.35S255
G1X-0.65S0
G1X-0.35S255
G1X-0.57S0
G1X-0.58S255
G1X-0.4S0
G1X-0.42S255
G1X-0.58S0
G1X-0.35S255
G1X-0.66S0
G1X-0.35S255
G1X-1.43S0
G1X-0.31S255
G1Y0.1S0
G1X0.31S255
G1X1.39S0
G1X0.32S255
G1X0.8S0
G1X0.32S255
G1X0.49S0
G1X0.34S255
G1X0.75S0
G1X0.36S255
G1X0.52S0
G1X0.32S255
G1X0.81S0
G1X0.32S255
G1X1.67S0
G1X0.3S255
G1X1.68S0
G1X0.29S255
G1X0.87S0
G1X0.29S255
G1X0.52S0
G1X0.34S255
G1X0.74S0
G1X0.36S255
G1X0.58S0
G1X0.29S255
G1X0.89S0
G1X0.31S255
G1X0.86S0
G1X0.29S255
G1X0.87S0
G1X0.3S255
G1X0.06S0
G1X0.28S255
G1X0.91S0
G1X0.29S255
G1X0.58S0
G1X0.29S255
G1X0.87S0
G1X0.29S255
G1X0.52S0
G1X0.34S255
G1X0.74S0
G1X0.36S255
G1X2.23S0
G1X0.31S255
G1X0.73S0
G1X0.33S255
G1X1.48S0
G1X0.02S255
G1X1.03S0
G1X0.3S255
G1X0.44S0
G1X0.3S255
G1X-0.02Y0.1S0
G1X-0.29S255
G1X-0.43S0
G1X-0.3S255
G1X-2.59S0
G1X-0.31S255
G1X-0.69S0
G1X-0.31S255
G1X-2.23S0
G1X-0.29S255
G1X-0.86S0
G1X-0.33S255
G1X-0.48S0
G1X-0.29S255
G1X-0.87S0
G1X-0.29S255
G1X-0.58S0
G1X-0.29S255
G1X-0.87S0
G1X-0.28S255
G1X-0.14S0
G1X-0.3S255
G1X-0.83S0
G1X-0.29S255
G1X-0.88S0
G1X-0.3S255
G1X-0.88S0
G1X-0.29S255
G1X-0.58S0
G1X-0.29S255
G1X-0.86S0
G1X-0.33S255
G1X-0.48S0
G1X-0.29S255
G1X-0.87S0
G1X-0.29S255
G1X-1.68S0
G1X-0.3S255
G1X-1.64S0
G1X-0.31S255
G1X-0.89S0
G1X-0.31S255
G1X-0.49S0
G1X-0.3S255
G1X-0.86S0
G1X-0.33S255
G1X-0.41S0
G1X-0.31S255
G1X-0.9S0
G1X-0.3S255
G1X-1.36S0
G1X-0.31S255
G1Y0.1S0
G1X0.31S255
G1X1.33S0
G1X0.31S255
G1X0.95S0
G1X0.3S255
G1X0.37S0
G1X0.31S255
G1X0.9S0
G1X0.3S255
G1X0.47S0
G1X0.3S255
G1X0.95S0
G1X0.3S255
G1X1.62S0
G1X0.3S255
G1X1.68S0
G1X0.29S255
G1X0.87S0
G1X0.29S255
G1X0.46S0
G1X0.31S255
G1X0.9S0
G1X0.29S255
G1X0.58S0
G1X0.29S255
G1X0.9S0
G1X0.3S255
G1X0.86S0
G1X0.29S255
G1X0.79S0
G1X0.3S255
G1X0.22S0
G1X0.28S255
G1X0.83S0
G1X0.29S255
G1X0.58S0
G1X0.29S255
G1X0.87S0
G1X0.29S255
G1X0.46S0
G1X0.31S255
G1X0.9S0
G1X0.29S255
G1X2.23S0
G1X0.31S255
G1X0.67S0
G1X0.3S255
G1X2.55S0
G1X0.36S255
G1X0.44S0
G1X0.29S255
G1Y0.1S0
G1X-0.29S255
G1X-0.49S0
G1X-0.63S255
G1X-2.25S0
G1X-0.3S255
G1X-0.65S0
G1X-0.31S255
G1X-2.23S0
G1X-0.29S255
G1X-0.91S0
G1X-0.31S255
G1X-0.45S0
G1X-0.29S255
G1X-0.87S0
G1X-0.29S255
G1X-0.58S0
G1X-0.29S255
G1X-0.79S0
G1X-0.29S255
G1X-0.29S0
G1X-0.3S255
G1X-0.75S0
G1X-0.29S255
G1X-0.8S0
G1X-0.34S255
G1X-0.92S0
G1X-0.29S255
G1X-0.58S0
G1X-0.29S255
G1X-0.91S0
G1X-0.31S255
G1X-0.45S0
G1X-0.29S255
G1X-0.87S0
G1X-0.29S255
G1X-1.68S0
G1X-0.3S255
G1X-1.6S0
G1X-0.3S255
G1X-0.99S0
G1X-0.29S255
G1X-0.46S0
G1X-0.3S255
G1X-0.91S0
G1X-0.31S255
G1X-0.35S0
G1X-0.3S255
G1X-0.98S0
G1X-0.3S255
G1X-1.32S0
G1X-0.31S255
G1X-40.96Y0.1S0
G1X0.88S255
G1X0.38S0
G1X0.57S255
G1X0.7S0
G1X0.16S255
G1X0.63S0
G1X0.43S255
G1X37.21S0
G1X0.31S255
G1X1.31S0
G1X0.3S255
G1X1S0
G1X0.3S255
G1X0.33S0
G1X0.31S255
G1X0.92S0
G1X0.3S255
G1X0.45S0
G1X0.3S255
G1X0.99S0
G1X0.3S255
G1X1.6S0
G1X0.3S255
G1X1.68S0
G1X0.29S255
G1X0.87S0
G1X0.29S255
G1X0.44S0
G1X0.31S255
G1X0.92S0
G1X0.29S255
G1X0.58S0
G1X0.29S255
G1X0.97S0
G1X0.47S255
G1X0.62S0
G1X0.29S255
G1X0.71S0
G1X0.3S255
G1X0.37S0
G1X0.29S255
G1X0.75S0
G1X0.29S255
G1X0.58S0
G1X0.29S255
G1X0.87S0
G1X0.29S255
G1X0.44S0
G1X0.31S255
G1X0.92S0
G1X0.29S255
G1X2.23S0
G1X0.31S255
G1X0.65S0
G1X0.29S255
G1X1.9S0
G1X0.91S255
G1X0.57S0
G1X0.29S255
G1Y0.1S0
G1X-0.29S255
G1X-0.76S0
G1X-0.88S255
G1X-0.46S0
G1X-1.57S255
G1X-0.65S0
G1X-0.31S255
G1X-2.23S0
G1X-0.29S255
G1X-0.93S0
G1X-0.3S255
G1X-0.44S0
G1X-0.29S255
G1X-0.87S0
G1X-0.29S255
G1X-0.58S0
G1X-0.29S255
G1X-0.71S0
G1X-0.29S255
G1X-0.45S0
G1X-0.3S255
G1X-0.67S0
G1X-1.28S255
G1X-1.07S0
G1X-0.29S255
G1X-0.58S0
G1X-0.29S255
G1X-0.93S0
G1X-0.3S255
G1X-0.44S0
G1X-0.29S255
G1X-0.87S0
G1X-0.29S255
G1X-1.68S0
G1X-0.3S255
G1X-1.6S0
G1X-0.3S255
G1X-0.99S0
G1X-0.3S255
G1X-0.45S0
G1X-0.3S255
G1X-0.93S0
G1X-0.29S255
G1X-0.34S0
G1X-0.3S255
G1X-0.99S0
G1X-0.3S255
G1X-1.32S0
G1X-0.31S255
G1X-37.15S0
G1X-0.15S255
G1X-0.25S0
G1X-0.15S255
G1X-0.51S0
G1X-0.15S255
G1X-0.69S0
G1X-0.21S255
G1X-0.31S0
G1X-0.21S255
G1X-0.64S0
G1X-0.18S255
G1X-23.25Y0.1S0
G1X0.53S255
G1X0.6S0
G1X0.6S255
G1X0.69S0
G1X0.15S255
G1X0.67S0
G1X0.38S255
G1X19.63S0
G1X0.18S255
G1X0.59S0
G1X0.18S255
G1X0.47S0
G1X0.18S255
G1X0.7S0
G1X0.16S255
G1X0.41S0
G1X0.15S255
G1X0.31S0
G1X0.15S255
G1X37.12S0
G1X0.31S255
G1X1.32S0
G1X0.3S255
G1X0.98S0
G1X0.3S255
G1X0.35S0
G1X0.3S255
G1X0.92S0
G1X0.3S255
G1X0.46S0
G1X0.3S255
G1X0.97S0
G1X0.3S255
G1X1.61S0
G1X0.3S255
G1X1.68S0
G1X0.29S255
G1X0.87S0
G1X0.29S255
G1X0.45S0
G1X0.3S255
G1X0.92S0
G1X0.29S255
G1X0.58S0
G1X0.29S255
G1X1.26S0
G1X1.09S255
G1X0.63S0
G1X0.31S255
G1X0.52S0
G1X0.29S255
G1X0.67S0
G1X0.29S255
G1X0.58S0
G1X0.29S255
G1X0.86S0
G1X0.3S255
G1X0.45S0
G1X0.3S255
G1X0.92S0
G1X0.29S255
G1X2.23S0
G1X0.31S255
G1X0.66S0
G1X1.55S255
G1X0.4S0
G1X0.53S255
G1X1.18S0
G1X0.29S255
G1Y0.1S0
G1X-0.29S255
G1X-1.41S0
G1X-0.34S255
G1X-0.36S0
G1X-0.29S255
G1X-0.96S0
G1X-0.28S255
G1X-0.68S0
G1X-0.31S255
G1X-2.23S0
G1X-0.29S255
G1X-0.9S0
G1X-0.31S255
G1X-0.46S0
G1X-0.3S255
G1X-0.86S0
G1X-0.29S255
G1X-0.58S0
G1X-0.29S255
G1X-0.63S0
G1X-0.29S255
G1X-0.6S0
G1X-0.31S255
G1X-0.59S0
G1X-0.5S255
G1X-1.85S0
G1X-0.29S255
G1X-0.58S0
G1X-0.29S255
G1X-0.9S0
G1X-0.3S255
G1X-0.47S0
G1X-0.3S255
G1X-0.86S0
G1X-0.29S255
G1X-0.46S0
G1X-1.52S255
G1X-1.62S0
G1X-0.3S255
G1X-0.94S0
G1X-0.31S255
G1X-0.47S0
G1X-0.3S255
G1X-0.9S0
G1X-0.3S255
G1X-0.39S0
G1X-0.3S255
G1X-0.94S0
G1X-0.3S255
G1X-1.34S0
G1X-0.31S255
G1X-37.11S0
G1X-0.15S255
G1X-0.33S0
G1X-0.15S255
G1X-0.34S0
G1X-0.15S255
G1X-0.73S0
G1X-0.18S255
G1X-0.55S0
G1X-0.18S255
G1X-0.55S0
G1X-0.18S255
G1X-19.55S0
G1X-0.15S255
G1X-0.23S0
G1X-0.15S255
G1X-0.53S0
G1X-0.16S255
G1X-0.65S0
G1X-0.26S255
G1X-0.29S0
G1X-0.26S255
G1X-0.39S0
G1X-0.23S255
G1X-0.26S0
G1X-0.23S255
G1X-0.04Y0.1S0
G1X0.19S255
G1X0.44S0
G1X0.19S255
G1X0.28S0
G1X0.2S255
G1X0.52S0
G1X0.2S255
G1X0.66S0
G1X0.15S255
G1X0.43S0
G1X0.15S255
G1X0.31S0
G1X0.14S255
G1X19.52S0
G1X0.18S255
G1X0.53S0
G1X0.18S255
G1X0.59S0
G1X0.18S255
G1X0.78S0
G1X0.15S255
G1X0.27S0
G1X0.15S255
G1X0.33S0
G1X0.15S255
G1X37.11S0
G1X0.31S255
G1X1.36S0
G1X0.31S255
G1X0.88S0
G1X0.31S255
G1X0.43S0
G1X0.32S255
G1X0.86S0
G1X0.3S255
G1X0.5S0
G1X0.31S255
G1X0.88S0
G1X0.3S255
G1X1.65S0
G1X1.52S255
G1X0.46S0
G1X0.29S255
G1X0.85S0
G1X0.3S255
G1X0.5S0
G1X0.31S255
G1X0.87S0
G1X0.29S255
G1X0.58S0
G1X0.29S255
G1X2.06S0
G1X0.29S255
G1X0.55S0
G1X0.31S255
G1X0.68S0
G1X0.29S255
G1X0.59S0
G1X0.29S255
G1X0.58S0
G1X0.29S255
G1X0.85S0
G1X0.3S255
G1X0.5S0
G1X0.31S255
G1X0.87S0
G1X0.29S255
G1X2.23S0
G1X0.31S255
G1X0.7S0
G1X0.29S255
G1X0.92S0
G1X0.28S255
G1X0.36S0
G1X0.31S255
G1X1.46S0
G1X0.29S255
G1Y0.1S0
G1X-0.29S255
G1X-1.46S0
G1X-0.3S255
G1X-0.39S0
G1X-0.31S255
G1X-0.81S0
G1X-0.3S255
G1X-0.75S0
G1X-0.31S255
G1X-2.23S0
G1X-0.29S255
G1X-0.81S0
G1X-0.33S255
G1X-0.55S0
G1X-0.32S255
G1X-0.76S0
G1X-0.35S255
G1X-0.58S0
G1X-0.29S255
G1X-0.55S0
G1X-0.29S255
G1X-0.76S0
G1X-0.31S255
G1X-0.52S0
G1X-0.31S255
G1X-1.88S0
G1X-0.44S255
G1X-0.58S0
G1X-0.29S255
G1X-0.81S0
G1X-0.33S255
G1X-0.55S0
G1X-0.32S255
G1X-0.76S0
G1X-0.35S255
G1X-0.46S0
G1X-1.52S255
G1X-1.69S0
G1X-0.32S255
G1X-0.77S0
G1X-0.32S255
G1X-0.54S0
G1X-0.3S255
G1X-0.81S0
G1X-0.32S255
G1X-0.52S0
G1X-0.32S255
G1X-0.78S0
G1X-0.32S255
G1X-1.4S0
G1X-0.31S255
G1X-37.12S0
G1X-0.14S255
G1X-0.32S0
G1X-0.15S255
G1X-0.21S0
G1X-0.16S255
G1X-0.18S0
G1X-0.36S255
G1X-0.29S0
G1X-0.18S255
G1X-0.61S0
G1X-0.18S255
G1X-0.52S0
G1X-0.18S255
G1X-19.51S0
G1X-0.14S255
G1X-0.33S0
G1X-0.15S255
G1X-0.35S0
G1X-0.16S255
G1X-0.69S0
G1X-0.19S255
G1X-1S0
G1X-0.18S255
G1X0.03Y0.1S0
G1X0.17S255
G1X0.99S0
G1X0.18S255
G1X0.76S0
G1X0.15S255
G1X0.29S0
G1X0.14S255
G1X0.34S0
G1X0.15S255
G1X19.5S0
G1X0.18S255
G1X0.52S0
G1X0.18S255
G1X0.61S0
G1X0.18S255
G1X0.21S0
G1X0.16S255
G1X0.2S0
G1X0.16S255
G1X0.17S0
G1X0.15S255
G1X0.17S0
G1X0.15S255
G1X0.27S0
G1X0.15S255
G1X37.14S0
G1X0.31S255
G1X1.45S0
G1X0.36S255
G1X0.6S0
G1X0.36S255
G1X0.62S0
G1X0.37S255
G1X0.69S0
G1X0.32S255
G1X0.59S0
G1X0.35S255
G1X0.61S0
G1X0.35S255
G1X1.74S0
G1X0.3S255
G1X1.68S0
G1X0.52S255
G1X0.52S0
G1X0.36S255
G1X0.64S0
G1X0.37S255
G1X0.69S0
G1X0.31S255
G1X0.58S0
G1X0.68S255
G1X0.29S0
G1X0.11S255
G1X0.24S0
G1X0.11S255
G1X0.82S0
G1X0.35S255
G1X0.51S0
G1X0.31S255
G1X0.83S0
G1X0.3S255
G1X0.51S0
G1X0.29S255
G1X0.58S0
G1X0.52S255
G1X0.52S0
G1X0.36S255
G1X0.63S0
G1X0.38S255
G1X0.68S0
G1X0.32S255
G1X2.23S0
G1X0.31S255
G1X0.8S0
G1X0.33S255
G1X0.67S0
G1X0.32S255
G1X0.47S0
G1X0.33S255
G1X0.71S0
G1X0.2S255
G1X0.49S0
G1X0.29S255
G1X0.6Y0.1S0
G1X-1.09S255
G1X-0.29S0
G1X-1.18S255
G1X-0.59S0
G1X-0.48S255
G1X-0.22S0
G1X-0.48S255
G1X-0.88S0
G1X-0.31S255
G1X-2.23S0
G1X-1.3S255
G1X-0.76S0
G1X-1.35S255
G1X-0.58S0
G1X-0.29S255
G1X-0.47S0
G1X-0.3S255
G1X-0.91S0
G1X-0.31S255
G1X-0.52S0
G1X-1.23S255
G1X-0.24S0
G1X-0.72S255
G1X-0.07S0
G1X-0.29S255
G1X-0.58S0
G1X-1.3S255
G1X-0.75S0
G1X-1.36S255
G1X-1.68S0
G1X-0.3S255
G1X-1.81S0
G1X-1.17S255
G1X-0.66S0
G1X-1.31S255
G1X-0.77S0
G1X-1.16S255
G1X-1.53S0
G1X-0.31S255
G1X-37.19S0
G1X-0.47S255
G1X-0.15S0
G1X-0.16S255
G1X-0.19S0
G1X-0.15S255
G1X-0.3S0
G1X-0.14S255
G1X-0.18S0
G1X-0.18S255
G1X-0.61S0
G1X-0.18S255
G1X-0.52S0
G1X-0.18S255
G1X-19.51S0
G1X-0.14S255
G1X-0.33S0
G1X-0.15S255
G1X-0.22S0
G1X-0.16S255
G1X-0.2S0
G1X-0.29S255
G1X-0.34S0
G1X-0.19S255
G1X-0.95S0
G1X-0.18S255
G1X-0.09S0
G1X-0.49S255
G1X-0.09Y0.1S0
G1X0.24S255
G1X0.28S0
G1X0.15S255
G1X0.18
G1X0.23S0
G1X0.18S255
G1X0.48S0
G1X0.22S255
G1X0.27S0
G1X0.17S255
G1X0.15S0
G1X0.17S255
G1X0.17S0
G1X0.15S255
G1X0.18S0
G1X0.15S255
G1X0.29S0
G1X0.14S255
G1X19.53S0
G1X0.18S255
G1X0.53S0
G1X0.18S255
G1X0.59S0
G1X0.19S255
G1X0.16S0
G1X0.15S255
G1X0.33S0
G1X0.14S255
G1X0.25S0
G1X0.15S255
G1X0.27S0
G1X0.12S255
G1X37.36S0
G1X0.31S255
G1X1.63S0
G1X0.96S255
G1X0.98S0
G1X1.2S255
G1X0.77S0
G1X0.95S255
G1X1.92S0
G1X0.3S255
G1X1.68S0
G1X0.29S255
G1X0.13S0
G1X0.86S255
G1X0.94S0
G1X1.19S255
G1X0.58S0
G1X0.29S255
G1X0.23S0
G1X0.56S255
G1X0.24S0
G1X1.13S255
G1X0.58S0
G1X0.31S255
G1X0.99S0
G1X0.31S255
G1X0.42S0
G1X0.29S255
G1X0.58S0
G1X0.29S255
G1X0.13S0
G1X0.86S255
G1X0.94S0
G1X1.19S255
G1X2.23S0
G1X0.31S255
G1X0.99S0
G1X0.97S255
G1X0.79S0
G1X1.08S255
G1X0.29S0
G1X1.09S255
G1Y0.1S0
G1X-1.09S255
G1X-0.54S0
G1X-0.63S255
G1X-1.16S0
G1X-0.6S255
G1X-1.19S0
G1X-0.31S255
G1X-2.23S0
G1X-0.27S255
G1X-0.18S0
G1X-0.55S255
G1X-1.28S0
G1X-0.51S255
G1X-0.33S0
G1X-0.29S255
G1X-0.58S0
G1X-0.29S255
G1X-0.38S0
G1X-0.31S255
G1X-1.07S0
G1X-0.31S255
G1X-0.75S0
G1X-0.75S255
G1X-0.57S0
G1X-0.06S255
G1X-0.57S0
G1X-0.29S255
G1X-0.58S0
G1X-0.27S255
G1X-0.18S0
G1X-0.55S255
G1X-1.28S0
G1X-0.51S255
G1X-0.33S0
G1X-0.29S255
G1X-1.68S0
G1X-0.3S255
G1X-2.11S0
G1X-0.57S255
G1X-0.96S0
G1X-0.28S255
G1X-0.18S0
G1X-0.55S255
G1X-1.36S0
G1X-0.58S255
G1X-1.82S0
G1X-0.31S255
G1X-37.68S0
G1X-0.16S255
G1X-0.3S0
G1X-0.15S255
G1X-0.34S0
G1X-0.14S255
G1X-0.18S0
G1X-0.18S255
G1X-0.57S0
G1X-0.18S255
G1X-0.54S0
G1X-0.18S255
G1X-19.57S0
G1X-0.18S255
G1X-0.13S0
G1X-0.18S255
G1X-0.16S0
G1X-0.16S255
G1X-0.18S0
G1X-0.15S255
G1X-0.29S0
G1X-0.14S255
G1X-0.3S0
G1X-0.81S255
G1X-0.22S0
G1X-0.24S255
G1X-0.48S0
G1X-0.19S255
G1X-0.03Y0.1S0
G1X0.19S255
G1X0.55S0
G1X0.19S255
G1X0.24S0
G1X0.17S255
G1X0.09S0
G1X0.4S255
G1X0.42S0
G1X0.14S255
G1X0.33S0
G1X0.15S255
G1X0.23S0
G1X0.15S255
G1X0.21S0
G1X0.26S255
G1X19.37S0
G1X0.1S255
G1X0.22S0
G1X0.18S255
G1X0.56S0
G1X0.18S255
G1X0.53S0
G1X0.18S255
G1X0.2S0
G1X0.15S255
G1X0.33S0
G1X0.14S255
G1X0.38S0
G1X0.15S255
G1X37.62S0
G1X0.31S255
G1X8.41S0
G1X0.3S255
G1X17.24S0
G1X0.31S255
G1X4.32S0
G1X0.29S255
G1Y0.1S0
G1X-0.29S255
G1X-4.32S0
G1X-0.31S255
G1X-17.24S0
G1X-0.3S255
G1X-8.41S0
G1X-0.31S255
G1X-37.55S0
G1X-0.16S255
G1X-0.46S0
G1X-0.14S255
G1X-0.3S0
G1X-0.14S255
G1X-0.26S0
G1X-0.19S255
G1X-0.43S0
G1X-0.19S255
G1X-0.6S0
G1X-0.18S255
G1X-0.08S0
G1X-0.24S255
G1X-19.77S0
G1X-0.16S255
G1X-0.29S0
G1X-0.14S255
G1X-0.34S0
G1X-0.15S255
G1X-0.89S0
G1X-0.17S255
G1X-0.26S0
G1X-0.18S255
G1X-0.56S0
G1X-0.18S255
G1Y0.1S0
G1X0.19S255
G1X0.53S0
G1X0.18S255
G1X0.28S0
G1X0.18S255
G1X0.89S0
G1X0.14S255
G1X0.33S0
G1X0.15S255
G1X0.36S0
G1X0.16S255
G1X19.85S0
G1X0.35S255
G1X0.66S0
G1X0.33S255
G1X0.04S0
G1X0.32S255
G1X0.36S0
G1X0.16S255
G1X0.19S0
G1X0.16S255
G1X0.56S0
G1X0.15S255
G1X37.49S0
G1X0.31S255
G1X8.41S0
G1X0.3S255
G1X10.71S0
G1X0.33S255
G1X6.2S0
G1X0.31S255
G1X4.32S0
G1X0.29S255
G1Y0.1S0
G1X-0.29S255
G1X-3.5S0
G1X-1.95S255
G1X-5.38S0
G1X-0.33S255
G1X-9.49S0
G1X-1.52S255
G1X-8.41S0
G1X-0.31S255
G1X-37.42S0
G1X-0.16S255
G1X-0.72S0
G1X-0.32S255
G1X-0.58S0
G1X-0.43S255
G1X-0.79S0
G1X-0.21S255
G1X-19.93S0
G1X-0.15S255
G1X-0.45S0
G1X-0.14S255
G1X-0.31S0
G1X-0.14S255
G1X-0.9S0
G1X-0.17S255
G1X-0.32S0
G1X-0.19S255
G1X-0.45S0
G1X-0.2S255
G1X0.06Y0.1S0
G1X0.25S255
G1X0.22S0
G1X0.25S255
G1X0.38S0
G1X0.81S255
G1X0.29S0
G1X0.16S255
G1X0.22S0
G1X0.15S255
G1X0.54S0
G1X0.16S255
G1X60.49S0
G1X0.31S255
G1X8.41S0
G1X1.52S255
G1X9.49S0
G1X0.33S255
G1X5.38S0
G1X1.95S255
G1X-87.82Y0.1S0
G1X-0.15S255
G1X-0.68S0
G1X-0.38S255
G1X-0.37S0
G1X-0.8S255
G1X-0.49S0
G1X-0.51S255
G1X16.27Y0.5S0
G1X0.67S255
G1X0.68S0
G1X0.15S255
G1X0.63S0
G1X0.43S255
G1X0.06Y0.1S0
G1X-0.15S255
G1X-0.25S0
G1X-0.15S255
G1X-0.5S0
G1X-0.16S255
G1X-0.65S0
G1X-0.23S255
G1X-0.38S0
G1X-0.23S255
G1X-9.54Y0.1S0
G1X0.87S255
G1X0.41S0
G1X0.51S255
G1X0.63S0
G1X0.51S255
G1X0.72S0
G1X0.15S255
G1X0.67S0
G1X0.39S255
G1X4.64S0
G1X0.19S255
G1X0.54S0
G1X0.2S255
G1X0.67S0
G1X0.15S255
G1X0.41S0
G1X0.15S255
G1X0.31S0
G1X0.15S255
G1X0.01Y0.1S0
G1X-0.15S255
G1X-0.33S0
G1X-0.15S255
G1X-0.33S0
G1X-0.16S255
G1X-0.71S0
G1X-0.18S255
G1X-5.34S0
G1X-0.15S255
G1X-0.23S0
G1X-0.15S255
G1X-0.53S0
G1X-0.16S255
G1X-0.68S0
G1X-0.23S255
G1X-0.25S0
G1X-0.23S255
G1X-0.43S0
G1X-0.23S255
G1X-0.24S0
G1X-0.24S255
G1X-0.65S0
G1X-0.18S255
G1Y0.1S0
G1X0.18S255
G1X0.6S0
G1X0.18S255
G1X0.45S0
G1X0.19S255
G1X0.31S0
G1X0.19S255
G1X0.45S0
G1X0.18S255
G1X0.7S0
G1X0.15S255
G1X0.44S0
G1X0.14S255
G1X0.31S0
G1X0.14S255
G1X5.31S0
G1X0.19S255
G1X0.77S0
G1X0.15S255
G1X0.27S0
G1X0.15S255
G1X0.33S0
G1X0.15S255
G1X-0.01Y0.1S0
G1X-0.14S255
G1X-0.32S0
G1X-0.15S255
G1X-0.21S0
G1X-0.16S255
G1X-0.18S0
G1X-0.36S255
G1X-0.31S0
G1X-0.19S255
G1X-5.27S0
G1X-0.15S255
G1X-0.33S0
G1X-0.15S255
G1X-0.35S0
G1X-0.16S255
G1X-0.72S0
G1X-0.18S255
G1X-0.53S0
G1X-0.18S255
G1X-0.24S0
G1X-0.19S255
G1X-0.53S0
G1X-0.18S255
G1X-0.56S0
G1X-0.18S255
G1Y0.1S0
G1X0.18S255
G1X0.54S0
G1X0.18S255
G1X0.58S0
G1X0.18S255
G1X0.2S0
G1X0.18S255
G1X0.57S0
G1X0.18S255
G1X0.77S0
G1X0.15S255
G1X0.29S0
G1X0.15S255
G1X0.33S0
G1X0.15S255
G1X4.55S0
G1X0.22S255
G1X0.42S0
G1X0.23S255
G1X0.27S0
G1X0.16S255
G1X0.2S0
G1X0.16S255
G1X0.17S0
G1X0.15S255
G1X0.18S0
G1X0.14S255
G1X0.27S0
G1X0.15S255
G1X-0.05Y0.1S0
G1X-0.46S255
G1X-0.16S0
G1X-0.16S255
G1X-0.19S0
G1X-0.15S255
G1X-0.3S0
G1X-0.14S255
G1X-0.31S0
G1X-0.79S255
G1X-4.56S0
G1X-0.15S255
G1X-0.33S0
G1X-0.14S255
G1X-0.23S0
G1X-0.16S255
G1X-0.2S0
G1X-0.28S255
G1X-0.34S0
G1X-0.18S255
G1X-0.6S0
G1X-0.18S255
G1X-0.17S0
G1X-0.18S255
G1X-0.6S0
G1X-0.18S255
G1X-0.53S0
G1X-0.18S255
G1Y0.1S0
G1X0.18S255
G1X0.53S0
G1X0.18S255
G1X0.6S0
G1X0.19S255
G1X0.16S0
G1X0.18S255
G1X0.61S0
G1X0.18S255
G1X0.22S0
G1X0.18S255
G1X0.14S0
G1X0.17S255
G1X0.17S0
G1X0.15S255
G1X0.18S0
G1X0.15S255
G1X0.29S0
G1X0.15S255
G1X4.59S0
G1X0.17S255
G1X0.16S0
G1X0.25S255
G1X0.49S0
G1X0.14S255
G1X0.34S0
G1X0.14S255
G1X0.25S0
G1X0.15S255
G1X0.31S0
G1X0.03S255
G1X-0.27Y0.1S0
G1X-0.16S255
G1X-0.3S0
G1X-0.15S255
G1X-0.34S0
G1X-0.14S255
G1X-0.9S0
G1X-0.17S255
G1X-4.64S0
G1X-0.17S255
G1X-0.15S0
G1X-0.17S255
G1X-0.16S0
G1X-0.15S255
G1X-0.19S0
G1X-0.15S255
G1X-0.28S0
G1X-0.15S255
G1X-0.18S0
G1X-0.18S255
G1X-0.61S0
G1X-0.18S255
G1X-0.16S0
G1X-0.19S255
G1X-0.6S0
G1X-0.18S255
G1X-0.53S0
G1X-0.18S255
G1Y0.1S0
G1X0.18S255
G1X0.53S0
G1X0.18S255
G1X0.6S0
G1X0.18S255
G1X0.17S0
G1X0.18S255
G1X0.6S0
G1X0.18S255
G1X0.17S0
G1X0.15S255
G1X0.32S0
G1X0.15S255
G1X0.23S0
G1X0.16S255
G1X0.2S0
G1X0.27S255
G1X4.76S0
G1X0.17S255
G1X0.89S0
G1X0.15S255
G1X0.33S0
G1X0.14S255
G1X0.38S0
G1X0.16S255
G1X0.06Y0.1S0
G1X-0.15S255
G1X-0.47S0
G1X-0.14S255
G1X-0.3S0
G1X-0.14S255
G1X-0.9S0
G1X-0.18S255
G1X-5.17S0
G1X-0.15S255
G1X-0.3S0
G1X-0.14S255
G1X-0.34S0
G1X-0.14S255
G1X-0.18S0
G1X-0.18S255
G1X-0.57S0
G1X-0.18S255
G1X-0.2S0
G1X-0.18S255
G1X-0.58S0
G1X-0.18S255
G1X-0.54S0
G1X-0.18S255
G1X-0.31Y0.1S0
G1X0.06S255
G1X0.25S0
G1X0.18S255
G1X0.56S0
G1X0.18S255
G1X0.54S0
G1X0.18S255
G1X0.23S0
G1X0.19S255
G1X0.53S0
G1X0.18S255
G1X0.2S0
G1X0.14S255
G1X0.34S0
G1X0.14S255
G1X0.36S0
G1X0.16S255
G1X5.11S0
G1X0.81S255
G1X0.3S0
G1X0.16S255
G1X0.18S0
G1X0.16S255
G1X0.57S0
G1X0.16S255
G1X0.06Y0.1S0
G1X-0.15S255
G1X-0.74S0
G1X-0.3S255
G1X-0.4S0
G1X-0.8S255
G1X-5.06S0
G1X-0.15S255
G1X-0.44S0
G1X-0.15S255
G1X-0.3S0
G1X-0.15S255
G1X-0.24S0
G1X-0.19S255
G1X-0.45S0
G1X-0.19S255
G1X-0.31S0
G1X-0.18S255
G1X-0.46S0
G1X-0.18S255
G1X-0.6S0
G1X-0.18S255
G1X-0.11S0
G1X-0.2S255
G1X0.11Y0.1S0
G1X0.38S255
G1X0.65S0
G1X0.24S255
G1X0.24S0
G1X0.24S255
G1X0.41S0
G1X0.24S255
G1X0.25S0
G1X0.23S255
G1X0.33S0
G1X0.16S255
G1X0.22S0
G1X0.16S255
G1X0.53S0
G1X0.16S255
G1X0.06Y0.1S0
G1X-0.15S255
G1X-0.68S0
G1X-0.38S255
G1X-0.51S0
G1X-0.51S255
G1X-0.62S0
G1X-0.52S255
G1X-0.75S0
G1X-0.23S255
G1X-29.35Y4.1S0
G1X0.47S255
G1X6.13S0
G1X0.47S255
G1Y0.1S0
G1X-0.21S255
G1X-6.65S0
G1X-0.21S255
G1Y0.1S0
G1X0.21S255
G1X6.65S0
G1X0.21S255
G1X117.6Y0.1S0
G1X-0.25S255
G1X-0.62S0
G1X-0.25S255
G1X-0.62S0
G1X-0.25S255
G1X-0.36S0
G1X-0.25S255
G1X-0.62S0
G1X-0.25S255
G1X-0.62S0
G1X-0.25S255
G1X-0.69S0
G1X-0.59S255
G1X-0.99S0
G1X-0.25S255
G1X-110.74S0
G1X-0.21S255
G1X-6.65S0
G1X-0.21S255
G1Y0.1S0
G1X0.21S255
G1X4.43S0
G1X0.17S255
G1X0.91S0
G1X0.4S255
G1X0.74S0
G1X0.21S255
G1X110.74S0
G1X0.25S255
G1X0.87S0
G1X0.84S255
G1X0.56S0
G1X0.25S255
G1X0.62S0
G1X0.25S255
G1X0.62S0
G1X0.25S255
G1X0.36S0
G1X0.25S255
G1X0.62S0
G1X0.25S255
G1X0.62S0
G1X0.25S255
G1Y0.1S0
G1X-0.25S255
G1X-0.62S0
G1X-0.25S255
G1X-0.62S0
G1X-0.25S255
G1X-0.36S0
G1X-0.25S255
G1X-0.62S0
G1X-0.25S255
G1X-0.62S0
G1X-0.25S255
G1X-0.48S0
G1X-0.3S255
G1X-0.4S0
G1X-0.3S255
G1X-0.79S0
G1X-0.25S255
G1X-110.74S0
G1X-0.21S255
G1X-0.54S0
G1X-0.78S255
G1X-0.7S0
G1X-0.18S255
G1X-0.19S0
G1X-0.22S255
G1X-0.54S0
G1X-0.22S255
G1X-0.54S0
G1X-0.22S255
G1X-0.32S0
G1X-0.21S255
G1X-0.55S0
G1X-0.21S255
G1X-0.55S0
G1X-0.21S255
G1X-0.47S0
G1X-0.21S255
G1Y0.1S0
G1X0.21S255
G1X0.47S0
G1X0.21S255
G1X0.55S0
G1X0.21S255
G1X0.55S0
G1X0.21S255
G1X0.32S0
G1X0.22S255
G1X0.54S0
G1X0.22S255
G1X0.54S0
G1X0.22S255
G1X0.22S0
G1X0.18S255
G1X0.59S0
G1X0.29S255
G1X0.38S0
G1X0.27S255
G1X0.46S0
G1X0.21S255
G1X110.74S0
G1X0.25S255
G1X0.74S0
G1X0.26S255
G1X0.58S0
G1X0.26S255
G1X0.43S0
G1X0.25S255
G1X0.62S0
G1X0.25S255
G1X0.62S0
G1X0.25S255
G1X0.36S0
G1X0.25S255
G1X0.62S0
G1X0.25S255
G1X0.62S0
G1X0.25S255
G1Y0.1S0
G1X-0.25S255
G1X-0.62S0
G1X-0.25S255
G1X-0.62S0
G1X-0.25S255
G1X-0.36S0
G1X-0.25S255
G1X-0.62S0
G1X-0.25S255
G1X-0.62S0
G1X-0.25S255
G1X-0.39S0
G1X-0.25S255
G1X-0.68S0
G1X-0.24S255
G1X-0.71S0
G1X-0.25S255
G1X-110.74S0
G1X-0.21S255
G1X-0.42S0
G1X-0.22S255
G1X-0.58S0
G1X-0.22S255
G1X-0.53S0
G1X-0.17S255
G1X-0.25S0
G1X-0.22S255
G1X-0.54S0
G1X-0.22S255
G1X-0.54S0
G1X-0.22S255
G1X-0.32S0
G1X-0.21S255
G1X-0.55S0
G1X-0.21S255
G1X-0.55S0
G1X-0.21S255
G1X-0.47S0
G1X-0.21S255
G1Y0.1S0
G1X0.21S255
G1X0.47S0
G1X0.21S255
G1X0.55S0
G1X0.21S255
G1X0.55S0
G1X0.21S255
G1X0.32S0
G1X0.22S255
G1X0.54S0
G1X0.22S255
G1X0.54S0
G1X0.22S255
G1X0.28S0
G1X0.17S255
G1X0.56S0
G1X0.13S255
G1X0.61S0
G1X0.23S255
G1X0.41S0
G1X0.21S255
G1X110.74S0
G1X0.25S255
G1X0.68S0
G1X0.25S255
G1X0.73S0
G1X0.24S255
G1X0.37S0
G1X0.25S255
G1X0.62S0
G1X0.25S255
G1X0.62S0
G1X0.25S255
G1X0.36S0
G1X0.25S255
G1X0.62S0
G1X0.25S255
G1X0.62S0
G1X0.25S255
G1Y0.1S0
G1X-0.25S255
G1X-0.62S0
G1X-0.25S255
G1X-0.62S0
G1X-0.25S255
G1X-0.36S0
G1X-0.25S255
G1X-0.62S0
G1X-0.25S255
G1X-0.62S0
G1X-0.25S255
G1X-0.34S0
G1X-0.26S255
G1X-0.76S0
G1X-0.25S255
G1X-0.66S0
G1X-0.25S255
G1X-110.74S0
G1X-0.21S255
G1X-0.43S0
G1X-0.33S255
G1X-1.15S0
G1X-0.17S255
G1X-0.31S0
G1X-0.22S255
G1X-0.54S0
G1X-0.22S255
G1X-0.54S0
G1X-0.22S255
G1X-0.32S0
G1X-0.21S255
G1X-0.55S0
G1X-0.21S255
G1X-0.55S0
G1X-0.21S255
G1X-0.47S0
G1X-0.21S255
G1Y0.1S0
G1X0.21S255
G1X0.47S0
G1X0.21S255
G1X0.55S0
G1X0.21S255
G1X0.55S0
G1X0.21S255
G1X0.32S0
G1X0.22S255
G1X0.54S0
G1X0.22S255
G1X0.54S0
G1X0.22S255
G1X0.33S0
G1X0.18S255
G1X0.77S0
G1X0.62S255
G1X0.49S0
G1X0.21S255
G1X110.74S0
G1X0.25S255
G1X0.65S0
G1X0.25S255
G1X0.79S0
G1X0.25S255
G1X0.33S0
G1X0.25S255
G1X0.62S0
G1X0.25S255
G1X0.62S0
G1X0.25S255
G1X0.36S0
G1X0.25S255
G1X0.62S0
G1X0.25S255
G1X0.62S0
G1X0.25S255
G1Y0.1S0
G1X-0.25S255
G1X-0.62S0
G1X-0.25S255
G1X-0.61S0
G1X-0.26S255
G1X-0.36S0
G1X-0.25S255
G1X-0.62S0
G1X-0.25S255
G1X-0.62S0
G1X-0.25S255
G1X-0.33S0
G1X-0.25S255
G1X-0.8S0
G1X-0.25S255
G1X-0.64S0
G1X-0.25S255
G1X-110.74S0
G1X-0.21S255
G1X-0.66S0
G1X-0.66S255
G1X-0.53S0
G1X-0.18S255
G1X-0.36S0
G1X-0.22S255
G1X-0.54S0
G1X-0.22S255
G1X-0.54S0
G1X-0.22S255
G1X-0.32S0
G1X-0.21S255
G1X-0.55S0
G1X-0.21S255
G1X-0.54S0
G1X-0.22S255
G1X-0.47S0
G1X-0.21S255
G1Y0.1S0
G1X0.21S255
G1X0.47S0
G1X0.22S255
G1X0.54S0
G1X0.22S255
G1X0.54S0
G1X0.21S255
G1X0.32S0
G1X0.23S255
G1X0.53S0
G1X0.23S255
G1X0.53S0
G1X0.22S255
G1X0.39S0
G1X0.17S255
G1X0.43S0
G1X0.4S255
G1X1S0
G1X0.21S255
G1X110.74S0
G1X0.25S255
G1X0.64S0
G1X0.25S255
G1X0.8S0
G1X0.26S255
G1X0.32S0
G1X0.26S255
G1X0.61S0
G1X0.26S255
G1X0.61S0
G1X0.25S255
G1X0.36S0
G1X0.26S255
G1X0.61S0
G1X0.26S255
G1X0.61S0
G1X0.25S255
G1X-0.01Y0.1S0
G1X-0.25S255
G1X-0.58S0
G1X-0.29S255
G1X-0.57S0
G1X-0.29S255
G1X-0.37S0
G1X-0.25S255
G1X-0.59S0
G1X-0.28S255
G1X-0.58S0
G1X-0.28S255
G1X-0.32S0
G1X-0.26S255
G1X-0.8S0
G1X-0.25S255
G1X-0.64S0
G1X-0.25S255
G1X-110.74S0
G1X-0.21S255
G1X-1.2S0
G1X-0.23S255
G1X-0.37S0
G1X-0.17S255
G1X-0.42S0
G1X-0.22S255
G1X-0.52S0
G1X-0.24S255
G1X-0.51S0
G1X-0.25S255
G1X-0.32S0
G1X-0.22S255
G1X-0.52S0
G1X-0.24S255
G1X-0.51S0
G1X-0.24S255
G1X-0.47S0
G1X-0.21S255
G1Y0.1S0
G1X0.21S255
G1X0.47S0
G1X0.28S255
G1X0.45S0
G1X0.31S255
G1X0.45S0
G1X0.23S255
G1X0.33S0
G1X0.29S255
G1X0.44S0
G1X0.32S255
G1X0.45S0
G1X0.22S255
G1X0.47S0
G1X0.17S255
G1X0.34S0
G1X0.21S255
G1X0.53S0
G1X0.22S255
G1X0.47S0
G1X0.21S255
G1X110.74S0
G1X0.25S255
G1X0.64S0
G1X0.25S255
G1X0.8S0
G1X0.25S255
G1X0.33S0
G1X0.33S255
G1X0.51S0
G1X0.36S255
G1X0.51S0
G1X0.26S255
G1X0.38S0
G1X0.33S255
G1X0.51S0
G1X0.36S255
G1X0.51S0
G1X0.26S255
G1X-0.02Y0.1S0
G1X-0.32S255
G1X-0.31S0
G1X-0.24S255
G1X-0.32
G1X-0.31S0
G1X-0.45S255
G1X-0.4S0
G1X-0.32S255
G1X-0.31S0
G1X-0.24S255
G1X-0.32
G1X-0.31S0
G1X-0.45S255
G1X-0.33S0
G1X-0.25S255
G1X-0.79S0
G1X-0.25S255
G1X-0.65S0
G1X-0.25S255
G1X-110.74S0
G1X-0.21S255
G1X-0.5S0
G1X-0.29S255
G1X-0.34S0
G1X-0.27S255
G1X-0.34S0
G1X-0.18S255
G1X-0.51S0
G1X-0.3S255
G1X-0.23S0
G1X-0.21S255
G1X-0.02S0
G1X-0.29S255
G1X-0.23S0
G1X-0.42S255
G1X-0.36S0
G1X-0.3S255
G1X-0.23S0
G1X-0.21S255
G1X-0.02S0
G1X-0.29S255
G1X-0.23S0
G1X-0.41S255
G1X-0.47S0
G1X-0.21S255
G1Y0.1S0
G1X0.21S255
G1X0.47S0
G1X0.19S255
G1X0.09S0
G1X0.59S255
G1X0.17S0
G1X0.59S255
G1X0.42S0
G1X0.2S255
G1X0.08S0
G1X0.6S255
G1X0.17S0
G1X0.59S255
G1X0.6S0
G1X0.18S255
G1X0.4S0
G1X0.73S255
G1X0.58S0
G1X0.21S255
G1X110.24S0
G1X0.14S255
G1X0.36S0
G1X0.25S255
G1X0.66S0
G1X0.25S255
G1X0.77S0
G1X0.25S255
G1X0.34S0
G1X0.22S255
G1X0.07S0
G1X0.74S255
G1X0.14S0
G1X0.72S255
G1X0.46S0
G1X0.22S255
G1X0.07S0
G1X0.74S255
G1X0.14S0
G1X0.72S255
G1X-0.12Y0.1S0
G1X-0.47S255
G1X-0.39S0
G1X-0.47S255
G1X-0.22S0
G1X-0.22S255
G1X-0.59S0
G1X-0.46S255
G1X-0.4S0
G1X-0.47S255
G1X-0.21S0
G1X-0.22S255
G1X-0.36S0
G1X-0.25S255
G1X-0.73S0
G1X-0.25S255
G1X-0.68S0
G1X-0.25S255
G1X-0.19S0
G1X-0.31S255
G1X-110.24S0
G1X-0.21S255
G1X-0.81S0
G1X-0.28S255
G1X-0.6S0
G1X-0.17S255
G1X-0.85S0
G1X-0.18S255
G1X-0.54S0
G1X-0.22S255
G1X-1.11S0
G1X-0.19S255
G1X-0.54S0
G1X-0.22S255
G1X-0.94S0
G1X-0.21S255
G1Y0.1S0
G1X0.21S255
G1X4.82S0
G1X0.17S255
G1X1.66S0
G1X0.21S255
G1X110.28S0
G1X0.41S255
G1X0.05S0
G1X0.25S255
G1X0.7S0
G1X0.25S255
G1X0.68S0
G1X0.25S255
G1X-0.03Y0.1S0
G1X-0.26S255
G1X-0.59S0
G1X-0.26S255
G1X-0.74S0
G1X-0.54S255
G1X-110.45S0
G1X-0.21S255
G1X-1.63S0
G1X-0.17S255
G1X-4.85S0
G1X-0.21S255
G1Y0.1S0
G1X0.47S255
G1X4.61S0
G1X0.18S255
G1X1.34S0
G1X0.47S255
G1X39.2S0
G1X1.92S255
G1X1.4S0
G1X1.1S255
G1X66.97S0
G1X0.4S255
G1X0.79S0
G1X0.28S255
G1X0.43S0
G1X0.3S255
G1X-0.08Y0.1S0
G1X-0.85S255
G1X-0.87S0
G1X-0.3S255
G1X-66.89S0
G1X-1.47S255
G1X-0.41S0
G1X-0.38S255
G1X-0.42S0
G1X-1.92S255
G1X-39.2S0
G1X-0.47S255
G1X-1.31S0
G1X-0.18S255
G1X-4.64S0
G1X-0.47S255
G1X5.14Y0.1S0
G1X0.17S255
G1X40.96S0
G1X1.92S255
G1X0.42S0
G1X0.38S255
G1X0.41S0
G1X1.59S255
G1X66.85S0
G1X0.22S255
G1X0.98S0
G1X0.63S255
G1X-68.6Y0.1S0
G1X-0.55S255
G1X-0.71S0
G1X-0.41S255
G1X-0.41S0
G1X-0.38S255
G1X-1.9S0
G1X-0.44S255
G1X0.07Y0.1S0
G1X0.48S255
G1X1.79S0
G1X0.38S255
G1X0.41S0
G1X0.16S255
G1X1.12S0
G1X0.45S255
G1X0.05Y0.1S0
G1X-0.42S255
G1X-3.82S0
G1X-0.48S255
G1X0.12Y0.1S0
G1X0.48S255
G1X3.75S0
G1X0.4S255
G1X0.02Y0.1S0
G1X-0.39S255
G1X-3.67S0
G1X-0.48S255
G1X-22.95S0
G1X-0.97S255
G1X-0.9S0
G1X-1.92S255
G1Y0.1S0
G1X1.92S255
G1X0.61S0
G1X1.45S255
G1X22.88S0
G1X0.47S255
G1X3.57S0
G1X0.39S255
G1Y0.1S0
G1X-0.38S255
G1X-3.47S0
G1X-0.47S255
G1X-21.64S0
G1X-0.37S255
G1X-0.85S0
G1X-1.58S255
G1X-0.61S0
G1X-1.92S255
G1Y0.1S0
G1X1.92S255
G1X0.61S0
G1X0.51S255
G1X0.57S0
G1X0.58S255
G1X0.77S0
G1X0.37S255
G1X1.7S0
G1X0.36S255
G1X19.68S0
G1X0.47S255
G1X3.36S0
G1X0.38S255
G1X-0.01Y0.1S0
G1X-0.41S255
G1X-3.22S0
G1X-0.47S255
G1X-19.78S0
G1X-0.36S255
G1X-1.7S0
G1X-0.37S255
G1X-0.7S0
G1X-0.47S255
G1X-1.05S0
G1X-0.21S255
G1X-2.03S0
G1X-0.48S255
G1X-19.59Y0.1S0
G1X0.28S255
G1X19.42S0
G1X0.49S255
G1X3.26S0
G1X0.43S255
G1X0.65S0
G1X0.37S255
G1X1.7S0
G1X0.36S255
G1X19.88S0
G1X0.46S255
G1X3.07S0
G1X0.44S255
G1X-0.04Y0.1S0
G1X-0.52S255
G1X-2.86S0
G1X-0.45S255
G1X-19.98S0
G1X-0.36S255
G1X-2.69S0
G1X-0.4S255
G1X-3.21S0
G1X-0.48S255
G1X-19.54S0
G1X-0.28S255
G1Y0.1S0
G1X0.28S255
G1X19.66S0
G1X0.48S255
G1X3.12S0
G1X0.4S255
G1X2.66S0
G1X0.36S255
G1X20.06S0
G1X0.45S255
G1X1.67S0
G1X0.37S255
G1X0.41S0
G1X0.78S255
G1X-0.09Y0.1S0
G1X-1.47S255
G1X-1.61S0
G1X-0.43S255
G1X-20.14S0
G1X-0.36S255
G1X-2.65S0
G1X-0.39S255
G1X-3.03S0
G1X-0.48S255
G1X-19.77S0
G1X-0.28S255
G1Y0.1S0
G1X0.28S255
G1X19.89S0
G1X0.47S255
G1X2.93S0
G1X0.38S255
G1X2.65S0
G1X0.36S255
G1X20.21S0
G1X0.42S255
G1X1.55S0
G1X1.32S255
G1X-0.29Y0.1S0
G1X-1.03S255
G1X-1.51S0
G1X-0.41S255
G1X-20.26S0
G1X-0.36S255
G1X-2.66S0
G1X-0.38S255
G1X-2.82S0
G1X-0.47S255
G1X-14.36S0
G1X-1.67S0
G1X-0.03S255
G1X-1.74S0
G1X-0.02S255
G1X-1.73S0
G1X-0.01S255
G1X-0.43S0
G1X-0.28S255
G1X-1.19S0
G1X-0.05S255
G1X-0.51Y0.1S0
G1X1S255
G1X0.75S0
G1X0.28S255
G1X0.12S0
G1X0.66S255
G1X0.99S0
G1X0.82S255
G1X0.94S0
G1X0.82S255
G1X0.93S0
G1X0.67S255
G1X0.14S0
G1X0.26S255
G1X13.75S0
G1X0.46S255
G1X2.69S0
G1X0.41S255
G1X1.3S0
G1X2.15S255
G1X19.87S0
G1X0.4S255
G1X1.48S0
G1X0.37S255
G1Y0.1S0
G1X-0.37S255
G1X-1.46S0
G1X-0.4S255
G1X-19.89S0
G1X-2.15S255
G1X-1.33S0
G1X-0.43S255
G1X-2.54S0
G1X-0.46S255
G1X-13.85S0
G1X-0.26S255
G1X-0.04S0
G1X-0.89S255
G1X-0.68S0
G1X-1.08S255
G1X-0.68S0
G1X-1.09S255
G1X-0.73S0
G1X-0.89S255
G1X-0.01S0
G1X-0.28S255
G1X-0.6S0
G1X-1.32S255
G1X-0.09Y0.1S0
G1X0.54S255
G1X0.48S0
G1X0.48S255
G1X0.51S0
G1X0.47S255
G1X0.45S0
G1X0.35S255
G1X0.56S0
G1X0.38S255
G1X0.49S0
G1X0.38S255
G1X0.51S0
G1X0.38S255
G1X0.5S0
G1X0.38S255
G1X0.51S0
G1X0.35S255
G1X0.45S0
G1X0.47S255
G1X13.94S0
G1X0.46S255
G1X2.35S0
G1X0.49S255
G1X1.37S0
G1X2.15S255
G1X19.9S0
G1X0.39S255
G1X1.46S0
G1X0.37S255
G1Y0.1S0
G1X-0.37S255
G1X-1.46S0
G1X-0.39S255
G1X-20.33S0
G1X-0.36S255
G1X-1.04S0
G1X-0.32S255
G1X-1.43S0
G1X-0.67S255
G1X-0.71S0
G1X-0.2S255
G1X-1.11S0
G1X-0.45S255
G1X-14.04S0
G1X-0.37S255
G1X-0.65S0
G1X-0.32S255
G1X-0.39S0
G1X-0.33S255
G1X-0.71S0
G1X-0.33S255
G1X-0.4S0
G1X-0.32S255
G1X-0.72S0
G1X-0.32S255
G1X-0.44S0
G1X-0.31S255
G1X-0.65S0
G1X-0.37S255
G1X-0.45S0
G1X-0.34S255
G1X-0.9S0
G1X-0.39S255
G1X-0.05Y0.1S0
G1X0.33S255
G1X1.09S0
G1X0.31S255
G1X0.4S0
G1X0.31S255
G1X0.77S0
G1X0.29S255
G1X0.35S0
G1X0.31S255
G1X0.83S0
G1X0.31S255
G1X0.32S0
G1X0.31S255
G1X0.83S0
G1X0.31S255
G1X0.32S0
G1X0.29S255
G1X0.76S0
G1X0.32S255
G1X14.12S0
G1X0.44S255
G1X1.04S0
G1X1.49S255
G1X1.55S0
G1X0.38S255
G1X0.95S0
G1X0.36S255
G1X20.31S0
G1X0.4S255
G1X1.47S0
G1X0.37S255
G1Y0.1S0
G1X-0.37S255
G1X-1.49S0
G1X-0.43S255
G1X-1.17S0
G1X-0.09S255
G1X-19S0
G1X-0.36S255
G1X-0.87S0
G1X-0.37S255
G1X-1.77S0
G1X-1.36S255
G1X-0.98S0
G1X-0.42S255
G1X-14.2S0
G1X-0.28S255
G1X-0.84S0
G1X-0.28S255
G1X-1.47S0
G1X-0.29S255
G1X-1.48S0
G1X-0.29S255
G1X-0.3S0
G1X-0.29S255
G1X-0.83S0
G1X-0.28S255
G1X-0.39S0
G1X-0.28S255
G1X-1.18S0
G1X-0.31S255
G1X-0.01Y0.1S0
G1X0.29S255
G1X1.21S0
G1X0.29S255
G1X0.38S0
G1X0.26S255
G1X0.87S0
G1X0.28S255
G1X0.27S0
G1X0.29S255
G1X1.48S0
G1X0.29S255
G1X1.47S0
G1X0.28S255
G1X0.87S0
G1X0.27S255
G1X14.25S0
G1X0.41S255
G1X0.94S0
G1X1.13S255
G1X2.08S0
G1X0.38S255
G1X0.78S0
G1X0.36S255
G1X19S0
G1X0.3S255
G1X0.86S0
G1X0.49S255
G1X1.53S0
G1X0.37S255
G1X1.34Y0.1S0
G1X-1.71S255
G1X-1.59S0
G1X-0.74S255
G1X-0.12S0
G1X-0.73S255
G1X-19S0
G1X-0.36S255
G1X-0.7S0
G1X-0.37S255
G1X-2.94S0
G1X-0.36S255
G1X-0.9S0
G1X-0.4S255
G1X-14.3S0
G1X-0.26S255
G1X-0.88S0
G1X-0.29S255
G1X-0.24S0
G1X-1.52S255
G1X-0.25S0
G1X-1.51S255
G1X-0.26S0
G1X-0.28S255
G1X-0.88S0
G1X-0.26S255
G1X-0.39S0
G1X-0.31S255
G1X-0.09Y0.1S0
G1X0.37S255
G1X0.42S0
G1X0.26S255
G1X0.88S0
G1X0.29S255
G1X0.25S0
G1X1.51S255
G1X0.25S0
G1X1.51S255
G1X0.25S0
G1X0.29S255
G1X0.88S0
G1X0.26S255
G1X14.33S0
G1X0.39S255
G1X0.88S0
G1X0.36S255
G1X3.03S0
G1X0.37S255
G1X0.61S0
G1X0.36S255
G1X19S0
G1X1.5S255
G1X1.68S0
G1X1.71S255
G1Y0.1S0
G1X-1.71S255
G1X-1.81S0
G1X-1.27S255
G1X-19.1S0
G1X-0.36S255
G1X-0.52S0
G1X-0.38S255
G1X-3.11S0
G1X-0.36S255
G1X-0.86S0
G1X-0.4S255
G1X-14.34S0
G1X-0.27S255
G1X-0.87S0
G1X-0.28S255
G1X-0.26S0
G1X-1.5S255
G1X-0.27S0
G1X-1.5S255
G1X-0.26S0
G1X-0.28S255
G1X-0.88S0
G1X-0.26S255
G1X-0.47S0
G1X-0.54S255
G1X-0.38Y0.1S0
G1X0.83S255
G1X0.56S0
G1X0.28S255
G1X0.84S0
G1X0.29S255
G1X0.29S0
G1X0.3S255
G1X0.88S0
G1X0.29S255
G1X0.3S0
G1X0.29S255
G1X0.89S0
G1X0.28S255
G1X0.29S0
G1X0.29S255
G1X0.83S0
G1X0.29S255
G1X14.35S0
G1X0.39S255
G1X0.86S0
G1X0.36S255
G1X3.2S0
G1X0.37S255
G1X0.44S0
G1X0.36S255
G1X19.47S0
G1X0.63S255
G1X2.08S0
G1X1.71S255
G1X-23.89Y0.1S0
G1X-0.36S255
G1X-0.35S0
G1X-0.38S255
G1X-3.28S0
G1X-0.36S255
G1X-0.86S0
G1X-0.4S255
G1X-14.34S0
G1X-0.32S255
G1X-0.77S0
G1X-0.29S255
G1X-0.34S0
G1X-0.28S255
G1X-0.85S0
G1X-0.29S255
G1X-0.35S0
G1X-0.28S255
G1X-0.84S0
G1X-0.3S255
G1X-0.34S0
G1X-0.29S255
G1X-0.78S0
G1X-0.31S255
G1X-0.71S0
G1X-1S255
G1X-0.17Y0.1S0
G1X0.92S255
G1X0.96S0
G1X0.37S255
G1X0.67S0
G1X0.31S255
G1X0.42S0
G1X0.31S255
G1X0.73S0
G1X0.3S255
G1X0.42S0
G1X0.32S255
G1X0.72S0
G1X0.3S255
G1X0.41S0
G1X0.31S255
G1X0.67S0
G1X0.37S255
G1X14.31S0
G1X0.41S255
G1X0.88S0
G1X0.36S255
G1X3.37S0
G1X0.37S255
G1X0.27S0
G1X0.36S255
G1Y0.1S0
G1X-0.36S255
G1X-0.18S0
G1X-0.38S255
G1X-3.45S0
G1X-0.36S255
G1X-0.91S0
G1X-0.45S255
G1X-1.05S0
G1X-0.18S255
G1X-13.01S0
G1X-0.46S255
G1X-0.5S0
G1X-0.34S255
G1X-0.51S0
G1X-0.33S255
G1X-0.54S0
G1X-0.36S255
G1X-0.54S0
G1X-0.33S255
G1X-0.54S0
G1X-0.36S255
G1X-0.53S0
G1X-0.33S255
G1X-0.51S0
G1X-0.45S255
G1X-1.36S0
G1X-0.62S255
G1X-0.06Y0.1S0
G1X0.38S255
G1X1.66S0
G1X0.26S255
G1X0.02S0
G1X0.41S255
G1X0.03S0
G1X0.51S255
G1X0.67S0
G1X1.08S255
G1X0.68S0
G1X1.08S255
G1X0.66S0
G1X0.94S255
G1X0.29
G1X13.01S0
G1X0.44S255
G1X0.64S0
G1X0.55S255
G1X0.96S0
G1X1.71S255
G1X2.19S0
G1X0.37S255
G1X0.1S0
G1X0.36S255
G1Y0.1S0
G1X-0.36S255
G1X-0.38
G1X-2.28S0
G1X-1.71S255
G1X-1.03S0
G1X-1.56S255
G1X-13.01S0
G1X-0.28S255
G1X-0.11S0
G1X-0.73S255
G1X-0.89S0
G1X-0.84S255
G1X-0.92S0
G1X-0.84S255
G1X-0.9S0
G1X-0.74S255
G1X-0.12S0
G1X-0.26S255
G1X-1.76S0
G1X-0.32S255
G1X-0.01Y0.1S0
G1X0.29S255
G1X1.05S0
G1X0.3S255
G1X1.02S0
G1X0.31S255
G1X1.38S0
G1X0.36S255
G1X1.41S0
G1X0.36S255
G1X1.36S0
G1X0.3S255
G1X0.3S0
G1X0.28S255
G1X13.01S0
G1X1.45S255
G1X1.14S0
G1X1.71S255
G1X2.36S0
G1X0.66S255
G1Y0.1S0
G1X-0.57S255
G1X-2.45S0
G1X-1.71S255
G1X-1.32S0
G1X-1.02S255
G1X-13.26S0
G1X-0.28S255
G1X-6.81S0
G1X-0.31S255
G1X-1.02S0
G1X-0.3S255
G1X0.02Y0.1S0
G1X0.32S255
G1X0.92S0
G1X0.34S255
G1X6.84S0
G1X0.28S255
G1X19.84S0
G1X0.49S255
G1Y0.1S0
G1X-0.4S255
G1X-19.93S0
G1X-0.28S255
G1X-6.89S0
G1X-0.4S255
G1X-0.7S0
G1X-0.38S255
G1X0.07Y0.1S0
G1X1.33S255
G1X6.97S0
G1X0.28S255
G1Y0.1S0
G1X-0.28S255
G1X-7.09S0
G1X-1.1S255
G1X0.23Y0.1S0
G1X0.64S255
G1X7.32S0
G1X0.28S255
G1X-0.14Y1.8S0
G1X-0.47S255
G1X-2.29S0
G1X-0.48S255
G1Y0.1S0
G1X0.48S255
G1X2.29S0
G1X0.47S255
G1Y0.1S0
G1X-0.21S255
G1X-2.81S0
G1X-0.22S255
G1Y0.1S0
G1X0.22S255
G1X2.81S0
G1X0.21S255
G1X12.6S0
G1X0.3S255
G1X0.22Y0.1S0
G1X-0.76S255
G1X-12.36S0
G1X-0.21S255
G1X-0.75S0
G1X-0.19S255
G1X-0.85S0
G1X-0.18S255
G1X-0.84S0
G1X-0.22S255
G1Y0.1S0
G1X0.22S255
G1X0.89S0
G1X0.18S255
G1X0.63S0
G1X0.54S255
G1X0.57S0
G1X0.21S255
G1X12.28S0
G1X0.29S255
G1X0.36S0
G1X0.29S255
G1X0.05Y0.1S0
G1X-0.23S255
G1X-0.58S0
G1X-0.22S255
G1X-12.24S0
G1X-0.21S255
G1X-0.52S0
G1X-0.19S255
G1X-0.27S0
G1X-0.19S255
G1X-0.52S0
G1X-0.18S255
G1X-0.94S0
G1X-0.22S255
G1Y0.1S0
G1X0.22S255
G1X0.99S0
G1X0.18S255
G1X0.44S0
G1X0.18S255
G1X0.35S0
G1X0.19S255
G1X0.48S0
G1X0.21S255
G1X12.23S0
G1X0.86S0
G1X0.21S255
G1X1.05Y0.1S0
G1X-0.35S255
G1X-0.68S0
G1X-0.22S255
G1X-1.69S0
G1X-0.33S255
G1X-11.08S0
G1X-0.21S255
G1X-0.47S0
G1X-0.19S255
G1X-0.37S0
G1X-0.18S255
G1X-0.38S0
G1X-0.18S255
G1X-1.04S0
G1X-0.22S255
G1Y0.1S0
G1X0.22S255
G1X1.1S0
G1X0.17S255
G1X0.33S0
G1X0.18S255
G1X0.37S0
G1X0.19S255
G1X0.47S0
G1X0.21S255
G1X8.16S0
G1X0.24S255
G1X0.39S0
G1X0.22S255
G1X0.54S0
G1X0.22S255
G1X0.55S0
G1X0.21S255
G1X0.37S0
G1X0.72S255
G1X0.11S0
G1X0.23S255
G1X0.49S0
G1X0.57S255
G1X0.08S0
G1X0.22S255
G1X0.48S0
G1X0.76S255
G1X0.53S0
G1X0.25S255
G1X5.34Y0.1S0
G1X-0.02S255
G1X-2.71S0
G1X-0.05S255
G1X-2.56S0
G1X-0.25S255
G1X-0.44S0
G1X-0.31S255
G1X-0.34S0
G1X-0.3S255
G1X-0.38S0
G1X-0.47S255
G1X-0.18S0
G1X-0.33S255
G1X-0.41S0
G1X-0.43S255
G1X-0.39S0
G1X-0.27S255
G1X-0.31S0
G1X-0.21S255
G1X-0.55S0
G1X-0.22S255
G1X-0.54S0
G1X-0.22S255
G1X-0.39S0
G1X-0.24S255
G1X-8.16S0
G1X-0.21S255
G1X-0.48S0
G1X-0.19S255
G1X-0.35S0
G1X-0.18S255
G1X-0.28S0
G1X-0.18S255
G1X-1.15S0
G1X-0.22S255
G1Y0.1S0
G1X0.22S255
G1X1.2S0
G1X0.18S255
G1X0.27S0
G1X0.19S255
G1X0.26S0
G1X0.19S255
G1X0.52S0
G1X0.21S255
G1X8.16S0
G1X0.24S255
G1X0.39S0
G1X0.22S255
G1X0.54S0
G1X0.22S255
G1X0.55S0
G1X0.21S255
G1X0.28S0
G1X0.24S255
G1X0.57S0
G1X0.31S255
G1X0.34S0
G1X0.25S255
G1X0.49S0
G1X0.31S255
G1X0.31S0
G1X0.26S255
G1X0.57S0
G1X0.25S255
G1X2.89S0
G1X0.65S255
G1X1.31S0
G1X0.18S255
G1X0.66S0
G1X0.54S255
G1X1.88S0
G1X0.22S255
G1X0.86S0
G1X0.57S255
G1X0.82S0
G1X0.57S255
G1X1.15S0
G1X0.18S255
G1X0.8S0
G1X0.36S255
G1X0.13Y0.1S0
G1X-0.62S255
G1X-0.62S0
G1X-0.18S255
G1X-1.09S0
G1X-0.78S255
G1X-0.6S0
G1X-0.8S255
G1X-0.75S0
G1X-0.22S255
G1X-1.82S0
G1X-0.2S255
G1X-0.26S0
G1X-0.21S255
G1X-0.54S0
G1X-0.17S255
G1X-1.27S0
G1X-0.3S255
G1X-0.24S0
G1X-0.31S255
G1X-2.82S0
G1X-0.17S255
G1X-0.68S0
G1X-0.23S255
G1X-0.28S0
G1X-0.26S255
G1X-0.6S0
G1X-0.23S255
G1X-0.31S0
G1X-0.24S255
G1X-0.63S0
G1X-0.24S255
G1X-0.28S0
G1X-0.21S255
G1X-0.55S0
G1X-0.22S255
G1X-0.54S0
G1X-0.22S255
G1X-0.39S0
G1X-0.24S255
G1X-8.16S0
G1X-0.21S255
G1X-0.58S0
G1X-0.53S255
G1X-0.27S0
G1X-0.18S255
G1X-1.25S0
G1X-0.22S255
G1Y0.1S0
G1X0.22S255
G1X1.3S0
G1X0.18S255
G1X0.38S0
G1X0.18S255
G1X0.77S0
G1X0.21S255
G1X8.16S0
G1X0.24S255
G1X0.39S0
G1X0.22S255
G1X0.54S0
G1X0.22S255
G1X0.55S0
G1X0.21S255
G1X0.31S0
G1X0.27S255
G1X0.59S0
G1X0.22S255
G1X0.28S0
G1X0.23S255
G1X0.67S0
G1X0.22S255
G1X0.25S0
G1X0.24S255
G1X3.64S0
G1X0.23S255
G1X0.49S0
G1X0.23S255
G1X1.27S0
G1X0.18S255
G1X0.44S0
G1X0.2S255
G1X0.36S0
G1X0.19S255
G1X1.78S0
G1X0.22S255
G1X0.68S0
G1X0.24S255
G1X0.44S0
G1X0.25S255
G1X0.46S0
G1X0.25S255
G1X0.44S0
G1X0.24S255
G1X1.07S0
G1X0.18S255
G1X0.52S0
G1X0.2S255
G1X0.33S0
G1X0.19S255
G1X18.91S0
G1X0.44S255
G1X1.57S0
G1X0.45S255
G1X3.22S0
G1X0.36S255
G1X0.19Y0.1S0
G1X-0.75S255
G1X-0.96S0
G1X-0.26S255
G1X-1.58S0
G1X-0.88S255
G1X-1.14S0
G1X-0.88S255
G1X-0.91S0
G1X-1.25S255
G1X-4.92S0
G1X-0.49S255
G1X-3.1S0
G1X-0.55S255
G1X-1.47S0
G1X-0.55S255
G1X-5.42S0
G1X-0.19S255
G1X-0.4S0
G1X-0.19S255
G1X-0.43S0
G1X-0.19S255
G1X-1.08S0
G1X-0.22S255
G1X-0.57S0
G1X-0.21S255
G1X-0.39S0
G1X-0.22S255
G1X-0.57S0
G1X-0.21S255
G1X-0.65S0
G1X-0.22S255
G1X-1.76S0
G1X-0.19S255
G1X-0.4S0
G1X-0.19S255
G1X-0.38S0
G1X-0.18S255
G1X-1.28S0
G1X-0.22S255
G1X-0.59S0
G1X-0.21S255
G1X-2.67S0
G1X-1.19S255
G1X-0.24S0
G1X-0.21S255
G1X-0.7S0
G1X-0.22S255
G1X-0.27S0
G1X-0.22S255
G1X-0.2S0
G1X-0.59S255
G1X-0.38S0
G1X-0.21S255
G1X-0.55S0
G1X-0.22S255
G1X-0.54S0
G1X-0.22S255
G1X-0.39S0
G1X-0.24S255
G1X-8.16S0
G1X-0.21S255
G1X-1.28S0
G1X-0.18S255
G1X-0.3S0
G1X-0.46S255
G1X-0.59S0
G1X-0.22S255
G1Y0.1S0
G1X0.22S255
G1X0.51S0
G1X0.21S255
G1X0.21S0
G1X0.2S255
G1X0.28S0
G1X0.17S255
G1X1.23S0
G1X0.21S255
G1X8.16S0
G1X0.24S255
G1X0.39S0
G1X0.22S255
G1X0.54S0
G1X0.22S255
G1X0.55S0
G1X0.21S255
G1X0.54S0
G1X0.85S255
G1X0.26S0
G1X0.23S255
G1X0.71S0
G1X0.2S255
G1X0.24S0
G1X1.19S255
G1X2.64S0
G1X0.22S255
G1X0.64S0
G1X0.21S255
G1X1.31S0
G1X0.18S255
G1X0.33S0
G1X0.19S255
G1X0.4S0
G1X0.19S255
G1X1.76S0
G1X0.22S255
G1X0.62S0
G1X0.21S255
G1X0.62S0
G1X0.22S255
G1X0.33S0
G1X0.23S255
G1X0.61S0
G1X0.23S255
G1X1.11S0
G1X0.18S255
G1X0.37S0
G1X0.2S255
G1X0.41S0
G1X0.19S255
G1X3.09S0
G1X1.24S255
G1X0.89S0
G1X0.93S255
G1X1.08S0
G1X0.94S255
G1X1.57S0
G1X0.25S255
G1X0.94S0
G1X0.79S255
G1X4.77S0
G1X1.25S255
G1X0.8S0
G1X1.1S255
G1X0.92S0
G1X1.1S255
G1X1.53S0
G1X0.25S255
G1X0.83S0
G1X0.36S255
G1X0.2S0
G1X0.36S255
G1X0.05Y0.1S0
G1X-0.28S255
G1X-0.46S0
G1X-0.28S255
G1X-0.73S0
G1X-0.25S255
G1X-1.51S0
G1X-0.37S255
G1X-0.51S0
G1X-0.37S255
G1X-0.77S0
G1X-0.37S255
G1X-0.51S0
G1X-0.37S255
G1X-1.19S0
G1X-0.3S255
G1X-5.17S0
G1X-0.33S255
G1X-0.29S0
G1X-0.33S255
G1X-0.8S0
G1X-0.26S255
G1X-1.52S0
G1X-1.13S255
G1X-0.89S0
G1X-1.13S255
G1X-0.79S0
G1X-1.24S255
G1X-3.09S0
G1X-0.19S255
G1X-0.41S0
G1X-0.2S255
G1X-0.32S0
G1X-0.18S255
G1X-1.14S0
G1X-0.23S255
G1X-0.65S0
G1X-0.22S255
G1X-0.29S0
G1X-0.23S255
G1X-0.65S0
G1X-0.22S255
G1X-0.6S0
G1X-0.22S255
G1X-1.77S0
G1X-0.18S255
G1X-0.4S0
G1X-0.18S255
G1X-0.29S0
G1X-0.18S255
G1X-1.34S0
G1X-0.22S255
G1X-0.67S0
G1X-0.21S255
G1X-2.64S0
G1X-0.22S255
G1X-0.72S0
G1X-0.23S255
G1X-0.25S0
G1X-0.21S255
G1X-0.69S0
G1X-0.22S255
G1X-0.28S0
G1X-0.34S255
G1X-1.05S0
G1X-0.21S255
G1X-0.54S0
G1X-0.23S255
G1X-0.53S0
G1X-0.23S255
G1X-0.39S0
G1X-0.24S255
G1X-8.16S0
G1X-0.21S255
G1X-1.17S0
G1X-0.18S255
G1X-0.28S0
G1X-0.19S255
G1X-0.33S0
G1X-0.19S255
G1X-0.47S0
G1X-0.22S255
G1Y0.1S0
G1X0.22S255
G1X0.46S0
G1X0.18S255
G1X0.37S0
G1X0.18S255
G1X0.32S0
G1X0.18S255
G1X1.12S0
G1X0.21S255
G1X8.16S0
G1X0.24S255
G1X0.39S0
G1X0.24S255
G1X0.52S0
G1X0.24S255
G1X0.52S0
G1X0.22S255
G1X0.5S0
G1X0.02S255
G1X0.65S0
G1X0.22S255
G1X0.3S0
G1X0.23S255
G1X0.63S0
G1X0.24S255
G1X0.28S0
G1X0.22S255
G1X0.68S0
G1X0.22S255
G1X2.65S0
G1X0.22S255
G1X0.68S0
G1X0.22S255
G1X1.38S0
G1X0.18S255
G1X0.25S0
G1X0.2S255
G1X0.34S0
G1X0.2S255
G1X0.23S0
G1X0.68S255
G1X0.87S0
G1X0.22S255
G1X0.58S0
G1X0.22S255
G1X0.69S0
G1X0.22S255
G1X0.27S0
G1X0.21S255
G1X0.69S0
G1X0.23S255
G1X1.17S0
G1X0.18S255
G1X0.28S0
G1X0.19S255
G1X0.4S0
G1X0.19S255
G1X3.58S0
G1X0.29S255
G1X1.19S0
G1X0.36S255
G1X0.55S0
G1X0.36S255
G1X0.75S0
G1X0.35S255
G1X0.56S0
G1X0.35S255
G1X1.51S0
G1X0.26S255
G1X0.71S0
G1X0.28S255
G1X0.47S0
G1X0.28S255
G1X5.13S0
G1X0.3S255
G1X1.14S0
G1X0.33S255
G1X0.7S0
G1X0.32S255
G1X0.67S0
G1X0.33S255
G1X0.7S0
G1X0.32S255
G1X1.51S0
G1X0.26S255
G1X0.64S0
G1X0.28S255
G1X0.53S0
G1X0.27S255
G1X0.02Y0.1S0
G1X-0.28S255
G1X-0.56S0
G1X-0.28S255
G1X-0.57S0
G1X-0.26S255
G1X-1.52S0
G1X-0.31S255
G1X-0.8S0
G1X-0.31S255
G1X-0.6S0
G1X-0.31S255
G1X-0.8S0
G1X-0.31S255
G1X-1.11S0
G1X-0.3S255
G1X-5.1S0
G1X-0.27S255
G1X-0.55S0
G1X-0.27S255
G1X-0.63S0
G1X-0.26S255
G1X-1.5S0
G1X-0.33S255
G1X-0.72S0
G1X-0.32S255
G1X-0.65S0
G1X-0.33S255
G1X-0.72S0
G1X-0.32S255
G1X-1.14S0
G1X-0.29S255
G1X-3.61S0
G1X-0.19S255
G1X-0.33S0
G1X-0.2S255
G1X-0.25S0
G1X-0.19S255
G1X-0.46S0
G1X-0.05S255
G1X-0.71S0
G1X-0.22S255
G1X-0.7S0
G1X-0.22S255
G1X-0.25S0
G1X-0.22S255
G1X-0.7S0
G1X-0.23S255
G1X-0.57S0
G1X-0.22S255
G1X-0.87S0
G1X-0.68S255
G1X-0.28S0
G1X-0.22S255
G1X-0.2S0
G1X-0.22S255
G1X-0.25S0
G1X-0.18S255
G1X-0.28S0
G1X-0.46S255
G1X-0.69S0
G1X-0.22S255
G1X-0.68S0
G1X-0.23S255
G1X-2.68S0
G1X-0.23S255
G1X-0.57S0
G1X-0.24S255
G1X-0.32S0
G1X-0.3S255
G1X-0.52S0
G1X-0.24S255
G1X-0.35S0
G1X-0.23S255
G1X-0.59S0
G1X-0.22S255
G1X-0.35S0
G1X-0.23S255
G1X-0.45S0
G1X-0.31S255
G1X-0.45S0
G1X-0.29S255
G1X-0.39S0
G1X-0.24S255
G1X-8.16S0
G1X-0.21S255
G1X-1.07S0
G1X-0.18S255
G1X-0.36S0
G1X-0.19S255
G1X-0.37S0
G1X-0.19S255
G1X-0.45S0
G1X-0.22S255
G1Y0.1S0
G1X0.22S255
G1X0.46S0
G1X0.19S255
G1X0.35S0
G1X0.19S255
G1X0.42S0
G1X0.18S255
G1X1.02S0
G1X0.21S255
G1X8.16S0
G1X0.24S255
G1X0.39S0
G1X0.4S255
G1X0.26S0
G1X0.29S255
G1X0.2
G1X0.26S0
G1X0.3S255
G1X0.4S0
G1X0.29S255
G1X0.41S0
G1X0.29S255
G1X0.42S0
G1X0.3S255
G1X0.31S0
G1X0.4S255
G1X0.38S0
G1X0.3S255
G1X0.34S0
G1X0.28S255
G1X0.47S0
G1X0.25S255
G1X2.02S0
G1X0.23S255
G1X0.68S0
G1X0.22S255
G1X0.6S0
G1X0.22S255
G1X0.2S0
G1X0.22S255
G1X0.25S0
G1X0.17S255
G1X0.29S0
G1X0.46S255
G1X1.92S0
G1X0.22S255
G1X0.57S0
G1X0.22S255
G1X0.71S0
G1X0.22S255
G1X0.24S0
G1X0.22S255
G1X0.71S0
G1X0.23S255
G1X0.44S0
G1X0.56S255
G1X0.27S0
G1X0.18S255
G1X0.25S0
G1X0.62S255
G1X3.66S0
G1X0.29S255
G1X1.11S0
G1X0.31S255
G1X0.81S0
G1X0.31S255
G1X0.59S0
G1X0.3S255
G1X0.82S0
G1X0.31S255
G1X1.53S0
G1X0.25S255
G1X0.56S0
G1X0.28S255
G1X0.57S0
G1X0.28S255
G1X5.08S0
G1X0.3S255
G1X1.08S0
G1X0.3S255
G1X0.87S0
G1X0.31S255
G1X0.54S0
G1X0.3S255
G1X0.87S0
G1X0.31S255
G1X1.55S0
G1X0.25S255
G1X0.51S0
G1X0.28S255
G1X0.58S0
G1X0.28S255
G1Y0.1S0
G1X-0.28S255
G1X-0.58S0
G1X-0.28S255
G1X-0.46S0
G1X-0.25S255
G1X-1.58S0
G1X-0.31S255
G1X-0.91S0
G1X-0.3S255
G1X-0.5S0
G1X-0.31S255
G1X-0.91S0
G1X-0.3S255
G1X-1.06S0
G1X-0.3S255
G1X-5.08S0
G1X-0.27S255
G1X-0.59S0
G1X-0.27S255
G1X-0.5S0
G1X-0.26S255
G1X-1.55S0
G1X-0.31S255
G1X-0.88S0
G1X-0.3S255
G1X-0.53S0
G1X-0.31S255
G1X-0.88S0
G1X-0.3S255
G1X-1.08S0
G1X-0.29S255
G1X-3.78S0
G1X-0.37S255
G1X-0.33S0
G1X-0.18S255
G1X-0.25S0
G1X-0.21S255
G1X-0.28S0
G1X-0.2S255
G1X-0.38S0
G1X-0.23S255
G1X-0.71S0
G1X-0.21S255
G1X-0.25S0
G1X-0.22S255
G1X-0.71S0
G1X-0.22S255
G1X-0.57S0
G1X-0.22S255
G1X-2.62S0
G1X-0.17S255
G1X-0.25S0
G1X-0.2S255
G1X-0.35S0
G1X-0.19S255
G1X-0.55S0
G1X-0.22S255
G1X-0.68S0
G1X-0.22S255
G1X-2.03S0
G1X-0.25S255
G1X-0.58S0
G1X-0.72S255
G1X-0.47S0
G1X-0.2S255
G1X-0.07S0
G1X-0.65S255
G1X-0.57S0
G1X-0.83S255
G1X-0.56S0
G1X-0.61S255
G1X-0.15S0
G1X-0.62S255
G1X-0.08S0
G1X-0.19S255
G1X-0.39S0
G1X-0.24S255
G1X-8.16S0
G1X-0.21S255
G1X-0.97S0
G1X-0.17S255
G1X-0.51S0
G1X-0.19S255
G1X-0.29S0
G1X-0.19S255
G1X-0.49S0
G1X-0.21S255
G1Y0.1S0
G1X0.47S255
G1X0.28S0
G1X0.57S255
G1X0.61S0
G1X0.17S255
G1X0.66S0
G1X0.47S255
G1X8.16S0
G1X0.24S255
G1X0.82S0
G1X0.31S255
G1X0.47S0
G1X0.29S255
G1X0.93S0
G1X0.41S255
G1X0.95S0
G1X0.28S255
G1X1.13S0
G1X0.31S255
G1X3.08S0
G1X0.21S255
G1X0.67S0
G1X0.22S255
G1X0.54S0
G1X0.19S255
G1X0.39S0
G1X0.19S255
G1X0.29S0
G1X0.18S255
G1X2.56S0
G1X0.22S255
G1X0.57S0
G1X0.23S255
G1X0.69S0
G1X0.23S255
G1X0.25S0
G1X0.22S255
G1X0.69S0
G1X0.23S255
G1X0.35S0
G1X0.19S255
G1X0.38S0
G1X0.19S255
G1X0.27S0
G1X0.18S255
G1X4.43S0
G1X0.29S255
G1X1.06S0
G1X0.31S255
G1X0.91S0
G1X0.3S255
G1X0.5S0
G1X0.3S255
G1X0.92S0
G1X0.3S255
G1X1.59S0
G1X0.26S255
G1X0.45S0
G1X0.28S255
G1X0.57S0
G1X0.28S255
G1X5.08S0
G1X0.3S255
G1X1.04S0
G1X0.31S255
G1X0.93S0
G1X0.31S255
G1X0.47S0
G1X0.31S255
G1X0.93S0
G1X0.31S255
G1X1.62S0
G1X0.26S255
G1X0.41S0
G1X0.28S255
G1X0.56S0
G1X0.28S255
G1X-0.01Y0.1S0
G1X-0.28S255
G1X-0.54S0
G1X-0.27S255
G1X-0.38S0
G1X-0.26S255
G1X-1.66S0
G1X-0.31S255
G1X-0.95S0
G1X-0.31S255
G1X-0.44S0
G1X-0.32S255
G1X-0.95S0
G1X-0.31S255
G1X-1.03S0
G1X-0.3S255
G1X-5.08S0
G1X-0.28S255
G1X-0.57S0
G1X-0.28S255
G1X-0.4S0
G1X-0.26S255
G1X-1.62S0
G1X-0.31S255
G1X-0.94S0
G1X-0.3S255
G1X-0.47S0
G1X-0.31S255
G1X-0.94S0
G1X-0.3S255
G1X-1.05S0
G1X-0.29S255
G1X-4.38S0
G1X-0.18S255
G1X-0.3S0
G1X-0.2S255
G1X-0.4S0
G1X-0.19S255
G1X-0.35S0
G1X-0.22S255
G1X-0.68S0
G1X-0.23S255
G1X-0.26S0
G1X-0.23S255
G1X-0.67S0
G1X-0.23S255
G1X-0.58S0
G1X-0.22S255
G1X-0.39S0
G1X-0.05S255
G1X-2.07S0
G1X-0.18S255
G1X-0.33S0
G1X-0.19S255
G1X-0.41S0
G1X-0.19S255
G1X-0.55S0
G1X-0.21S255
G1X-0.64S0
G1X-0.22S255
G1X-8.99S0
G1X-0.24S255
G1X-8.16S0
G1X-0.47S255
G1X-0.6S0
G1X-0.18S255
G1X-0.78S0
G1X-0.35S255
G1X-0.38S0
G1X-0.47S255
G1X11.39Y0.1S0
G1X0.24S255
G1X9.01S0
G1X0.22S255
G1X0.59S0
G1X0.22S255
G1X0.58S0
G1X0.19S255
G1X0.4S0
G1X0.18S255
G1X0.39S0
G1X0.18S255
G1X2.02S0
G1X0.25S255
G1X0.19S0
G1X0.22S255
G1X0.6S0
G1X0.23S255
G1X0.64S0
G1X0.22S255
G1X0.3S0
G1X0.23S255
G1X0.64S0
G1X0.22S255
G1X0.36S0
G1X0.19S255
G1X0.42S0
G1X0.19S255
G1X0.36S0
G1X0.18S255
G1X4.32S0
G1X0.29S255
G1X1.04S0
G1X0.31S255
G1X0.95S0
G1X0.31S255
G1X0.44S0
G1X0.31S255
G1X0.96S0
G1X0.31S255
G1X1.67S0
G1X0.25S255
G1X0.37S0
G1X0.28S255
G1X0.53S0
G1X0.28S255
G1X5.1S0
G1X0.3S255
G1X1.03S0
G1X0.31S255
G1X0.96S0
G1X0.31S255
G1X0.44S0
G1X0.31S255
G1X0.96S0
G1X0.31S255
G1X1.7S0
G1X0.26S255
G1X0.35S0
G1X0.28S255
G1X0.48S0
G1X0.28S255
G1X-0.04Y0.1S0
G1X-0.33S255
G1X-0.3S0
G1X-0.32S255
G1X-0.35S0
G1X-0.25S255
G1X-0.4S0
G1X-0.69S255
G1X-0.67S0
G1X-0.31S255
G1X-0.97S0
G1X-0.31S255
G1X-0.43S0
G1X-0.31S255
G1X-0.96S0
G1X-0.32S255
G1X-1.02S0
G1X-0.3S255
G1X-2.54S0
G1X-0.95S255
G1X-1.64S0
G1X-0.29S255
G1X-0.46S0
G1X-0.28S255
G1X-0.35S0
G1X-0.25S255
G1X-0.55S0
G1X-0.3S255
G1X-0.87S0
G1X-0.31S255
G1X-0.96S0
G1X-0.31S255
G1X-0.43S0
G1X-0.32S255
G1X-0.96S0
G1X-0.31S255
G1X-1.03S0
G1X-0.29S255
G1X-4.27S0
G1X-0.18S255
G1X-0.42S0
G1X-0.19S255
G1X-0.4S0
G1X-0.19S255
G1X-0.4S0
G1X-0.22S255
G1X-0.59S0
G1X-0.23S255
G1X-0.35S0
G1X-0.22S255
G1X-0.59S0
G1X-0.23S255
G1X-0.62S0
G1X-0.22S255
G1X-0.05S0
G1X-0.36S255
G1X-2S0
G1X-0.18S255
G1X-0.45S0
G1X-0.19S255
G1X-0.37S0
G1X-0.19S255
G1X-0.62S0
G1X-0.23S255
G1X-0.5S0
G1X-0.23S255
G1X-9.05S0
G1X-0.24S255
G1Y0.1S0
G1X0.24S255
G1X9.1S0
G1X0.3S255
G1X0.25S0
G1X0.3S255
G1X0.72S0
G1X0.2S255
G1X0.27S0
G1X0.2S255
G1X0.54S0
G1X0.18S255
G1X2.12S0
G1X0.46S255
G1X0.66S0
G1X0.23S255
G1X0.51S0
G1X0.23S255
G1X0.42S0
G1X0.23S255
G1X0.51S0
G1X0.23S255
G1X0.44S0
G1X0.21S255
G1X0.35S0
G1X0.2S255
G1X0.48S0
G1X0.18S255
G1X4.22S0
G1X0.29S255
G1X1.03S0
G1X0.31S255
G1X0.97S0
G1X0.31S255
G1X0.43S0
G1X0.31S255
G1X0.96S0
G1X0.32S255
G1X0.64S0
G1X0.73S255
G1X0.39S0
G1X0.26S255
G1X0.34S0
G1X0.36S255
G1X0.21S0
G1X0.36S255
G1X1.69S0
G1X0.95S255
G1X2.54S0
G1X0.3S255
G1X1.02S0
G1X0.32S255
G1X0.96S0
G1X0.32S255
G1X0.42S0
G1X0.31S255
G1X0.97S0
G1X0.31S255
G1X0.57S0
G1X0.89S255
G1X0.35S0
G1X0.26S255
G1X0.36S0
G1X0.8S255
G1X-0.15Y0.1S0
G1X-0.5S255
G1X-0.46S0
G1X-0.26S255
G1X-0.35S0
G1X-0.29S255
G1X-0.41S0
G1X-0.3S255
G1X-0.51S0
G1X-0.31S255
G1X-0.96S0
G1X-0.32S255
G1X-0.43S0
G1X-0.31S255
G1X-0.96S0
G1X-0.31S255
G1X-1.03S0
G1X-0.3S255
G1X-2.54S0
G1X-0.95S255
G1X-1.78S0
G1X-0.75S255
G1X-0.38S0
G1X-0.26S255
G1X-0.35S0
G1X-0.4S255
G1X-0.09S0
G1X-0.42S255
G1X-0.55S0
G1X-0.32S255
G1X-0.96S0
G1X-0.31S255
G1X-0.43S0
G1X-0.31S255
G1X-0.97S0
G1X-0.31S255
G1X-1.03S0
G1X-0.29S255
G1X-4.17S0
G1X-0.18S255
G1X-0.58S0
G1X-0.23S255
G1X-0.2S0
G1X-0.22S255
G1X-0.54S0
G1X-0.28S255
G1X-0.33S0
G1X-0.26S255
G1X-0.53S0
G1X-0.27S255
G1X-0.33S0
G1X-0.27S255
G1X-0.71S0
G1X-0.34S255
G1X-2.19S0
G1X-0.18S255
G1X-0.66S0
G1X-0.53S255
G1X-0.88S0
G1X-0.67S255
G1X0.29Y0.1S0
G1X0.09S255
G1X1.44S0
G1X3.39S0
G1X0.24S255
G1X0.79S0
G1X0.71S255
G1X0.69S0
G1X0.7S255
G1X0.73S0
G1X0.45S255
G1X0.74S0
G1X0.18S255
G1X4.11S0
G1X0.29S255
G1X1.03S0
G1X0.31S255
G1X0.96S0
G1X0.32S255
G1X0.43S0
G1X0.31S255
G1X0.96S0
G1X0.31S255
G1X0.51S0
G1X0.28S255
G1X0.46S0
G1X0.28S255
G1X0.35S0
G1X0.25S255
G1X0.52S0
G1X0.37S255
G1X5.46S0
G1X0.3S255
G1X1.03S0
G1X0.31S255
G1X0.96S0
G1X0.31S255
G1X0.44S0
G1X0.31S255
G1X0.96S0
G1X0.31S255
G1X0.48S0
G1X0.28S255
G1X0.51S0
G1X0.28S255
G1X0.36S0
G1X0.26S255
G1X0.05Y0.1S0
G1X-0.25S255
G1X-0.4S0
G1X-0.28S255
G1X-0.55S0
G1X-0.28S255
G1X-0.47S0
G1X-0.31S255
G1X-0.94S0
G1X-0.31S255
G1X-0.46S0
G1X-0.31S255
G1X-0.94S0
G1X-0.31S255
G1X-1.04S0
G1X-0.3S255
G1X-6.3S0
G1X-0.25S255
G1X-0.37S0
G1X-0.28S255
G1X-0.52S0
G1X-0.28S255
G1X-0.48S0
G1X-0.31S255
G1X-0.95S0
G1X-0.32S255
G1X-0.44S0
G1X-0.31S255
G1X-0.95S0
G1X-0.31S255
G1X-1.04S0
G1X-0.29S255
G1X-6.38S0
G1X-0.37S255
G1X-1.02S0
G1X-0.38S255
G1X-0.95S0
G1X-0.17S255
G1X9.27Y0.1S0
G1X0.29S255
G1X1.05S0
G1X0.3S255
G1X0.94S0
G1X0.31S255
G1X0.46S0
G1X0.31S255
G1X0.94S0
G1X0.31S255
G1X0.47S0
G1X0.28S255
G1X0.56S0
G1X0.28S255
G1X0.4S0
G1X0.26S255
G1X6.24S0
G1X0.3S255
G1X1.05S0
G1X0.31S255
G1X0.92S0
G1X0.3S255
G1X0.49S0
G1X0.31S255
G1X0.92S0
G1X0.3S255
G1X0.48S0
G1X0.28S255
G1X0.57S0
G1X0.28S255
G1X0.44S0
G1X0.25S255
G1X0.06Y0.1S0
G1X-0.26S255
G1X-0.49S0
G1X-0.27S255
G1X-0.59S0
G1X-0.27S255
G1X-0.49S0
G1X-0.31S255
G1X-0.89S0
G1X-0.3S255
G1X-0.52S0
G1X-0.31S255
G1X-0.89S0
G1X-0.3S255
G1X-1.07S0
G1X-0.3S255
G1X-6.19S0
G1X-0.26S255
G1X-0.44S0
G1X-0.28S255
G1X-0.58S0
G1X-0.28S255
G1X-0.48S0
G1X-0.3S255
G1X-0.92S0
G1X-0.3S255
G1X-0.49S0
G1X-0.31S255
G1X-0.91S0
G1X-0.31S255
G1X-1.06S0
G1X-0.29S255
G1Y0.1S0
G1X0.29S255
G1X1.08S0
G1X0.3S255
G1X0.88S0
G1X0.31S255
G1X0.53S0
G1X0.3S255
G1X0.88S0
G1X0.31S255
G1X0.49S0
G1X0.28S255
G1X0.58S0
G1X0.28S255
G1X0.5S0
G1X0.25S255
G1X6.14S0
G1X0.3S255
G1X1.1S0
G1X0.3S255
G1X0.84S0
G1X0.3S255
G1X0.57S0
G1X0.31S255
G1X0.83S0
G1X0.31S255
G1X0.52S0
G1X0.28S255
G1X0.57S0
G1X0.28S255
G1X0.54S0
G1X0.26S255
G1X0.05Y0.1S0
G1X-0.25S255
G1X-0.61S0
G1X-0.28S255
G1X-0.55S0
G1X-0.28S255
G1X-0.56S0
G1X-0.32S255
G1X-0.75S0
G1X-0.32S255
G1X-0.63S0
G1X-0.32S255
G1X-0.75S0
G1X-0.31S255
G1X-1.13S0
G1X-0.78S255
G1X-5.61S0
G1X-0.25S255
G1X-0.56S0
G1X-0.28S255
G1X-0.56S0
G1X-0.28S255
G1X-0.53S0
G1X-0.31S255
G1X-0.82S0
G1X-0.31S255
G1X-0.58S0
G1X-0.31S255
G1X-0.82S0
G1X-0.3S255
G1X-1.11S0
G1X-0.77S255
G1Y0.1S0
G1X0.77S255
G1X1.14S0
G1X0.32S255
G1X0.73S0
G1X0.32S255
G1X0.64S0
G1X0.33S255
G1X0.73S0
G1X0.32S255
G1X0.57S0
G1X0.27S255
G1X0.56S0
G1X0.27S255
G1X0.62S0
G1X0.26S255
G1X5.55S0
G1X0.78S255
G1X1.17S0
G1X0.34S255
G1X0.61S0
G1X0.34S255
G1X0.73S0
G1X0.34S255
G1X0.61S0
G1X0.34S255
G1X0.64S0
G1X0.28S255
G1X0.49S0
G1X0.28S255
G1X0.69S0
G1X0.25S255
G1X0.06Y0.1S0
G1X-0.26S255
G1X-0.77S0
G1X-0.32S255
G1X-0.35S0
G1X-0.31S255
G1X-0.74S0
G1X-0.44S255
G1X-0.29S0
G1X-0.44S255
G1X-0.85S0
G1X-0.44S255
G1X-0.28S0
G1X-0.45S255
G1X-1.23S0
G1X-0.37S255
G1X-5.91S0
G1X-0.26S255
G1X-0.7S0
G1X-0.28S255
G1X-0.48S0
G1X-0.28S255
G1X-0.65S0
G1X-0.35S255
G1X-0.58S0
G1X-0.34S255
G1X-0.75S0
G1X-0.35S255
G1X-0.57S0
G1X-0.35S255
G1X-1.19S0
G1X-0.67S255
G1X0.33Y0.1S0
G1X0.34S255
G1X1.25S0
G1X0.56S255
G1X0.02S0
G1X0.56S255
G1X0.88S0
G1X0.56S255
G1X0.02S0
G1X0.56S255
G1X0.76S0
G1X0.32S255
G1X0.32S0
G1X0.32S255
G1X0.8S0
G1X0.25S255
G1X5.95S0
G1X0.28S255
G1X1.32S0
G1X1S255
G1X1.01S0
G1X1.01S255
G1X0.88S0
G1X0.85S255
G1X0.89S0
G1X0.26S255
G1X0.05Y0.1S0
G1X-0.25S255
G1X-1.07S0
G1X-0.6S255
G1X-1.15S0
G1X-0.72S255
G1X-1.3S0
G1X-0.72S255
G1X-1.46S0
G1X-0.25S255
G1X-5.93S0
G1X-0.25S255
G1X-0.92S0
G1X-0.82S255
G1X-0.92S0
G1X-0.96S255
G1X-1.06S0
G1X-0.96S255
G1X-1.34S0
G1X-0.26S255
G1X0.02Y0.1S0
G1X0.24S255
G1X1.52S0
G1X0.61S255
G1X1.4S0
G1X0.62S255
G1X1.24S0
G1X0.53S255
G1X1.11S0
G1X0.26S255
G1X76.37Y0.1S0
G1X-0.25S255
G1X-0.61S0
G1X-0.25S255
G1X-0.62S0
