; LightBurn 0.9.20
; GRBL device profile, user origin
; Bounds: X-0.04 Y14.86 to X80.76 Y76.26
G00 G17 G40 G21 G54
G90
G0 X0 Y0
G91
M4
; Scan @ 25.4 mm/sec, 100% power
M8
G0X10.31Y68.16
; Layer 5mm Ply
G1X1.47F1524S255
G1X3.82S0
G1X1.56S255
G1X4.43S0
G1X1.04S255
G1X8.06S0
G1X1.65S255
G1X13.65S0
G1X1.65S255
G1X21.66S0
G1X1.47S255
G1X9.26Y0.1S0
G1X-1.32S255
G1X-3.88S0
G1X-1.23S255
G1X-2.36S0
G1X-0.68S255
G1X-1.02S0
G1X-0.67S255
G1X-4.86S0
G1X-1.18S255
G1X-2.99S0
G1X-5.33S255
G1X-6.39S0
G1X-0.71S255
G1X-1.16S0
G1X-0.71S255
G1X-3.92S0
G1X-1.5S255
G1X-3.42S0
G1X-1.22S255
G1X-2.66S0
G1X-0.71S255
G1X-1.17S0
G1X-0.71S255
G1X-7.06S0
G1X-0.84S255
G1X-0.4S0
G1X-0.71S255
G1X-3.65S0
G1X-0.58S255
G1X-1.17S0
G1X-0.65S255
G1X-2.92S0
G1X-0.68S255
G1X-1.02S0
G1X-0.66S255
G1X-5.26S0
G1X-3.5S255
G1Y0.1S0
G1X4.12S255
G1X4.35S0
G1X0.41S255
G1X2.1S0
G1X0.46S255
G1X2.3S0
G1X0.43S255
G1X1.01S0
G1X0.17S255
G1X0.98S0
G1X0.37S255
G1X3.18S0
G1X0.32S255
G1X1.68S0
G1X0.37S255
G1X6.53S0
G1X0.45S255
G1X1.09S0
G1X0.19S255
G1X1.03S0
G1X0.49S255
G1X2.32S0
G1X1.22S255
G1X3.37S0
G1X1.55S255
G1X3.6S0
G1X0.45S255
G1X1.09S0
G1X0.18S255
G1X1.03S0
G1X0.5S255
G1X6.04S0
G1X5.33S255
G1X2.95S0
G1X1.26S255
G1X4.54S0
G1X0.41S255
G1X2.1S0
G1X0.46S255
G1X2.04S0
G1X1.23S255
G1X3.88S0
G1X1.32S255
G1Y0.1S0
G1X-0.13S255
G1X-1.06S0
G1X-0.13S255
G1X-3.88S0
G1X-0.13S255
G1X-0.97S0
G1X-0.13S255
G1X-1.75S0
G1X-0.41S255
G1X-0.51S0
G1X-1.8S255
G1X-0.44S0
G1X-0.32S255
G1X-4.28S0
G1X-0.14S255
G1X-1.06S0
G1X-0.14S255
G1X-2.91S0
G1X-0.13S255
G1X-5.07S0
G1X-0.13S255
G1X-5.76S0
G1X-0.4S255
G1X-0.55S0
G1X-1.97S255
G1X-0.51S0
G1X-0.34S255
G1X-3.36S0
G1X-0.14S255
G1X-1.31S0
G1X-0.15S255
G1X-3.32S0
G1X-0.13S255
G1X-0.96S0
G1X-0.13S255
G1X-2.03S0
G1X-0.41S255
G1X-0.54S0
G1X-1.97S255
G1X-0.51S0
G1X-0.35S255
G1X-6.29S0
G1X-0.13S255
G1X-0.42S0
G1X-1.35S255
G1X-0.37S0
G1X-0.26S255
G1X-2.83S0
G1X-0.29S255
G1X-0.42S0
G1X-1.85S255
G1X-0.48S0
G1X-0.38S255
G1X-1.74S0
G1X-0.41S255
G1X-0.51S0
G1X-1.79S255
G1X-0.45S0
G1X-0.32S255
G1X-3.8S0
G1X-0.48S255
G1X-3.84S0
G1X-0.13S255
G1Y0.1S0
G1X0.13S255
G1X0.13S0
G1X3.51S255
G1X0.56S0
G1X0.35S255
G1X3.39S0
G1X0.27S255
G1X0.34S0
G1X2.51S255
G1X0.43S0
G1X0.37S255
G1X1.24S0
G1X0.34S255
G1X0.4S0
G1X2.52S255
G1X0.32S0
G1X0.24S255
G1X2.55S0
G1X0.21S255
G1X0.27S0
G1X1.91S255
G1X0.13S0
G1X0.13S255
G1X6.1S0
G1X0.29S255
G1X0.37S0
G1X2.77S255
G1X0.42S0
G1X0.35S255
G1X1.8S0
G1X0.13S255
G1X0.13S0
G1X0.7S255
G1X0.13S0
G1X0.13S255
G1X3.26S0
G1X0.15S255
G1X0.15S0
G1X1.09S255
G1X0.13S0
G1X0.14S255
G1X3.16S0
G1X0.3S255
G1X0.37S0
G1X2.77S255
G1X0.42S0
G1X0.35S255
G1X5.52S0
G1X0.13S255
G1X0.13S0
G1X4.81S255
G1X0.13S0
G1X0.13S255
G1X2.87S0
G1X0.14S255
G1X0.15S0
G1X0.85S255
G1X0.14S0
G1X0.14S255
G1X4.06S0
G1X0.27S255
G1X0.34S0
G1X2.51S255
G1X0.43S0
G1X0.37S255
G1X1.49S0
G1X0.13S255
G1X0.13S0
G1X0.71S255
G1X0.13S0
G1X0.13S255
G1X3.88S0
G1X0.13S255
G1X0.14S0
G1X0.79S255
G1X0.13S0
G1X0.13S255
G1Y0.1S0
G1X-0.13S255
G1X-0.13S0
G1X-0.79S255
G1X-0.14S0
G1X-0.13S255
G1X-3.88S0
G1X-0.13S255
G1X-0.13S0
G1X-0.71S255
G1X-0.13S0
G1X-0.13S255
G1X-1.33S0
G1X-0.27S255
G1X-0.38S0
G1X-3.07S255
G1X-0.28S0
G1X-0.23S255
G1X-3.87S0
G1X-0.14S255
G1X-0.14S0
G1X-0.93S255
G1X-0.15S0
G1X-0.14S255
G1X-2.83S0
G1X-0.13S255
G1X-0.13S0
G1X-4.81S255
G1X-0.13S0
G1X-0.13S255
G1X-5.3S0
G1X-0.32S255
G1X-0.36S0
G1X-3.35S255
G1X-0.3S0
G1X-0.27S255
G1X-2.99S0
G1X-0.14S255
G1X-0.13S0
G1X-1.14S255
G1X-0.15S0
G1X-0.15S255
G1X-3.21S0
G1X-0.13S255
G1X-0.13S0
G1X-0.7S255
G1X-0.13S0
G1X-0.13S255
G1X-1.58S0
G1X-0.32S255
G1X-0.36S0
G1X-3.34S255
G1X-0.31S0
G1X-0.27S255
G1X-5.92S0
G1X-0.13S255
G1X-0.13S0
G1X-2.1S255
G1X-0.21S0
G1X-0.19S255
G1X-2.29S0
G1X-0.23S255
G1X-0.25S0
G1X-3.04S255
G1X-0.34S0
G1X-0.25S255
G1X-0.93S0
G1X-0.28S255
G1X-0.38S0
G1X-3.06S255
G1X-0.28S0
G1X-0.24S255
G1X-3.05S0
G1X-0.29S255
G1X-0.37S0
G1X-3.95S255
G1X-0.13S0
G1X-0.13S255
G1Y0.1S0
G1X0.13S255
G1X0.13S0
G1X4.22S255
G1X0.3S0
G1X0.25S255
G1X2.76S0
G1X0.22S255
G1X0.24S0
G1X3.51S255
G1X0.26S0
G1X0.14S255
G1X0.93S0
G1X0.13S255
G1X0.23S0
G1X3.43S255
G1X0.23S0
G1X0.19S255
G1X2.11S0
G1X0.17S255
G1X0.19S0
G1X2.22S255
G1X0.13S0
G1X0.13S255
G1X5.78S0
G1X0.23S255
G1X0.27S0
G1X3.82S255
G1X0.32S0
G1X0.33S255
G1X1.35S0
G1X0.13S255
G1X0.13S0
G1X0.7S255
G1X0.13S0
G1X0.13S255
G1X3.16S0
G1X0.15S255
G1X0.15S0
G1X1.19S255
G1X0.13S0
G1X0.14S255
G1X2.84S0
G1X0.23S255
G1X0.28S0
G1X3.82S255
G1X0.32S0
G1X0.33S255
G1X5.07S0
G1X0.13S255
G1X0.13S0
G1X4.81S255
G1X0.13S0
G1X0.13S255
G1X2.79S0
G1X0.14S255
G1X0.15S0
G1X1.01S255
G1X0.14S0
G1X0.14S255
G1X3.69S0
G1X0.22S255
G1X0.25S0
G1X3.51S255
G1X0.26S0
G1X0.13S255
G1X1.33S0
G1X0.13S255
G1X0.13S0
G1X0.71S255
G1X0.13S0
G1X0.13S255
G1X3.88S0
G1X0.13S255
G1X0.14S0
G1X0.79S255
G1X0.13S0
G1X0.13S255
G1Y0.1S0
G1X-0.13S255
G1X-0.13S0
G1X-0.79S255
G1X-0.14S0
G1X-0.13S255
G1X-3.88S0
G1X-0.13S255
G1X-0.13S0
G1X-0.71S255
G1X-0.13S0
G1X-0.13S255
G1X-1.33S0
G1X-0.13S255
G1X-0.13S0
G1X-3.8S255
G1X-0.22S0
G1X-0.2S255
G1X-3.54S0
G1X-0.14S255
G1X-0.14S0
G1X-1.09S255
G1X-0.15S0
G1X-0.14S255
G1X-2.75S0
G1X-0.13S255
G1X-0.13S0
G1X-4.81S255
G1X-0.13S0
G1X-0.13S255
G1X-4.91S0
G1X-0.27S255
G1X-0.32S0
G1X-4.23S255
G1X-0.23S0
G1X-0.23S255
G1X-2.7S0
G1X-0.14S255
G1X-0.13S0
G1X-1.25S255
G1X-0.15S0
G1X-0.15S255
G1X-3.1S0
G1X-0.13S255
G1X-0.13S0
G1X-0.7S255
G1X-0.13S0
G1X-0.13S255
G1X-1.18S0
G1X-0.27S255
G1X-0.32S0
G1X-4.23S255
G1X-0.23S0
G1X-0.23S255
G1X-5.64S0
G1X-0.13S255
G1X-0.13S0
G1X-2.32S255
G1X-0.16S0
G1X-0.17S255
G1X-1.93S0
G1X-0.19S255
G1X-0.2S0
G1X-3.67S255
G1X-0.13S0
G1X-0.13S255
G1X-0.93S0
G1X-0.14S255
G1X-0.13S0
G1X-3.8S255
G1X-0.22S0
G1X-0.2S255
G1X-2.5S0
G1X-0.23S255
G1X-0.25S0
G1X-4.43S255
G1X-0.13S0
G1X-0.13S255
G1Y0.1S0
G1X0.13S255
G1X0.13S0
G1X4.6S255
G1X0.22S0
G1X0.21S255
G1X2.28S0
G1X0.18S255
G1X0.21S0
G1X1.76S255
G1X0.53S0
G1X1.64S255
G1X0.13S0
G1X0.14S255
G1X0.93S0
G1X0.13S255
G1X0.13S0
G1X1.52S255
G1X1.05S0
G1X1.21S255
G1X0.19S0
G1X0.17S255
G1X1.79S0
G1X0.15S255
G1X0.17S0
G1X2.39S255
G1X0.13S0
G1X0.13S255
G1X5.52S0
G1X0.2S255
G1X0.23S0
G1X4.6S255
G1X0.24S0
G1X0.13S255
G1X1.18S0
G1X0.13S255
G1X0.13S0
G1X0.7S255
G1X0.13S0
G1X0.13S255
G1X3.05S0
G1X0.15S255
G1X0.15S0
G1X1.3S255
G1X0.13S0
G1X0.14S255
G1X2.59S0
G1X0.2S255
G1X0.23S0
G1X4.59S255
G1X0.24S0
G1X0.13S255
G1X4.91S0
G1X0.13S255
G1X0.13S0
G1X4.81S255
G1X0.13S0
G1X0.13S255
G1X2.71S0
G1X0.14S255
G1X0.15S0
G1X1.17S255
G1X0.14S0
G1X0.15S255
G1X3.38S0
G1X0.19S255
G1X0.21S0
G1X1.76S255
G1X0.53S0
G1X1.64S255
G1X0.13S0
G1X0.13S255
G1X1.33S0
G1X0.13S255
G1X0.13S0
G1X0.71S255
G1X0.13S0
G1X0.13S255
G1X3.88S0
G1X0.13S255
G1X0.14S0
G1X0.79S255
G1X0.13S0
G1X0.13S255
G1Y0.1S0
G1X-0.13S255
G1X-0.13S0
G1X-0.79S255
G1X-0.14S0
G1X-0.13S255
G1X-3.88S0
G1X-0.13S255
G1X-0.13S0
G1X-0.71S255
G1X-0.13S0
G1X-0.13S255
G1X-1.33S0
G1X-0.13S255
G1X-0.13S0
G1X-1.11S255
G1X-1.64S0
G1X-1.3S255
G1X-0.19S0
G1X-0.18S255
G1X-3.25S0
G1X-0.15S255
G1X-0.14S0
G1X-1.25S255
G1X-0.15S0
G1X-0.14S255
G1X-2.67S0
G1X-0.13S255
G1X-0.13S0
G1X-4.81S255
G1X-0.13S0
G1X-0.13S255
G1X-4.91S0
G1X-0.13S255
G1X-0.13S0
G1X-1.71S255
G1X-1.54S0
G1X-1.59S255
G1X-0.2S0
G1X-0.2S255
G1X-2.48S0
G1X-0.14S255
G1X-0.13S0
G1X-1.35S255
G1X-0.15S0
G1X-0.15S255
G1X-3S0
G1X-0.13S255
G1X-0.13S0
G1X-0.7S255
G1X-0.13S0
G1X-0.13S255
G1X-1.18S0
G1X-0.13S255
G1X-0.14S0
G1X-1.71S255
G1X-1.54S0
G1X-1.59S255
G1X-0.2S0
G1X-0.2S255
G1X-5.41S0
G1X-0.13S255
G1X-0.13S0
G1X-0.2S255
G1X-1.21S0
G1X-1.06S255
G1X-0.14S0
G1X-0.15S255
G1X-1.67S0
G1X-0.16S255
G1X-0.16S0
G1X-0.96S255
G1X-0.59S0
G1X-0.59S255
G1X-0.65S0
G1X-1.1S255
G1X-0.13S0
G1X-0.13S255
G1X-0.93S0
G1X-0.14S255
G1X-0.13S0
G1X-1.11S255
G1X-1.64S0
G1X-1.3S255
G1X-0.19S0
G1X-0.18S255
G1X-2.06S0
G1X-0.2S255
G1X-0.21S0
G1X-4.74S255
G1X-0.13S0
G1X-0.13S255
G1Y0.1S0
G1X0.13S255
G1X0.13S0
G1X0.76S255
G1X2.51S0
G1X1.59S255
G1X0.2S0
G1X0.18S255
G1X1.89S0
G1X0.17S255
G1X0.18S0
G1X1.13S255
G1X0.42S0
G1X1.34S255
G1X0.47S0
G1X0.79S255
G1X0.13S0
G1X0.14S255
G1X0.93S0
G1X0.13S255
G1X0.13S0
G1X0.81S255
G1X0.41S0
G1X1.61S255
G1X0.3S0
G1X0.83S255
G1X0.16S0
G1X0.16S255
G1X1.56S0
G1X0.15S255
G1X0.14S0
G1X0.92S255
G1X0.29S0
G1X0.96S255
G1X0.47S0
G1X0.13S255
G1X5.31S0
G1X0.19S255
G1X0.19S0
G1X1.37S255
G1X0.5S0
G1X1.2S255
G1X0.56S0
G1X1.33S255
G1X0.14S0
G1X0.13S255
G1X1.18S0
G1X0.13S255
G1X0.13S0
G1X0.7S255
G1X0.13S0
G1X0.13S255
G1X2.94S0
G1X0.15S255
G1X0.15S0
G1X1.41S255
G1X0.13S0
G1X0.14S255
G1X2.38S0
G1X0.18S255
G1X0.2S0
G1X1.37S255
G1X0.5S0
G1X1.19S255
G1X0.57S0
G1X1.33S255
G1X0.13S0
G1X0.13S255
G1X4.91S0
G1X0.13S255
G1X0.13S0
G1X0.76S255
G1X4.18S0
G1X0.13S255
G1X2.63S0
G1X0.14S255
G1X0.15S0
G1X1.33S255
G1X0.14S0
G1X0.15S255
G1X3.13S0
G1X0.17S255
G1X0.18S0
G1X1.13S255
G1X0.42S0
G1X1.34S255
G1X0.46S0
G1X0.8S255
G1X0.13S0
G1X0.13S255
G1X1.33S0
G1X0.13S255
G1X0.13S0
G1X0.71S255
G1X0.13S0
G1X0.13S255
G1X3.88S0
G1X0.13S255
G1X0.14S0
G1X0.79S255
G1X0.13S0
G1X0.13S255
G1Y0.1S0
G1X-0.13S255
G1X-0.13S0
G1X-0.79S255
G1X-0.14S0
G1X-0.13S255
G1X-3.88S0
G1X-0.13S255
G1X-0.13S0
G1X-0.71S255
G1X-0.13S0
G1X-0.13S255
G1X-1.33S0
G1X-0.13S255
G1X-0.13S0
G1X-0.55S255
G1X-0.36S0
G1X-0.51S255
G1X-1.04S0
G1X-0.46S255
G1X-0.29S0
G1X-1.03S255
G1X-0.17S0
G1X-0.17S255
G1X-3.01S0
G1X-0.15S255
G1X-0.14S0
G1X-0.64S255
G1X-0.07S0
G1X-0.7S255
G1X-0.15S0
G1X-0.14S255
G1X-2.59S0
G1X-0.13S255
G1X-4.18S0
G1X-0.76S255
G1X-0.13S0
G1X-0.13S255
G1X-4.91S0
G1X-0.13S255
G1X-0.13S0
G1X-1.05S255
G1X-0.4S0
G1X-0.69S255
G1X-0.72S0
G1X-0.61S255
G1X-0.35S0
G1X-1.25S255
G1X-0.18S0
G1X-0.18S255
G1X-2.29S0
G1X-0.14S255
G1X-0.13S0
G1X-1.46S255
G1X-0.15S0
G1X-0.15S255
G1X-2.89S0
G1X-0.13S255
G1X-0.13S0
G1X-0.7S255
G1X-0.13S0
G1X-0.13S255
G1X-1.18S0
G1X-0.13S255
G1X-0.14S0
G1X-1.05S255
G1X-0.39S0
G1X-0.7S255
G1X-0.72S0
G1X-0.61S255
G1X-0.34S0
G1X-1.26S255
G1X-0.18S0
G1X-0.18S255
G1X-5.22S0
G1X-0.13S255
G1X-0.13S0
G1X-0.51S255
G1X-0.63S0
G1X-0.35S255
G1X-0.21S0
G1X-0.85S255
G1X-0.15S0
G1X-0.14S255
G1X-1.46S0
G1X-0.15S255
G1X-0.16S0
G1X-0.77S255
G1X-0.22S0
G1X-0.35S255
G1X-1.31S0
G1X-0.47S255
G1X-0.32S0
G1X-0.59S255
G1X-0.13S0
G1X-0.13S255
G1X-0.93S0
G1X-0.14S255
G1X-0.13S0
G1X-0.55S255
G1X-0.36S0
G1X-0.51S255
G1X-1.03S0
G1X-0.47S255
G1X-0.29S0
G1X-1.03S255
G1X-0.17S0
G1X-0.16S255
G1X-1.74S0
G1X-0.17S255
G1X-0.18S0
G1X-1.25S255
G1X-0.78S0
G1X-2.05S255
G1X-0.13S0
G1X-0.76S255
G1X-0.13S0
G1X-0.13S255
G1Y0.1S0
G1X0.13S255
G1X0.13S0
G1X0.76S255
G1X0.13S0
G1X2.7S255
G1X0.38S0
G1X1.09S255
G1X0.17S0
G1X0.16S255
G1X1.59S0
G1X0.17S255
G1X0.16S0
G1X0.96S255
G1X0.24S0
G1X0.31S255
G1X1.78S0
G1X0.38S255
G1X0.3S0
G1X0.35S255
G1X0.13S0
G1X0.14S255
G1X0.93S0
G1X0.13S255
G1X0.13S0
G1X0.4S255
G1X0.27S0
G1X0.36S255
G1X1.92S0
G1X0.22S255
G1X0.17S0
G1X0.76S255
G1X0.14S0
G1X0.14S255
G1X1.39S0
G1X0.14S255
G1X0.14S0
G1X0.81S255
G1X0.18S0
G1X0.2S255
G1X1.28S0
G1X0.38S255
G1X5.13S0
G1X0.18S255
G1X0.18S0
G1X1.17S255
G1X0.28S0
G1X0.36S255
G1X1.77S0
G1X0.43S255
G1X0.32S0
G1X0.83S255
G1X0.14S0
G1X0.13S255
G1X1.18S0
G1X0.13S255
G1X0.13S0
G1X0.7S255
G1X0.13S0
G1X0.13S255
G1X2.84S0
G1X0.15S255
G1X0.15S0
G1X1.51S255
G1X0.13S0
G1X0.14S255
G1X2.2S0
G1X0.18S255
G1X0.17S0
G1X1.18S255
G1X0.27S0
G1X0.37S255
G1X1.76S0
G1X0.44S255
G1X0.32S0
G1X0.83S255
G1X0.13S0
G1X0.13S255
G1X4.91S0
G1X0.13S255
G1X0.13S0
G1X0.76S255
G1X0.13S0
G1X4.18S255
G1X2.55S0
G1X0.14S255
G1X0.15S0
G1X0.7S255
G1X0.15S0
G1X0.64S255
G1X0.14S0
G1X0.15S255
G1X2.9S0
G1X0.16S255
G1X0.17S0
G1X0.96S255
G1X0.24S0
G1X0.31S255
G1X1.78S0
G1X0.38S255
G1X0.3S0
G1X0.35S255
G1X0.13S0
G1X0.13S255
G1X1.33S0
G1X0.13S255
G1X0.13S0
G1X0.71S255
G1X0.13S0
G1X0.13S255
G1X3.88S0
G1X0.13S255
G1X1.06S0
G1X0.13S255
G1Y0.1S0
G1X-1.32S255
G1X-3.88S0
G1X-0.13S255
G1X-0.13S0
G1X-0.71S255
G1X-0.13S0
G1X-0.13S255
G1X-1.33S0
G1X-0.13S255
G1X-0.13S0
G1X-0.18S255
G1X-0.25S0
G1X-0.32S255
G1X-2.28S0
G1X-0.24S255
G1X-0.21S0
G1X-0.92S255
G1X-0.15S0
G1X-0.16S255
G1X-2.8S0
G1X-0.15S255
G1X-0.14S0
G1X-0.64S255
G1X-0.23S0
G1X-0.7S255
G1X-0.15S0
G1X-0.14S255
G1X-6.55S0
G1X-0.14S255
G1X-0.13S0
G1X-0.76S255
G1X-0.13S0
G1X-0.13S255
G1X-4.91S0
G1X-0.13S255
G1X-0.13S0
G1X-0.66S255
G1X-0.27S0
G1X-0.34S255
G1X-2.35S0
G1X-0.28S255
G1X-0.24S0
G1X-1.12S255
G1X-0.17S0
G1X-0.16S255
G1X-2.13S0
G1X-0.14S255
G1X-0.13S0
G1X-1.56S255
G1X-0.15S0
G1X-0.15S255
G1X-2.79S0
G1X-0.13S255
G1X-0.13S0
G1X-0.7S255
G1X-0.13S0
G1X-0.13S255
G1X-1.18S0
G1X-0.13S255
G1X-0.14S0
G1X-0.65S255
G1X-0.27S0
G1X-0.34S255
G1X-2.36S0
G1X-0.28S255
G1X-0.24S0
G1X-1.11S255
G1X-0.18S0
G1X-0.16S255
G1X-6.84S0
G1X-0.16S255
G1X-0.15S0
G1X-0.79S255
G1X-0.13S0
G1X-0.14S255
G1X-1.34S0
G1X-0.14S255
G1X-0.13S0
G1X-0.72S255
G1X-0.16S0
G1X-0.17S255
G1X-2.32S0
G1X-0.3S255
G1X-0.24S0
G1X-0.23S255
G1X-0.13S0
G1X-0.13S255
G1X-0.93S0
G1X-0.14S255
G1X-0.13S0
G1X-0.18S255
G1X-0.25S0
G1X-0.32S255
G1X-2.28S0
G1X-0.24S255
G1X-0.21S0
G1X-0.91S255
G1X-0.16S0
G1X-0.15S255
G1X-1.47S0
G1X-0.16S255
G1X-0.16S0
G1X-1.01S255
G1X-0.27S0
G1X-0.44S255
G1X-2.4S0
G1X-0.13S255
G1X-0.13S0
G1X-0.76S255
G1X-0.13S0
G1X-0.13S255
G1Y0.1S0
G1X0.13S255
G1X0.13S0
G1X0.76S255
G1X0.13S0
G1X0.13S255
G1X2.73S0
G1X0.3S255
G1X0.21S0
G1X0.95S255
G1X0.16S0
G1X0.15S255
G1X1.35S0
G1X0.15S255
G1X0.15S0
G1X0.88S255
G1X0.19S0
G1X0.22S255
G1X2.65S0
G1X0.29S255
G1X0.2S0
G1X0.03S255
G1X0.13S0
G1X0.14S255
G1X0.93S0
G1X0.13S255
G1X0.13S0
G1X0.08S255
G1X0.21S0
G1X0.27S255
G1X2.61S0
G1X0.15S255
G1X0.14S0
G1X0.71S255
G1X0.14S0
G1X0.14S255
G1X1.28S0
G1X0.14S255
G1X0.13S0
G1X0.76S255
G1X0.15S0
G1X0.14S255
G1X6.84S0
G1X0.16S255
G1X0.16S0
G1X1.07S255
G1X0.22S0
G1X0.24S255
G1X2.79S0
G1X0.29S255
G1X0.24S0
G1X0.49S255
G1X0.14S0
G1X0.13S255
G1X1.18S0
G1X0.13S255
G1X0.13S0
G1X0.7S255
G1X0.13S0
G1X0.13S255
G1X2.73S0
G1X0.15S255
G1X0.15S0
G1X1.62S255
G1X0.13S0
G1X0.14S255
G1X2.06S0
G1X0.16S255
G1X0.16S0
G1X1.06S255
G1X0.22S0
G1X0.25S255
G1X2.78S0
G1X0.3S255
G1X0.24S0
G1X0.49S255
G1X0.13S0
G1X0.13S255
G1X4.91S0
G1X0.13S255
G1X0.13S0
G1X0.76S255
G1X0.13S0
G1X0.14S255
G1X6.51S0
G1X0.14S255
G1X0.15S0
G1X0.71S255
G1X0.14S0
G1X0.01S255
G1X0.14S0
G1X0.65S255
G1X0.14S0
G1X0.15S255
G1X2.71S0
G1X0.15S255
G1X0.15S0
G1X0.88S255
G1X0.19S0
G1X0.22S255
G1X2.65S0
G1X0.29S255
G1X0.2S0
G1X0.03S255
G1X0.13S0
G1X0.13S255
G1X1.33S0
G1X0.13S255
G1X0.13S0
G1X0.71S255
G1X0.13S0
G1X0.13S255
G1X3.88S0
G1X1.32S255
G1X-5.2Y0.1S0
G1X-0.13S255
G1X-0.13S0
G1X-0.71S255
G1X-0.13S0
G1X-0.13S255
G1X-1.33S0
G1X-0.13S255
G1X-0.2S0
G1X-0.25S255
G1X-2.99S0
G1X-0.18S255
G1X-0.18S0
G1X-0.85S255
G1X-0.15S0
G1X-0.14S255
G1X-2.62S0
G1X-0.14S255
G1X-0.15S0
G1X-0.65S255
G1X-0.14S0
G1X-0.09S255
G1X-0.14S0
G1X-0.71S255
G1X-0.15S0
G1X-0.14S255
G1X-6.47S0
G1X-0.14S255
G1X-0.13S0
G1X-0.76S255
G1X-0.13S0
G1X-0.13S255
G1X-4.91S0
G1X-0.13S255
G1X-0.13S0
G1X-0.35S255
G1X-0.2S0
G1X-0.27S255
G1X-3.15S0
G1X-0.22S255
G1X-0.2S0
G1X-1.02S255
G1X-0.16S0
G1X-0.17S255
G1X-1.98S0
G1X-0.14S255
G1X-0.13S0
G1X-1.67S255
G1X-0.15S0
G1X-0.15S255
G1X-2.68S0
G1X-0.13S255
G1X-0.13S0
G1X-0.7S255
G1X-0.13S0
G1X-0.13S255
G1X-1.18S0
G1X-0.13S255
G1X-0.14S0
G1X-0.35S255
G1X-0.2S0
G1X-0.27S255
G1X-3.15S0
G1X-0.22S255
G1X-0.19S0
G1X-1.03S255
G1X-0.16S0
G1X-0.16S255
G1X-6.81S0
G1X-0.15S255
G1X-0.14S0
G1X-0.74S255
G1X-0.14S0
G1X-0.13S255
G1X-1.23S0
G1X-0.14S255
G1X-0.13S0
G1X-0.72S255
G1X-0.13S0
G1X-0.14S255
G1X-2.84S0
G1X-0.25S255
G1X-0.26S0
G1X-0.13S255
G1X-0.93S0
G1X-0.14S255
G1X-0.2S0
G1X-0.25S255
G1X-2.98S0
G1X-0.19S255
G1X-0.18S0
G1X-0.84S255
G1X-0.16S0
G1X-0.14S255
G1X-1.25S0
G1X-0.15S255
G1X-0.15S0
G1X-0.9S255
G1X-0.19S0
G1X-0.23S255
G1X-2.93S0
G1X-0.13S255
G1X-0.13S0
G1X-0.76S255
G1X-0.13S0
G1X-0.13S255
G1Y0.1S0
G1X0.13S255
G1X0.13S0
G1X0.76S255
G1X0.13S0
G1X0.13S255
G1X3.06S0
G1X0.2S255
G1X0.17S0
G1X0.88S255
G1X0.14S0
G1X0.15S255
G1X1.16S0
G1X0.14S255
G1X0.14S0
G1X0.83S255
G1X0.16S0
G1X0.18S255
G1X3.24S0
G1X0.22S255
G1X0.07S0
G1X0.14S255
G1X0.93S0
G1X0.13S255
G1X0.11S0
G1X0.23S255
G1X3.03S0
G1X0.14S255
G1X0.13S0
G1X0.71S255
G1X0.14S0
G1X0.13S255
G1X1.2S0
G1X0.13S255
G1X0.14S0
G1X0.73S255
G1X0.14S0
G1X0.13S255
G1X6.8S0
G1X0.15S255
G1X0.16S0
G1X0.99S255
G1X0.19S0
G1X0.2S255
G1X3.46S0
G1X0.24S255
G1X0.19S0
G1X0.21S255
G1X0.14S0
G1X0.13S255
G1X1.18S0
G1X0.13S255
G1X0.13S0
G1X0.7S255
G1X0.13S0
G1X0.13S255
G1X2.63S0
G1X0.15S255
G1X0.15S0
G1X0.76S255
G1X0.21S0
G1X0.75S255
G1X0.13S0
G1X0.14S255
G1X1.93S0
G1X0.15S255
G1X0.16S0
G1X0.99S255
G1X0.19S0
G1X0.2S255
G1X3.46S0
G1X0.24S255
G1X0.19S0
G1X0.21S255
G1X0.13S0
G1X0.13S255
G1X4.91S0
G1X0.13S255
G1X0.13S0
G1X0.76S255
G1X0.13S0
G1X0.14S255
G1X6.43S0
G1X0.14S255
G1X0.15S0
G1X0.71S255
G1X0.14S0
G1X0.17S255
G1X0.14S0
G1X0.65S255
G1X0.15S0
G1X0.14S255
G1X2.53S0
G1X0.15S255
G1X0.14S0
G1X0.82S255
G1X0.17S0
G1X0.17S255
G1X3.25S0
G1X0.22S255
G1X0.07S0
G1X0.13S255
G1X1.33S0
G1X0.13S255
G1X0.13S0
G1X0.71S255
G1X0.13S0
G1X0.13S255
G1Y0.1S0
G1X-0.13S255
G1X-0.13S0
G1X-0.71S255
G1X-0.13S0
G1X-0.13S255
G1X-1.33S0
G1X-0.28S255
G1X-3.47S0
G1X-0.17S255
G1X-0.15S0
G1X-0.8S255
G1X-0.15S0
G1X-0.14S255
G1X-2.45S0
G1X-0.14S255
G1X-0.15S0
G1X-0.65S255
G1X-0.14S0
G1X-0.25S255
G1X-0.14S0
G1X-0.72S255
G1X-0.14S0
G1X-0.14S255
G1X-6.39S0
G1X-0.14S255
G1X-0.13S0
G1X-0.76S255
G1X-0.13S0
G1X-0.13S255
G1X-4.91S0
G1X-0.13S255
G1X-0.13S0
G1X-0.09S255
G1X-0.17S0
G1X-0.23S255
G1X-3.72S0
G1X-0.19S255
G1X-0.17S0
G1X-0.98S255
G1X-0.15S0
G1X-0.15S255
G1X-1.87S0
G1X-0.14S255
G1X-0.13S0
G1X-0.69S255
G1X-0.13S0
G1X-0.05S255
G1X-0.15S0
G1X-0.76S255
G1X-0.15S0
G1X-0.15S255
G1X-2.57S0
G1X-0.13S255
G1X-0.13S0
G1X-0.7S255
G1X-0.13S0
G1X-0.13S255
G1X-1.18S0
G1X-0.13S255
G1X-0.14S0
G1X-0.08S255
G1X-0.18S0
G1X-0.23S255
G1X-3.72S0
G1X-0.19S255
G1X-0.17S0
G1X-0.97S255
G1X-0.15S0
G1X-0.16S255
G1X-6.76S0
G1X-0.13S255
G1X-0.14S0
G1X-0.72S255
G1X-0.13S0
G1X-0.13S255
G1X-1.19S0
G1X-0.13S255
G1X-0.14S0
G1X-0.71S255
G1X-0.13S0
G1X-0.14S255
G1X-3.18S0
G1X-0.33S255
G1X-0.93S0
G1X-0.29S255
G1X-3.47S0
G1X-0.17S255
G1X-0.15S0
G1X-0.8S255
G1X-0.14S0
G1X-0.15S255
G1X-1.07S0
G1X-0.15S255
G1X-0.14S0
G1X-0.84S255
G1X-0.16S0
G1X-0.18S255
G1X-3.17S0
G1X-0.13S255
G1X-0.13S0
G1X-0.76S255
G1X-0.13S0
G1X-0.13S255
G1Y0.1S0
G1X0.13S255
G1X0.13S0
G1X0.76S255
G1X0.13S0
G1X0.13S255
G1X3.25S0
G1X0.16S255
G1X0.16S0
G1X0.82S255
G1X0.14S0
G1X0.14S255
G1X1.01S0
G1X0.14S255
G1X0.14S0
G1X0.78S255
G1X0.15S0
G1X0.16S255
G1X8.27S0
G1X0.14S255
G1X0.13S0
G1X0.72S255
G1X0.14S0
G1X0.13S255
G1X1.17S0
G1X0.13S255
G1X0.13S0
G1X0.72S255
G1X0.13S0
G1X0.13S255
G1X6.73S0
G1X0.15S255
G1X0.15S0
G1X0.95S255
G1X0.17S0
G1X0.17S255
G1X3.97S0
G1X0.21S255
G1X0.27S0
G1X0.13S255
G1X1.18S0
G1X0.13S255
G1X0.13S0
G1X0.7S255
G1X0.13S0
G1X0.13S255
G1X2.52S0
G1X0.15S255
G1X0.15S0
G1X0.76S255
G1X0.15S0
G1X0.1S255
G1X0.13S0
G1X0.69S255
G1X0.13S0
G1X0.14S255
G1X1.82S0
G1X0.15S255
G1X0.15S0
G1X0.94S255
G1X0.17S0
G1X0.18S255
G1X3.96S0
G1X0.22S255
G1X0.26S0
G1X0.13S255
G1X4.91S0
G1X0.13S255
G1X0.13S0
G1X0.76S255
G1X0.13S0
G1X0.14S255
G1X6.35S0
G1X0.14S255
G1X0.14S0
G1X0.72S255
G1X0.14S0
G1X0.14S255
G1X0.05S0
G1X0.14S255
G1X0.14S0
G1X0.65S255
G1X0.15S0
G1X0.14S255
G1X2.38S0
G1X0.13S255
G1X0.15S0
G1X0.78S255
G1X0.15S0
G1X0.16S255
G1X5.15S0
G1X0.13S255
G1X0.13S0
G1X0.71S255
G1X0.13S0
G1X0.13S255
G1Y0.1S0
G1X-0.13S255
G1X-0.13S0
G1X-0.71S255
G1X-0.13S0
G1X-0.13S255
G1X-5.21S0
G1X-0.15S255
G1X-0.15S0
G1X-0.77S255
G1X-0.14S0
G1X-0.13S255
G1X-2.31S0
G1X-0.14S255
G1X-0.15S0
G1X-0.65S255
G1X-0.14S0
G1X-0.15S255
G1X-0.11S0
G1X-0.15S255
G1X-0.14S0
G1X-0.72S255
G1X-0.14S0
G1X-0.14S255
G1X-6.31S0
G1X-0.14S255
G1X-0.13S0
G1X-0.76S255
G1X-0.13S0
G1X-0.13S255
G1X-4.91S0
G1X-0.13S255
G1X-0.14S0
G1X-0.21S255
G1X-4.18S0
G1X-0.17S255
G1X-0.16S0
G1X-0.93S255
G1X-0.15S0
G1X-0.14S255
G1X-1.77S0
G1X-0.14S255
G1X-0.13S0
G1X-0.69S255
G1X-0.13S0
G1X-0.15S255
G1X-0.15S0
G1X-0.76S255
G1X-0.15S0
G1X-0.15S255
G1X-2.47S0
G1X-0.13S255
G1X-0.13S0
G1X-0.7S255
G1X-0.13S0
G1X-0.13S255
G1X-1.18S0
G1X-0.13S255
G1X-0.15S0
G1X-0.21S255
G1X-4.17S0
G1X-0.18S255
G1X-0.15S0
G1X-0.93S255
G1X-0.15S0
G1X-0.15S255
G1X-6.69S0
G1X-0.13S255
G1X-0.13S0
G1X-0.71S255
G1X-0.13S0
G1X-0.14S255
G1X-1.16S0
G1X-0.13S255
G1X-0.13S0
G1X-0.74S255
G1X-0.13S0
G1X-0.14S255
G1X-8.32S0
G1X-0.15S255
G1X-0.15S0
G1X-0.77S255
G1X-0.14S0
G1X-0.13S255
G1X-0.95S0
G1X-0.14S255
G1X-0.14S0
G1X-0.81S255
G1X-0.14S0
G1X-0.15S255
G1X-3.32S0
G1X-0.13S255
G1X-0.13S0
G1X-0.76S255
G1X-0.13S0
G1X-0.13S255
G1Y0.1S0
G1X0.13S255
G1X0.13S0
G1X0.76S255
G1X0.13S0
G1X0.13S255
G1X3.37S0
G1X0.14S255
G1X0.14S0
G1X0.8S255
G1X0.14S0
G1X0.14S255
G1X0.89S0
G1X0.13S255
G1X0.14S0
G1X0.76S255
G1X0.14S0
G1X0.15S255
G1X8.35S0
G1X0.13S255
G1X0.14S0
G1X0.75S255
G1X0.13S0
G1X0.14S255
G1X1.16S0
G1X0.13S255
G1X0.13S0
G1X0.72S255
G1X0.13S0
G1X0.13S255
G1X6.65S0
G1X0.14S255
G1X0.14S0
G1X0.92S255
G1X0.16S0
G1X0.16S255
G1X4.37S0
G1X0.37S255
G1X1.18S0
G1X0.13S255
G1X0.13S0
G1X0.7S255
G1X0.13S0
G1X0.13S255
G1X2.42S0
G1X0.14S255
G1X0.15S0
G1X0.76S255
G1X0.15S0
G1X0.21S255
G1X0.13S0
G1X0.69S255
G1X0.13S0
G1X0.14S255
G1X1.72S0
G1X0.15S255
G1X0.14S0
G1X0.92S255
G1X0.15S0
G1X0.16S255
G1X4.38S0
G1X0.36S255
G1X4.91S0
G1X0.13S255
G1X0.13S0
G1X0.76S255
G1X0.13S0
G1X0.14S255
G1X6.27S0
G1X0.14S255
G1X0.14S0
G1X0.72S255
G1X0.14S0
G1X0.15S255
G1X0.19S0
G1X0.14S255
G1X0.15S0
G1X0.65S255
G1X0.15S0
G1X0.14S255
G1X2.23S0
G1X0.14S255
G1X0.14S0
G1X0.76S255
G1X0.14S0
G1X0.15S255
G1X5.26S0
G1X0.13S255
G1X0.13S0
G1X0.71S255
G1X0.13S0
G1X0.13S255
G1Y0.1S0
G1X-0.13S255
G1X-0.13S0
G1X-0.71S255
G1X-0.13S0
G1X-0.13S255
G1X-5.31S0
G1X-0.14S255
G1X-0.14S0
G1X-0.75S255
G1X-0.14S0
G1X-0.13S255
G1X-2.17S0
G1X-0.14S255
G1X-0.15S0
G1X-0.66S255
G1X-0.14S0
G1X-0.14S255
G1X-0.27S0
G1X-0.14S255
G1X-0.15S0
G1X-0.72S255
G1X-0.14S0
G1X-0.14S255
G1X-6.23S0
G1X-0.14S255
G1X-0.13S0
G1X-0.76S255
G1X-0.13S0
G1X-0.13S255
G1X-9.71S0
G1X-0.16S255
G1X-0.15S0
G1X-0.9S255
G1X-0.14S0
G1X-0.15S255
G1X-1.68S0
G1X-0.14S255
G1X-0.13S0
G1X-0.69S255
G1X-0.13S0
G1X-0.26S255
G1X-0.15S0
G1X-0.76S255
G1X-0.15S0
G1X-0.15S255
G1X-2.36S0
G1X-0.13S255
G1X-0.13S0
G1X-0.7S255
G1X-0.13S0
G1X-0.13S255
G1X-5.99S0
G1X-0.16S255
G1X-0.15S0
G1X-0.9S255
G1X-0.14S0
G1X-0.15S255
G1X-6.6S0
G1X-0.14S255
G1X-0.13S0
G1X-0.71S255
G1X-0.14S0
G1X-0.13S255
G1X-1.16S0
G1X-0.13S255
G1X-0.14S0
G1X-0.77S255
G1X-0.15S0
G1X-0.15S255
G1X-8.34S0
G1X-0.14S255
G1X-0.14S0
G1X-0.75S255
G1X-0.13S0
G1X-0.14S255
G1X-0.85S0
G1X-0.13S255
G1X-0.14S0
G1X-0.8S255
G1X-0.13S0
G1X-0.14S255
G1X-3.4S0
G1X-0.13S255
G1X-0.13S0
G1X-0.76S255
G1X-0.13S0
G1X-0.13S255
G1Y0.1S0
G1X0.13S255
G1X0.13S0
G1X0.76S255
G1X0.13S0
G1X0.13S255
G1X3.42S0
G1X0.14S255
G1X0.13S0
G1X0.8S255
G1X0.13S0
G1X0.14S255
G1X0.81S0
G1X0.14S255
G1X0.13S0
G1X0.74S255
G1X0.14S0
G1X0.14S255
G1X8.26S0
G1X0.2S255
G1X0.16S0
G1X0.81S255
G1X0.13S0
G1X0.14S255
G1X1.17S0
G1X0.13S255
G1X0.14S0
G1X0.71S255
G1X0.13S0
G1X0.13S255
G1X6.57S0
G1X0.15S255
G1X0.14S0
G1X0.89S255
G1X0.14S0
G1X0.15S255
G1X6.06S0
G1X0.13S255
G1X0.13S0
G1X0.7S255
G1X0.13S0
G1X0.13S255
G1X2.31S0
G1X0.15S255
G1X0.15S0
G1X0.76S255
G1X0.15S0
G1X0.15S255
G1X0.02S0
G1X0.14S255
G1X0.13S0
G1X0.69S255
G1X0.13S0
G1X0.14S255
G1X1.64S0
G1X0.14S255
G1X0.15S0
G1X0.88S255
G1X0.15S0
G1X0.15S255
G1X9.78S0
G1X0.13S255
G1X0.13S0
G1X0.76S255
G1X0.13S0
G1X0.14S255
G1X6.19S0
G1X0.14S255
G1X0.14S0
G1X0.72S255
G1X0.15S0
G1X0.14S255
G1X0.35S0
G1X0.14S255
G1X0.14S0
G1X0.67S255
G1X0.14S0
G1X0.14S255
G1X2.11S0
G1X0.13S255
G1X0.14S0
G1X0.74S255
G1X0.14S0
G1X0.14S255
G1X5.34S0
G1X0.13S255
G1X0.13S0
G1X0.71S255
G1X0.13S0
G1X0.13S255
G1X3.98S0
G1X1.14S255
G1Y0.1S0
G1X-1.14S255
G1X-3.98S0
G1X-0.13S255
G1X-0.13S0
G1X-0.71S255
G1X-0.13S0
G1X-0.13S255
G1X-5.36S0
G1X-0.15S255
G1X-0.14S0
G1X-0.73S255
G1X-0.14S0
G1X-0.13S255
G1X-2.05S0
G1X-0.14S255
G1X-0.14S0
G1X-0.67S255
G1X-0.14S0
G1X-0.14S255
G1X-0.43S0
G1X-0.14S255
G1X-0.14S0
G1X-0.73S255
G1X-0.14S0
G1X-0.14S255
G1X-6.15S0
G1X-0.14S255
G1X-0.13S0
G1X-0.76S255
G1X-0.13S0
G1X-0.13S255
G1X-9.83S0
G1X-0.15S255
G1X-0.15S0
G1X-0.88S255
G1X-0.14S0
G1X-0.14S255
G1X-1.6S0
G1X-0.14S255
G1X-0.13S0
G1X-0.69S255
G1X-0.13S0
G1X-0.14S255
G1X-0.08S0
G1X-0.15S255
G1X-0.15S0
G1X-0.75S255
G1X-0.15S0
G1X-0.15S255
G1X-2.26S0
G1X-0.13S255
G1X-0.13S0
G1X-0.7S255
G1X-0.13S0
G1X-0.13S255
G1X-6.11S0
G1X-0.15S255
G1X-0.15S0
G1X-0.87S255
G1X-0.14S0
G1X-0.14S255
G1X-6.54S0
G1X-0.13S255
G1X-0.13S0
G1X-0.71S255
G1X-0.14S0
G1X-0.13S255
G1X-1.2S0
G1X-0.13S255
G1X-0.14S0
G1X-0.85S255
G1X-0.2S0
G1X-0.28S255
G1X-8.09S0
G1X-0.15S255
G1X-0.14S0
G1X-0.73S255
G1X-0.14S0
G1X-0.13S255
G1X-0.78S0
G1X-0.13S255
G1X-0.14S0
G1X-0.79S255
G1X-0.14S0
G1X-0.13S255
G1X-3.44S0
G1X-0.13S255
G1X-0.13S0
G1X-0.76S255
G1X-0.13S0
G1X-0.13S255
G1Y0.1S0
G1X0.13S255
G1X0.13S0
G1X0.76S255
G1X0.13S0
G1X0.13S255
G1X3.45S0
G1X0.13S255
G1X0.13S0
G1X0.8S255
G1X0.13S0
G1X0.14S255
G1X0.75S0
G1X0.14S255
G1X0.13S0
G1X0.73S255
G1X0.13S0
G1X0.15S255
G1X7.79S0
G1X0.43S255
G1X0.27S0
G1X0.93S255
G1X0.14S0
G1X0.14S255
G1X1.22S0
G1X0.13S255
G1X0.14S0
G1X0.71S255
G1X0.13S0
G1X0.13S255
G1X6.51S0
G1X0.14S255
G1X0.13S0
G1X0.87S255
G1X0.14S0
G1X0.15S255
G1X6.16S0
G1X0.13S255
G1X0.13S0
G1X0.7S255
G1X0.13S0
G1X0.13S255
G1X2.2S0
G1X0.15S255
G1X0.15S0
G1X0.76S255
G1X0.15S0
G1X0.15S255
G1X0.13S0
G1X0.14S255
G1X0.13S0
G1X0.69S255
G1X0.13S0
G1X0.14S255
G1X1.57S0
G1X0.14S255
G1X0.14S0
G1X0.86S255
G1X0.15S0
G1X0.14S255
G1X9.89S0
G1X0.13S255
G1X0.13S0
G1X0.76S255
G1X0.13S0
G1X0.14S255
G1X6.11S0
G1X0.14S255
G1X0.14S0
G1X0.73S255
G1X0.14S0
G1X0.14S255
G1X0.51S0
G1X0.14S255
G1X0.14S0
G1X0.67S255
G1X0.14S0
G1X0.14S255
G1X1.99S0
G1X0.13S255
G1X0.14S0
G1X0.73S255
G1X0.13S0
G1X0.15S255
G1X5.39S0
G1X0.13S255
G1X0.13S0
G1X0.71S255
G1X0.13S0
G1X0.13S255
G1X3.97S0
G1X0.14S255
G1X0.88S0
G1X0.13S255
G1Y0.1S0
G1X-0.13S255
G1X-0.13S0
G1X-0.62S255
G1X-0.14S0
G1X-0.13S255
G1X-3.97S0
G1X-0.13S255
G1X-0.13S0
G1X-0.71S255
G1X-0.13S0
G1X-0.13S255
G1X-5.41S0
G1X-0.15S255
G1X-0.13S0
G1X-0.72S255
G1X-0.14S0
G1X-0.13S255
G1X-1.94S0
G1X-0.14S255
G1X-0.14S0
G1X-0.67S255
G1X-0.14S0
G1X-0.14S255
G1X-0.59S0
G1X-0.14S255
G1X-0.14S0
G1X-0.73S255
G1X-0.14S0
G1X-0.14S255
G1X-6.07S0
G1X-0.14S255
G1X-0.13S0
G1X-0.76S255
G1X-0.13S0
G1X-0.13S255
G1X-9.93S0
G1X-0.15S255
G1X-0.14S0
G1X-0.85S255
G1X-0.14S0
G1X-0.14S255
G1X-1.54S0
G1X-0.14S255
G1X-0.13S0
G1X-0.69S255
G1X-0.13S0
G1X-0.14S255
G1X-0.18S0
G1X-0.15S255
G1X-0.15S0
G1X-0.76S255
G1X-0.15S0
G1X-0.15S255
G1X-2.15S0
G1X-0.13S255
G1X-0.13S0
G1X-0.7S255
G1X-0.13S0
G1X-0.13S255
G1X-6.21S0
G1X-0.14S255
G1X-0.15S0
G1X-0.85S255
G1X-0.14S0
G1X-0.13S255
G1X-6.48S0
G1X-0.13S255
G1X-0.14S0
G1X-0.7S255
G1X-0.14S0
G1X-0.13S255
G1X-1.25S0
G1X-0.15S255
G1X-0.15S0
G1X-1.05S255
G1X-0.39S0
G1X-0.6S255
G1X-7.35S0
G1X-0.15S255
G1X-0.13S0
G1X-0.72S255
G1X-0.14S0
G1X-0.13S255
G1X-0.74S0
G1X-0.13S255
G1X-0.14S0
G1X-0.79S255
G1X-0.13S0
G1X-0.14S255
G1X-3.45S0
G1X-0.13S255
G1X-0.13S0
G1X-0.76S255
G1X-0.13S0
G1X-0.13S255
G1Y0.1S0
G1X0.13S255
G1X0.13S0
G1X0.76S255
G1X0.13S0
G1X0.13S255
G1X3.45S0
G1X0.13S255
G1X0.14S0
G1X0.8S255
G1X0.13S0
G1X0.13S255
G1X0.73S0
G1X0.13S255
G1X0.14S0
G1X0.72S255
G1X0.13S0
G1X0.15S255
G1X6.86S0
G1X0.68S255
G1X0.55S0
G1X1.27S255
G1X0.14S0
G1X0.15S255
G1X1.3S0
G1X0.13S255
G1X0.14S0
G1X0.7S255
G1X0.14S0
G1X0.13S255
G1X6.45S0
G1X0.13S255
G1X0.14S0
G1X0.84S255
G1X0.15S0
G1X0.14S255
G1X6.25S0
G1X0.13S255
G1X0.13S0
G1X0.7S255
G1X0.13S0
G1X0.13S255
G1X2.1S0
G1X0.15S255
G1X0.15S0
G1X0.76S255
G1X0.14S0
G1X0.15S255
G1X0.24S0
G1X0.14S255
G1X0.13S0
G1X0.69S255
G1X0.13S0
G1X0.14S255
G1X1.51S0
G1X0.14S255
G1X0.14S0
G1X0.84S255
G1X0.14S0
G1X0.15S255
G1X9.97S0
G1X0.13S255
G1X0.13S0
G1X0.76S255
G1X0.13S0
G1X0.14S255
G1X6.03S0
G1X0.14S255
G1X0.14S0
G1X0.73S255
G1X0.14S0
G1X0.14S255
G1X0.66S0
G1X0.15S255
G1X0.14S0
G1X0.67S255
G1X0.14S0
G1X0.14S255
G1X1.89S0
G1X0.13S255
G1X0.13S0
G1X0.73S255
G1X0.13S0
G1X0.15S255
G1X5.42S0
G1X0.13S255
G1X0.13S0
G1X0.71S255
G1X0.13S0
G1X0.13S255
G1X3.97S0
G1X0.13S255
G1X0.13S0
G1X0.63S255
G1X0.13S0
G1X0.14S255
G1Y0.1S0
G1X-0.13S255
G1X-0.14S0
G1X-0.63S255
G1X-0.13S0
G1X-0.13S255
G1X-3.97S0
G1X-0.13S255
G1X-0.13S0
G1X-0.71S255
G1X-0.13S0
G1X-0.13S255
G1X-5.43S0
G1X-0.15S255
G1X-0.14S0
G1X-0.72S255
G1X-0.13S0
G1X-0.13S255
G1X-1.84S0
G1X-0.14S255
G1X-0.14S0
G1X-0.67S255
G1X-0.15S0
G1X-0.14S255
G1X-0.74S0
G1X-0.14S255
G1X-0.14S0
G1X-0.73S255
G1X-0.14S0
G1X-0.14S255
G1X-5.99S0
G1X-0.14S255
G1X-0.13S0
G1X-0.76S255
G1X-0.13S0
G1X-0.13S255
G1X-10.02S0
G1X-0.13S255
G1X-0.14S0
G1X-0.84S255
G1X-0.14S0
G1X-0.13S255
G1X-1.49S0
G1X-0.14S255
G1X-0.13S0
G1X-0.69S255
G1X-0.13S0
G1X-0.14S255
G1X-0.29S0
G1X-0.15S255
G1X-0.15S0
G1X-0.76S255
G1X-0.15S0
G1X-0.15S255
G1X-2.04S0
G1X-0.13S255
G1X-0.13S0
G1X-0.7S255
G1X-0.13S0
G1X-0.13S255
G1X-6.29S0
G1X-0.14S255
G1X-0.14S0
G1X-0.84S255
G1X-0.13S0
G1X-0.14S255
G1X-6.42S0
G1X-0.13S255
G1X-0.14S0
G1X-0.7S255
G1X-0.14S0
G1X-0.13S255
G1X-1.35S0
G1X-0.15S255
G1X-0.17S0
G1X-1.57S255
G1X-0.68S0
G1X-0.56S255
G1X-6.48S0
G1X-0.15S255
G1X-0.13S0
G1X-0.73S255
G1X-0.13S0
G1X-0.13S255
G1X-0.73S0
G1X-0.13S255
G1X-0.13S0
G1X-0.8S255
G1X-0.13S0
G1X-0.13S255
G1X-3.45S0
G1X-0.13S255
G1X-0.13S0
G1X-0.76S255
G1X-0.13S0
G1X-0.13S255
G1Y0.1S0
G1X0.13S255
G1X0.13S0
G1X0.76S255
G1X0.13S0
G1X0.13S255
G1X3.44S0
G1X0.13S255
G1X0.13S0
G1X0.8S255
G1X0.13S0
G1X0.14S255
G1X0.72S0
G1X0.14S255
G1X0.13S0
G1X0.72S255
G1X0.13S0
G1X0.15S255
G1X6.19S0
G1X0.42S255
G1X0.61S0
G1X2S255
G1X0.17S0
G1X0.17S255
G1X1.41S0
G1X0.13S255
G1X0.14S0
G1X0.7S255
G1X0.14S0
G1X0.13S255
G1X6.4S0
G1X0.13S255
G1X0.14S0
G1X0.83S255
G1X0.14S0
G1X0.14S255
G1X6.32S0
G1X0.13S255
G1X0.13S0
G1X0.7S255
G1X0.13S0
G1X0.13S255
G1X1.99S0
G1X0.15S255
G1X0.15S0
G1X0.76S255
G1X0.15S0
G1X0.15S255
G1X0.34S0
G1X0.14S255
G1X0.13S0
G1X0.69S255
G1X0.13S0
G1X0.14S255
G1X1.47S0
G1X0.13S255
G1X0.14S0
G1X0.83S255
G1X0.13S0
G1X0.14S255
G1X10.05S0
G1X0.13S255
G1X0.13S0
G1X0.76S255
G1X0.13S0
G1X0.14S255
G1X5.95S0
G1X0.14S255
G1X0.14S0
G1X0.73S255
G1X0.14S0
G1X0.15S255
G1X0.81S0
G1X0.14S255
G1X0.14S0
G1X0.68S255
G1X0.14S0
G1X0.14S255
G1X1.79S0
G1X0.14S255
G1X0.13S0
G1X0.72S255
G1X0.13S0
G1X0.15S255
G1X5.44S0
G1X0.13S255
G1X0.13S0
G1X0.71S255
G1X0.13S0
G1X0.13S255
G1X3.96S0
G1X0.14S255
G1X0.13S0
G1X0.64S255
G1X0.13S0
G1X0.13S255
G1Y0.1S0
G1X-0.13S255
G1X-0.13S0
G1X-0.64S255
G1X-0.14S0
G1X-0.13S255
G1X-3.96S0
G1X-0.13S255
G1X-0.13S0
G1X-0.71S255
G1X-0.13S0
G1X-0.13S255
G1X-1.21S0
G1X-4.38S255
G1X-0.14S0
G1X-0.72S255
G1X-0.13S0
G1X-0.13S255
G1X-1.75S0
G1X-0.14S255
G1X-0.14S0
G1X-0.68S255
G1X-0.14S0
G1X-0.14S255
G1X-0.89S0
G1X-0.15S255
G1X-0.14S0
G1X-0.73S255
G1X-0.14S0
G1X-0.14S255
G1X-5.91S0
G1X-0.14S255
G1X-0.13S0
G1X-0.76S255
G1X-0.13S0
G1X-0.13S255
G1X-10.08S0
G1X-0.14S255
G1X-0.13S0
G1X-0.82S255
G1X-0.14S0
G1X-0.13S255
G1X-1.45S0
G1X-0.14S255
G1X-0.13S0
G1X-0.69S255
G1X-0.13S0
G1X-0.14S255
G1X-0.4S0
G1X-0.14S255
G1X-0.15S0
G1X-0.76S255
G1X-0.15S0
G1X-0.15S255
G1X-1.94S0
G1X-0.13S255
G1X-0.13S0
G1X-0.7S255
G1X-0.13S0
G1X-0.13S255
G1X-6.35S0
G1X-0.14S255
G1X-0.14S0
G1X-0.82S255
G1X-0.14S0
G1X-0.13S255
G1X-6.38S0
G1X-0.13S255
G1X-0.14S0
G1X-0.7S255
G1X-0.14S0
G1X-0.13S255
G1X-1.49S0
G1X-0.18S255
G1X-0.2S0
G1X-2.34S255
G1X-0.46S0
G1X-0.33S255
G1X-1.74S0
G1X-4.38S255
G1X-0.13S0
G1X-0.72S255
G1X-0.14S0
G1X-0.13S255
G1X-0.73S0
G1X-0.13S255
G1X-0.14S0
G1X-0.8S255
G1X-0.13S0
G1X-0.14S255
G1X-3.42S0
G1X-0.13S255
G1X-0.13S0
G1X-0.76S255
G1X-0.13S0
G1X-0.13S255
G1Y0.1S0
G1X0.13S255
G1X0.13S0
G1X0.76S255
G1X0.13S0
G1X0.13S255
G1X3.4S0
G1X0.14S255
G1X0.13S0
G1X0.81S255
G1X0.13S0
G1X0.14S255
G1X0.74S0
G1X0.13S255
G1X0.13S0
G1X0.72S255
G1X4.39S0
G1X0.13S255
G1X1.56S0
G1X0.27S255
G1X0.36S0
G1X2.54S255
G1X0.23S0
G1X0.2S255
G1X1.58S0
G1X0.13S255
G1X0.14S0
G1X0.7S255
G1X0.14S0
G1X0.13S255
G1X6.36S0
G1X0.13S255
G1X0.14S0
G1X0.82S255
G1X0.13S0
G1X0.14S255
G1X6.38S0
G1X0.13S255
G1X0.13S0
G1X0.7S255
G1X0.13S0
G1X0.13S255
G1X1.89S0
G1X0.14S255
G1X0.15S0
G1X0.76S255
G1X0.15S0
G1X0.15S255
G1X0.45S0
G1X0.14S255
G1X0.13S0
G1X0.69S255
G1X0.13S0
G1X0.14S255
G1X1.43S0
G1X0.13S255
G1X0.14S0
G1X0.81S255
G1X0.14S0
G1X0.13S255
G1X10.11S0
G1X0.13S255
G1X0.13S0
G1X0.76S255
G1X0.13S0
G1X0.14S255
G1X5.87S0
G1X0.14S255
G1X0.14S0
G1X0.73S255
G1X0.15S0
G1X0.14S255
G1X0.97S0
G1X0.14S255
G1X0.14S0
G1X0.68S255
G1X0.14S0
G1X0.15S255
G1X1.7S0
G1X0.13S255
G1X0.13S0
G1X0.72S255
G1X4.39S0
G1X0.13S255
G1X1.21S0
G1X0.13S255
G1X0.13S0
G1X0.71S255
G1X0.13S0
G1X0.13S255
G1X3.96S0
G1X0.13S255
G1X0.13S0
G1X0.65S255
G1X0.13S0
G1X0.14S255
G1Y0.1S0
G1X-0.13S255
G1X-0.14S0
G1X-0.65S255
G1X-0.13S0
G1X-0.13S255
G1X-3.96S0
G1X-0.13S255
G1X-0.13S0
G1X-0.71S255
G1X-0.13S0
G1X-0.13S255
G1X-1.21S0
G1X-0.13S255
G1X-4.39S0
G1X-0.72S255
G1X-0.13S0
G1X-0.14S255
G1X-1.65S0
G1X-0.15S255
G1X-0.14S0
G1X-0.68S255
G1X-0.14S0
G1X-0.14S255
G1X-1.05S0
G1X-0.14S255
G1X-0.15S0
G1X-0.73S255
G1X-0.14S0
G1X-0.14S255
G1X-5.83S0
G1X-0.14S255
G1X-0.13S0
G1X-0.76S255
G1X-0.13S0
G1X-0.13S255
G1X-10.13S0
G1X-0.13S255
G1X-0.14S0
G1X-0.82S255
G1X-0.13S0
G1X-0.13S255
G1X-1.41S0
G1X-0.14S255
G1X-0.13S0
G1X-0.69S255
G1X-0.13S0
G1X-0.14S255
G1X-0.5S0
G1X-0.15S255
G1X-0.15S0
G1X-0.76S255
G1X-0.15S0
G1X-0.15S255
G1X-1.83S0
G1X-0.13S255
G1X-0.13S0
G1X-0.7S255
G1X-0.13S0
G1X-0.13S255
G1X-6.4S0
G1X-0.14S255
G1X-0.13S0
G1X-0.82S255
G1X-0.14S0
G1X-0.13S255
G1X-6.34S0
G1X-0.13S255
G1X-0.14S0
G1X-0.7S255
G1X-0.14S0
G1X-0.13S255
G1X-1.7S0
G1X-0.22S255
G1X-0.27S0
G1X-2.62S255
G1X-0.28S0
G1X-0.24S255
G1X-1.41S0
G1X-0.13S255
G1X-4.39S0
G1X-0.72S255
G1X-0.13S0
G1X-0.13S255
G1X-0.77S0
G1X-0.13S255
G1X-0.14S0
G1X-0.8S255
G1X-0.14S0
G1X-0.14S255
G1X-3.37S0
G1X-0.13S255
G1X-0.13S0
G1X-0.76S255
G1X-0.13S0
G1X-0.13S255
G1Y0.1S0
G1X0.13S255
G1X0.13S0
G1X0.76S255
G1X0.13S0
G1X0.13S255
G1X3.33S0
G1X0.14S255
G1X0.15S0
G1X0.81S255
G1X0.13S0
G1X0.14S255
G1X0.79S0
G1X0.13S255
G1X0.14S0
G1X4.97S255
G1X0.13S0
G1X0.13S255
G1X1.3S0
G1X0.2S255
G1X0.24S0
G1X2.57S255
G1X0.35S0
G1X0.25S255
G1X1.83S0
G1X0.13S255
G1X0.14S0
G1X0.7S255
G1X0.14S0
G1X0.13S255
G1X6.33S0
G1X0.13S255
G1X0.13S0
G1X0.82S255
G1X0.13S0
G1X0.14S255
G1X6.42S0
G1X0.13S255
G1X0.13S0
G1X0.7S255
G1X0.13S0
G1X0.13S255
G1X1.78S0
G1X0.15S255
G1X0.15S0
G1X0.76S255
G1X0.15S0
G1X0.15S255
G1X0.55S0
G1X0.14S255
G1X0.13S0
G1X0.69S255
G1X0.13S0
G1X0.14S255
G1X1.39S0
G1X0.14S255
G1X0.13S0
G1X0.81S255
G1X0.14S0
G1X0.13S255
G1X10.15S0
G1X0.13S255
G1X0.13S0
G1X0.76S255
G1X0.13S0
G1X0.14S255
G1X5.79S0
G1X0.14S255
G1X0.14S0
G1X0.74S255
G1X0.14S0
G1X0.14S255
G1X1.13S0
G1X0.14S255
G1X0.14S0
G1X0.68S255
G1X0.14S0
G1X0.15S255
G1X1.62S0
G1X0.13S255
G1X0.13S0
G1X4.97S255
G1X0.14S0
G1X0.13S255
G1X1.21S0
G1X0.13S255
G1X0.13S0
G1X0.71S255
G1X0.13S0
G1X0.13S255
G1X3.95S0
G1X0.13S255
G1X0.14S0
G1X0.66S255
G1X0.13S0
G1X0.13S255
G1Y0.1S0
G1X-0.13S255
G1X-0.13S0
G1X-0.66S255
G1X-0.14S0
G1X-0.13S255
G1X-3.95S0
G1X-0.13S255
G1X-0.13S0
G1X-0.71S255
G1X-0.13S0
G1X-0.13S255
G1X-1.21S0
G1X-0.13S255
G1X-0.14S0
G1X-4.96S255
G1X-0.14S0
G1X-0.13S255
G1X-1.58S0
G1X-0.15S255
G1X-0.14S0
G1X-0.68S255
G1X-0.14S0
G1X-0.15S255
G1X-1.2S0
G1X-0.14S255
G1X-0.14S0
G1X-0.74S255
G1X-0.14S0
G1X-0.14S255
G1X-5.75S0
G1X-0.14S255
G1X-0.13S0
G1X-0.76S255
G1X-0.13S0
G1X-0.13S255
G1X-10.17S0
G1X-0.13S255
G1X-0.14S0
G1X-0.8S255
G1X-0.13S0
G1X-0.14S255
G1X-1.38S0
G1X-0.14S255
G1X-0.13S0
G1X-0.69S255
G1X-0.13S0
G1X-0.14S255
G1X-0.61S0
G1X-0.15S255
G1X-0.15S0
G1X-0.75S255
G1X-0.15S0
G1X-0.15S255
G1X-1.73S0
G1X-0.13S255
G1X-0.13S0
G1X-0.7S255
G1X-0.13S0
G1X-0.13S255
G1X-6.44S0
G1X-0.14S255
G1X-0.13S0
G1X-0.81S255
G1X-0.13S0
G1X-0.13S255
G1X-6.32S0
G1X-0.13S255
G1X-0.14S0
G1X-0.7S255
G1X-0.14S0
G1X-0.13S255
G1X-2S0
G1X-0.32S255
G1X-0.48S0
G1X-2.36S255
G1X-0.19S0
G1X-0.19S255
G1X-1.2S0
G1X-0.13S255
G1X-0.13S0
G1X-4.97S255
G1X-0.13S0
G1X-0.14S255
G1X-0.82S0
G1X-0.13S255
G1X-0.14S0
G1X-0.82S255
G1X-0.15S0
G1X-0.16S255
G1X-3.27S0
G1X-0.13S255
G1X-0.13S0
G1X-0.76S255
G1X-0.13S0
G1X-0.13S255
G1Y0.1S0
G1X0.13S255
G1X0.13S0
G1X0.76S255
G1X0.13S0
G1X0.13S255
G1X3.18S0
G1X0.18S255
G1X0.16S0
G1X0.83S255
G1X0.14S0
G1X0.15S255
G1X0.86S0
G1X0.13S255
G1X0.13S0
G1X4.97S255
G1X0.13S0
G1X0.13S255
G1X1.13S0
G1X0.16S255
G1X0.18S0
G1X1.98S255
G1X0.65S0
G1X0.42S255
G1X2.22S0
G1X0.13S255
G1X0.14S0
G1X0.7S255
G1X0.14S0
G1X0.13S255
G1X6.31S0
G1X0.13S255
G1X0.13S0
G1X0.81S255
G1X0.13S0
G1X0.13S255
G1X6.46S0
G1X0.13S255
G1X0.13S0
G1X0.7S255
G1X0.13S0
G1X0.13S255
G1X1.67S0
G1X0.15S255
G1X0.15S0
G1X0.76S255
G1X0.15S0
G1X0.15S255
G1X0.66S0
G1X0.14S255
G1X0.13S0
G1X0.69S255
G1X0.13S0
G1X0.14S255
G1X1.37S0
G1X0.14S255
G1X0.13S0
G1X0.8S255
G1X0.14S0
G1X0.13S255
G1X10.18S0
G1X0.13S255
G1X0.13S0
G1X0.76S255
G1X0.13S0
G1X0.14S255
G1X5.71S0
G1X0.14S255
G1X0.14S0
G1X0.74S255
G1X0.14S0
G1X0.14S255
G1X1.28S0
G1X0.14S255
G1X0.15S0
G1X0.68S255
G1X0.14S0
G1X0.15S255
G1X1.55S0
G1X0.13S255
G1X0.13S0
G1X4.96S255
G1X0.14S0
G1X0.13S255
G1X1.21S0
G1X0.13S255
G1X0.13S0
G1X0.71S255
G1X0.13S0
G1X0.13S255
G1X3.95S0
G1X0.13S255
G1X0.13S0
G1X0.67S255
G1X0.13S0
G1X0.13S255
G1X0.01Y0.1S0
G1X-0.14S255
G1X-0.13S0
G1X-0.67S255
G1X-0.13S0
G1X-0.14S255
G1X-3.94S0
G1X-0.13S255
G1X-0.13S0
G1X-0.71S255
G1X-0.13S0
G1X-0.13S255
G1X-1.21S0
G1X-0.13S255
G1X-0.14S0
G1X-4.95S255
G1X-0.13S0
G1X-0.13S255
G1X-1.52S0
G1X-0.15S255
G1X-0.14S0
G1X-0.69S255
G1X-0.14S0
G1X-0.14S255
G1X-1.36S0
G1X-0.14S255
G1X-0.14S0
G1X-0.74S255
G1X-0.14S0
G1X-0.14S255
G1X-5.67S0
G1X-0.14S255
G1X-0.13S0
G1X-0.76S255
G1X-0.13S0
G1X-0.13S255
G1X-10.19S0
G1X-0.14S255
G1X-0.13S0
G1X-0.8S255
G1X-0.14S0
G1X-0.13S255
G1X-1.36S0
G1X-0.14S255
G1X-0.13S0
G1X-0.69S255
G1X-0.13S0
G1X-0.14S255
G1X-0.71S0
G1X-0.15S255
G1X-0.15S0
G1X-0.76S255
G1X-0.15S0
G1X-0.15S255
G1X-1.62S0
G1X-0.13S255
G1X-0.13S0
G1X-0.7S255
G1X-0.13S0
G1X-0.13S255
G1X-6.47S0
G1X-0.13S255
G1X-0.13S0
G1X-0.81S255
G1X-0.13S0
G1X-0.14S255
G1X-6.29S0
G1X-0.13S255
G1X-0.14S0
G1X-0.7S255
G1X-0.14S0
G1X-0.13S255
G1X-2.52S0
G1X-0.59S255
G1X-0.67S0
G1X-1.58S255
G1X-0.16S0
G1X-0.16S255
G1X-1.06S0
G1X-0.13S255
G1X-0.13S0
G1X-4.96S255
G1X-0.13S0
G1X-0.13S255
G1X-0.92S0
G1X-0.14S255
G1X-0.14S0
G1X-0.86S255
G1X-0.18S0
G1X-0.21S255
G1X-3.06S0
G1X-0.13S255
G1X-0.13S0
G1X-0.76S255
G1X-0.13S0
G1X-0.13S255
G1Y0.1S0
G1X0.13S255
G1X0.13S0
G1X0.76S255
G1X0.13S0
G1X0.13S255
G1X2.9S0
G1X0.25S255
G1X0.21S0
G1X0.89S255
G1X0.15S0
G1X0.15S255
G1X0.97S0
G1X0.13S255
G1X0.13S0
G1X4.94S255
G1X0.13S0
G1X0.14S255
G1X1.01S0
G1X0.15S255
G1X0.15S0
G1X1.28S255
G1X0.53S0
G1X0.69S255
G1X2.93S0
G1X0.13S255
G1X0.14S0
G1X0.7S255
G1X0.14S0
G1X0.13S255
G1X6.29S0
G1X0.13S255
G1X0.13S0
G1X0.8S255
G1X0.14S0
G1X0.13S255
G1X6.48S0
G1X0.13S255
G1X0.13S0
G1X0.7S255
G1X0.13S0
G1X0.13S255
G1X1.57S0
G1X0.15S255
G1X0.15S0
G1X0.76S255
G1X0.14S0
G1X0.15S255
G1X0.77S0
G1X0.14S255
G1X0.13S0
G1X0.69S255
G1X0.13S0
G1X0.14S255
G1X1.35S0
G1X0.14S255
G1X0.13S0
G1X0.8S255
G1X0.13S0
G1X0.14S255
G1X10.2S0
G1X0.13S255
G1X0.13S0
G1X0.76S255
G1X0.13S0
G1X0.14S255
G1X5.63S0
G1X0.14S255
G1X0.14S0
G1X0.74S255
G1X0.14S0
G1X0.14S255
G1X1.44S0
G1X0.14S255
G1X0.14S0
G1X0.69S255
G1X0.14S0
G1X0.15S255
G1X1.49S0
G1X0.13S255
G1X0.13S0
G1X4.94S255
G1X0.13S0
G1X0.14S255
G1X1.21S0
G1X0.13S255
G1X0.13S0
G1X0.71S255
G1X0.13S0
G1X0.13S255
G1X3.94S0
G1X0.13S255
G1X0.14S0
G1X0.68S255
G1X0.13S0
G1X0.13S255
G1Y0.1S0
G1X-0.13S255
G1X-0.13S0
G1X-0.69S255
G1X-0.13S0
G1X-0.13S255
G1X-3.94S0
G1X-0.13S255
G1X-0.13S0
G1X-0.71S255
G1X-0.13S0
G1X-0.13S255
G1X-1.22S0
G1X-0.13S255
G1X-0.13S0
G1X-0.68S255
G1X-3.57S0
G1X-0.68S255
G1X-0.13S0
G1X-0.13S255
G1X-1.46S0
G1X-0.14S255
G1X-0.15S0
G1X-0.69S255
G1X-0.14S0
G1X-0.14S255
G1X-1.51S0
G1X-0.15S255
G1X-0.14S0
G1X-0.74S255
G1X-0.14S0
G1X-0.14S255
G1X-5.59S0
G1X-0.14S255
G1X-0.13S0
G1X-0.76S255
G1X-0.13S0
G1X-0.13S255
G1X-10.21S0
G1X-0.13S255
G1X-0.14S0
G1X-0.79S255
G1X-0.14S0
G1X-0.13S255
G1X-1.35S0
G1X-0.14S255
G1X-0.13S0
G1X-0.69S255
G1X-0.13S0
G1X-0.14S255
G1X-0.82S0
G1X-0.15S255
G1X-0.15S0
G1X-0.76S255
G1X-0.15S0
G1X-0.15S255
G1X-1.51S0
G1X-0.13S255
G1X-0.13S0
G1X-0.7S255
G1X-0.13S0
G1X-0.13S255
G1X-6.49S0
G1X-0.13S255
G1X-0.13S0
G1X-0.8S255
G1X-0.13S0
G1X-0.14S255
G1X-6.28S0
G1X-0.13S255
G1X-0.14S0
G1X-0.7S255
G1X-0.14S0
G1X-0.13S255
G1X-3.45S0
G1X-0.58S255
G1X-0.37S0
G1X-1.08S255
G1X-0.15S0
G1X-0.14S255
G1X-0.98S0
G1X-0.13S255
G1X-0.13S0
G1X-0.68S255
G1X-3.57S0
G1X-0.67S255
G1X-0.14S0
G1X-0.13S255
G1X-1.03S0
G1X-0.16S255
G1X-0.16S0
G1X-0.94S255
G1X-0.24S0
G1X-0.34S255
G1X-2.66S0
G1X-0.13S255
G1X-0.13S0
G1X-0.76S255
G1X-0.13S0
G1X-0.13S255
G1Y0.1S0
G1X0.13S255
G1X0.13S0
G1X0.76S255
G1X0.13S0
G1X0.13S255
G1X1.82S0
G1X0.95S255
G1X0.32S0
G1X1.02S255
G1X0.16S0
G1X0.16S255
G1X1.12S0
G1X0.13S255
G1X0.13S0
G1X0.67S255
G1X0.14S0
G1X3.29S255
G1X0.13S0
G1X0.68S255
G1X0.13S0
G1X0.13S255
G1X0.94S0
G1X0.14S255
G1X0.14S0
G1X0.96S255
G1X0.27S0
G1X0.41S255
G1X3.89S0
G1X0.13S255
G1X0.14S0
G1X0.7S255
G1X0.14S0
G1X0.13S255
G1X6.28S0
G1X0.13S255
G1X0.13S0
G1X0.8S255
G1X0.14S0
G1X0.13S255
G1X6.49S0
G1X0.13S255
G1X0.13S0
G1X0.7S255
G1X0.13S0
G1X0.13S255
G1X1.46S0
G1X0.15S255
G1X0.15S0
G1X0.76S255
G1X0.15S0
G1X0.15S255
G1X0.87S0
G1X0.14S255
G1X0.13S0
G1X0.69S255
G1X0.13S0
G1X0.14S255
G1X1.35S0
G1X0.13S255
G1X0.13S0
G1X0.8S255
G1X0.13S0
G1X0.14S255
G1X10.21S0
G1X0.13S255
G1X0.13S0
G1X0.76S255
G1X0.13S0
G1X0.14S255
G1X5.55S0
G1X0.14S255
G1X0.14S0
G1X0.74S255
G1X0.14S0
G1X0.15S255
G1X1.59S0
G1X0.14S255
G1X0.14S0
G1X0.69S255
G1X0.15S0
G1X0.14S255
G1X1.43S0
G1X0.14S255
G1X0.13S0
G1X0.67S255
G1X0.13S0
G1X3.3S255
G1X0.13S0
G1X0.67S255
G1X0.14S0
G1X0.13S255
G1X1.22S0
G1X0.13S255
G1X0.13S0
G1X0.71S255
G1X0.13S0
G1X0.13S255
G1X3.94S0
G1X0.13S255
G1X0.13S0
G1X0.69S255
G1X0.13S0
G1X0.13S255
G1X0.01Y0.1S0
G1X-0.14S255
G1X-0.13S0
G1X-0.69S255
G1X-0.13S0
G1X-0.14S255
G1X-3.93S0
G1X-0.13S255
G1X-0.13S0
G1X-0.71S255
G1X-0.13S0
G1X-0.13S255
G1X-1.23S0
G1X-0.13S255
G1X-0.14S0
G1X-0.67S255
G1X-0.13S0
G1X-0.17S255
G1X-2.92S0
G1X-0.18S255
G1X-0.13S0
G1X-0.67S255
G1X-0.13S0
G1X-0.14S255
G1X-1.41S0
G1X-0.14S255
G1X-0.15S0
G1X-0.69S255
G1X-0.14S0
G1X-0.14S255
G1X-1.67S0
G1X-0.14S255
G1X-0.15S0
G1X-0.74S255
G1X-0.14S0
G1X-0.14S255
G1X-1.47S0
G1X-4.18S255
G1X-0.13S0
G1X-0.76S255
G1X-0.13S0
G1X-0.13S255
G1X-10.22S0
G1X-0.13S255
G1X-0.13S0
G1X-0.8S255
G1X-0.13S0
G1X-0.14S255
G1X-1.34S0
G1X-0.14S255
G1X-0.13S0
G1X-0.69S255
G1X-0.13S0
G1X-0.14S255
G1X-0.93S0
G1X-0.14S255
G1X-0.15S0
G1X-0.76S255
G1X-0.15S0
G1X-0.15S255
G1X-1.41S0
G1X-0.13S255
G1X-0.13S0
G1X-0.7S255
G1X-0.13S0
G1X-0.13S255
G1X-6.49S0
G1X-0.14S255
G1X-0.13S0
G1X-0.8S255
G1X-0.13S0
G1X-0.13S255
G1X-6.28S0
G1X-0.13S255
G1X-0.14S0
G1X-0.7S255
G1X-0.14S0
G1X-0.13S255
G1X-4.2S0
G1X-0.28S255
G1X-0.21S0
G1X-0.87S255
G1X-0.14S0
G1X-0.13S255
G1X-0.93S0
G1X-0.13S255
G1X-0.13S0
G1X-0.68S255
G1X-0.13S0
G1X-0.17S255
G1X-2.92S0
G1X-0.18S255
G1X-0.13S0
G1X-0.67S255
G1X-0.13S0
G1X-0.14S255
G1X-1.2S0
G1X-0.17S255
G1X-0.18S0
G1X-1.14S255
G1X-0.56S0
G1X-2.44S255
G1X-0.13S0
G1X-0.76S255
G1X-0.13S0
G1X-0.13S255
G1Y0.1S0
G1X0.13S255
G1X0.13S0
G1X0.76S255
G1X2.78S0
G1X1.38S255
G1X0.19S0
G1X0.19S255
G1X1.3S0
G1X0.14S255
G1X0.13S0
G1X0.67S255
G1X0.13S0
G1X0.18S255
G1X2.89S0
G1X0.17S255
G1X0.13S0
G1X0.68S255
G1X0.13S0
G1X0.13S255
G1X0.91S0
G1X0.14S255
G1X0.13S0
G1X0.82S255
G1X0.17S0
G1X0.21S255
G1X4.39S0
G1X0.13S255
G1X0.14S0
G1X0.7S255
G1X0.14S0
G1X0.13S255
G1X6.27S0
G1X0.13S255
G1X0.14S0
G1X0.8S255
G1X0.13S0
G1X0.13S255
G1X6.5S0
G1X0.13S255
G1X0.13S0
G1X0.7S255
G1X0.13S0
G1X0.13S255
G1X1.36S0
G1X0.14S255
G1X0.15S0
G1X0.76S255
G1X0.15S0
G1X0.15S255
G1X0.98S0
G1X0.14S255
G1X0.13S0
G1X0.69S255
G1X0.13S0
G1X0.14S255
G1X1.34S0
G1X0.13S255
G1X0.13S0
G1X0.8S255
G1X0.14S0
G1X0.13S255
G1X10.22S0
G1X0.13S255
G1X0.13S0
G1X0.76S255
G1X4.18S0
G1X0.13S255
G1X1.43S0
G1X0.14S255
G1X0.14S0
G1X0.74S255
G1X0.15S0
G1X0.14S255
G1X1.74S0
G1X0.15S255
G1X0.14S0
G1X0.69S255
G1X0.15S0
G1X0.14S255
G1X1.39S0
G1X0.14S255
G1X0.13S0
G1X0.67S255
G1X0.13S0
G1X0.18S255
G1X2.89S0
G1X0.17S255
G1X0.13S0
G1X0.67S255
G1X0.14S0
G1X0.13S255
G1X1.24S0
G1X0.13S255
G1X0.13S0
G1X0.71S255
G1X0.13S0
G1X0.13S255
G1X3.93S0
G1X0.13S255
G1X0.14S0
G1X0.69S255
G1X0.14S0
G1X0.13S255
G1Y0.1S0
G1X-0.13S255
G1X-0.13S0
G1X-0.71S255
G1X-0.13S0
G1X-0.13S255
G1X-3.93S0
G1X-0.13S255
G1X-0.13S0
G1X-0.71S255
G1X-0.13S0
G1X-0.13S255
G1X-1.25S0
G1X-0.13S255
G1X-0.14S0
G1X-0.67S255
G1X-0.13S0
G1X-0.17S255
G1X-2.86S0
G1X-0.18S255
G1X-0.14S0
G1X-0.65S255
G1X-0.14S0
G1X-0.13S255
G1X-1.38S0
G1X-0.14S255
G1X-0.15S0
G1X-0.69S255
G1X-0.15S0
G1X-0.14S255
G1X-1.82S0
G1X-0.14S255
G1X-0.15S0
G1X-0.74S255
G1X-0.14S0
G1X-0.15S255
G1X-1.38S0
G1X-0.13S255
G1X-4.18S0
G1X-0.76S255
G1X-0.13S0
G1X-0.13S255
G1X-10.22S0
G1X-0.13S255
G1X-0.14S0
G1X-0.79S255
G1X-0.14S0
G1X-0.13S255
G1X-1.34S0
G1X-0.14S255
G1X-0.13S0
G1X-0.69S255
G1X-0.13S0
G1X-0.14S255
G1X-1.03S0
G1X-0.15S255
G1X-0.15S0
G1X-0.76S255
G1X-0.15S0
G1X-0.15S255
G1X-1.3S0
G1X-0.13S255
G1X-0.13S0
G1X-0.7S255
G1X-0.13S0
G1X-0.13S255
G1X-6.5S0
G1X-0.13S255
G1X-0.13S0
G1X-0.8S255
G1X-0.13S0
G1X-0.14S255
G1X-6.27S0
G1X-0.13S255
G1X-0.14S0
G1X-0.7S255
G1X-0.14S0
G1X-0.13S255
G1X-4.52S0
G1X-0.15S255
G1X-0.15S0
G1X-0.79S255
G1X-0.13S0
G1X-0.14S255
G1X-0.9S0
G1X-0.13S255
G1X-0.14S0
G1X-0.66S255
G1X-0.14S0
G1X-0.17S255
G1X-2.85S0
G1X-0.19S255
G1X-0.13S0
G1X-0.66S255
G1X-0.14S0
G1X-0.13S255
G1X-1.44S0
G1X-0.18S255
G1X-0.22S0
G1X-4.79S255
G1X-0.13S0
G1X-0.13S255
G1Y0.1S0
G1X0.13S255
G1X0.13S0
G1X4.64S255
G1X0.24S0
G1X0.21S255
G1X1.57S0
G1X0.13S255
G1X0.14S0
G1X0.66S255
G1X0.14S0
G1X0.18S255
G1X2.8S0
G1X0.17S255
G1X0.14S0
G1X0.67S255
G1X0.13S0
G1X0.14S255
G1X0.91S0
G1X0.13S255
G1X0.13S0
G1X0.76S255
G1X0.14S0
G1X0.14S255
G1X4.58S0
G1X0.13S255
G1X0.14S0
G1X0.7S255
G1X0.14S0
G1X0.13S255
G1X6.28S0
G1X0.13S255
G1X0.13S0
G1X0.8S255
G1X0.13S0
G1X0.14S255
G1X6.49S0
G1X0.13S255
G1X0.13S0
G1X0.7S255
G1X0.13S0
G1X0.13S255
G1X1.25S0
G1X0.15S255
G1X0.15S0
G1X0.76S255
G1X0.15S0
G1X0.15S255
G1X1.08S0
G1X0.14S255
G1X0.13S0
G1X0.69S255
G1X0.13S0
G1X0.14S255
G1X1.34S0
G1X0.14S255
G1X0.13S0
G1X0.8S255
G1X0.13S0
G1X0.13S255
G1X10.22S0
G1X0.13S255
G1X0.13S0
G1X4.81S255
G1X0.13S0
G1X0.13S255
G1X1.34S0
G1X0.15S255
G1X0.14S0
G1X0.75S255
G1X0.14S0
G1X0.14S255
G1X1.9S0
G1X0.14S255
G1X0.14S0
G1X0.7S255
G1X0.15S0
G1X0.14S255
G1X1.37S0
G1X0.13S255
G1X0.14S0
G1X0.66S255
G1X0.14S0
G1X0.18S255
G1X2.8S0
G1X0.17S255
G1X0.13S0
G1X0.67S255
G1X0.14S0
G1X0.13S255
G1X1.27S0
G1X0.13S255
G1X0.13S0
G1X0.71S255
G1X0.13S0
G1X0.13S255
G1X3.93S0
G1X0.13S255
G1X0.13S0
G1X0.71S255
G1X0.13S0
G1X0.13S255
G1X0.01Y0.1S0
G1X-0.14S255
G1X-0.13S0
G1X-0.71S255
G1X-0.13S0
G1X-0.14S255
G1X-3.82S0
G1X-0.23S255
G1X-0.13S0
G1X-0.71S255
G1X-0.13S0
G1X-0.13S255
G1X-1.29S0
G1X-0.13S255
G1X-0.13S0
G1X-0.68S255
G1X-0.13S0
G1X-0.17S255
G1X-2.75S0
G1X-0.18S255
G1X-0.14S0
G1X-0.66S255
G1X-0.14S0
G1X-0.14S255
G1X-1.35S0
G1X-0.14S255
G1X-0.15S0
G1X-0.7S255
G1X-0.14S0
G1X-0.14S255
G1X-1.98S0
G1X-0.14S255
G1X-0.14S0
G1X-0.75S255
G1X-0.14S0
G1X-0.15S255
G1X-1.3S0
G1X-0.13S255
G1X-0.13S0
G1X-4.81S255
G1X-0.13S0
G1X-0.13S255
G1X-10.21S0
G1X-0.14S255
G1X-0.13S0
G1X-0.8S255
G1X-0.13S0
G1X-0.13S255
G1X-1.35S0
G1X-0.14S255
G1X-0.13S0
G1X-0.69S255
G1X-0.13S0
G1X-0.14S255
G1X-1.14S0
G1X-0.15S255
G1X-0.15S0
G1X-0.75S255
G1X-0.15S0
G1X-0.15S255
G1X-1.2S0
G1X-0.13S255
G1X-0.13S0
G1X-0.7S255
G1X-0.13S0
G1X-0.13S255
G1X-6.49S0
G1X-0.13S255
G1X-0.14S0
G1X-0.79S255
G1X-0.14S0
G1X-0.13S255
G1X-6.28S0
G1X-0.13S255
G1X-0.14S0
G1X-0.7S255
G1X-0.14S0
G1X-0.13S255
G1X-4.62S0
G1X-0.13S255
G1X-0.14S0
G1X-0.74S255
G1X-0.13S0
G1X-0.13S255
G1X-0.92S0
G1X-0.14S255
G1X-0.13S0
G1X-0.68S255
G1X-0.13S0
G1X-0.17S255
G1X-2.75S0
G1X-0.17S255
G1X-0.14S0
G1X-0.67S255
G1X-0.14S0
G1X-0.13S255
G1X-1.76S0
G1X-0.2S255
G1X-0.3S0
G1X-4.43S255
G1X-0.13S0
G1X-0.13S255
G1Y0.1S0
G1X0.13S255
G1X0.13S0
G1X4.15S255
G1X0.38S0
G1X0.22S255
G1X1.97S0
G1X0.14S255
G1X0.14S0
G1X0.66S255
G1X0.15S0
G1X0.17S255
G1X2.69S0
G1X0.16S255
G1X0.14S0
G1X0.67S255
G1X0.14S0
G1X0.14S255
G1X0.94S0
G1X0.13S255
G1X0.14S0
G1X0.73S255
G1X0.13S0
G1X0.13S255
G1X4.63S0
G1X0.13S255
G1X0.14S0
G1X0.7S255
G1X0.14S0
G1X0.13S255
G1X6.28S0
G1X0.14S255
G1X0.13S0
G1X0.8S255
G1X0.13S0
G1X0.13S255
G1X6.49S0
G1X0.13S255
G1X0.13S0
G1X0.7S255
G1X0.13S0
G1X0.13S255
G1X1.14S0
G1X0.15S255
G1X0.15S0
G1X0.76S255
G1X0.15S0
G1X0.15S255
G1X1.19S0
G1X0.14S255
G1X0.13S0
G1X0.69S255
G1X0.13S0
G1X0.14S255
G1X1.35S0
G1X0.13S255
G1X0.14S0
G1X0.79S255
G1X0.14S0
G1X0.13S255
G1X10.21S0
G1X0.13S255
G1X0.13S0
G1X4.81S255
G1X0.13S0
G1X0.13S255
G1X1.26S0
G1X0.15S255
G1X0.14S0
G1X0.75S255
G1X0.14S0
G1X0.14S255
G1X2.06S0
G1X0.14S255
G1X0.14S0
G1X0.71S255
G1X0.14S0
G1X0.14S255
G1X1.35S0
G1X0.14S255
G1X0.14S0
G1X0.66S255
G1X0.15S0
G1X0.17S255
G1X2.69S0
G1X0.16S255
G1X0.14S0
G1X0.67S255
G1X0.14S0
G1X0.14S255
G1X1.3S0
G1X0.13S255
G1X0.13S0
G1X0.75S255
G1X0.23S0
G1X0.23S255
G1X3.68S0
G1X0.13S255
G1X0.14S0
G1X0.71S255
G1X0.14S0
G1X0.13S255
G1Y0.1S0
G1X-0.13S255
G1X-0.13S0
G1X-0.73S255
G1X-0.13S0
G1X-0.13S255
G1X-3.53S0
G1X-0.24S255
G1X-0.23S0
G1X-0.89S255
G1X-0.13S0
G1X-0.13S255
G1X-1.33S0
G1X-0.14S255
G1X-0.13S0
G1X-0.69S255
G1X-0.14S0
G1X-0.16S255
G1X-2.6S0
G1X-0.16S255
G1X-0.16S0
G1X-0.67S255
G1X-0.14S0
G1X-0.14S255
G1X-1.35S0
G1X-0.14S255
G1X-0.14S0
G1X-0.71S255
G1X-0.14S0
G1X-0.14S255
G1X-2.14S0
G1X-0.14S255
G1X-0.14S0
G1X-0.75S255
G1X-0.14S0
G1X-0.15S255
G1X-1.22S0
G1X-0.13S255
G1X-0.13S0
G1X-4.81S255
G1X-0.13S0
G1X-0.13S255
G1X-10.2S0
G1X-0.13S255
G1X-0.14S0
G1X-0.8S255
G1X-0.13S0
G1X-0.14S255
G1X-1.35S0
G1X-0.14S255
G1X-0.13S0
G1X-0.69S255
G1X-0.13S0
G1X-0.14S255
G1X-1.24S0
G1X-0.15S255
G1X-0.15S0
G1X-0.76S255
G1X-0.15S0
G1X-0.15S255
G1X-1.09S0
G1X-0.13S255
G1X-0.13S0
G1X-0.7S255
G1X-0.13S0
G1X-0.13S255
G1X-6.48S0
G1X-0.13S255
G1X-0.13S0
G1X-0.81S255
G1X-0.13S0
G1X-0.13S255
G1X-6.29S0
G1X-0.13S255
G1X-0.14S0
G1X-0.7S255
G1X-0.14S0
G1X-0.13S255
G1X-4.64S0
G1X-0.13S255
G1X-0.13S0
G1X-0.71S255
G1X-0.14S0
G1X-0.14S255
G1X-0.97S0
G1X-0.14S255
G1X-0.13S0
G1X-0.68S255
G1X-0.15S0
G1X-0.16S255
G1X-2.59S0
G1X-0.17S255
G1X-0.15S0
G1X-0.68S255
G1X-0.14S0
G1X-0.14S255
G1X-2.23S0
G1X-0.25S255
G1X-0.42S0
G1X-3.86S255
G1X-0.13S0
G1X-0.13S255
G1Y0.1S0
G1X0.13S255
G1X0.13S0
G1X3.86S255
G1X0.13S0
G1X0.24S255
G1X2.57S0
G1X0.14S255
G1X0.15S0
G1X0.68S255
G1X0.15S0
G1X0.17S255
G1X2.5S0
G1X0.16S255
G1X0.14S0
G1X0.7S255
G1X0.14S0
G1X0.13S255
G1X1.02S0
G1X0.13S255
G1X0.14S0
G1X0.71S255
G1X0.14S0
G1X0.13S255
G1X2.88S0
G1X0.37S255
G1X1.37S0
G1X0.13S255
G1X0.14S0
G1X0.7S255
G1X0.14S0
G1X0.13S255
G1X6.3S0
G1X0.13S255
G1X0.13S0
G1X0.81S255
G1X0.13S0
G1X0.13S255
G1X6.47S0
G1X0.13S255
G1X0.13S0
G1X0.7S255
G1X0.13S0
G1X0.13S255
G1X1.04S0
G1X0.15S255
G1X0.15S0
G1X0.76S255
G1X0.15S0
G1X0.14S255
G1X1.3S0
G1X0.14S255
G1X0.13S0
G1X0.69S255
G1X0.13S0
G1X0.14S255
G1X1.36S0
G1X0.14S255
G1X0.13S0
G1X0.8S255
G1X0.14S0
G1X0.13S255
G1X10.19S0
G1X0.13S255
G1X0.13S0
G1X4.81S255
G1X0.13S0
G1X0.13S255
G1X1.18S0
G1X0.15S255
G1X0.14S0
G1X0.75S255
G1X0.14S0
G1X0.14S255
G1X2.22S0
G1X0.14S255
G1X0.14S0
G1X0.71S255
G1X0.14S0
G1X0.14S255
G1X1.35S0
G1X0.14S255
G1X0.15S0
G1X0.68S255
G1X0.15S0
G1X0.17S255
G1X2.5S0
G1X0.16S255
G1X0.14S0
G1X0.7S255
G1X0.13S0
G1X0.14S255
G1X1.36S0
G1X0.13S255
G1X0.13S0
G1X1.03S255
G1X0.23S0
G1X0.28S255
G1X3.35S0
G1X0.13S255
G1X0.13S0
G1X0.73S255
G1X0.13S0
G1X0.13S255
G1X0.01Y0.1S0
G1X-0.14S255
G1X-0.13S0
G1X-0.73S255
G1X-0.13S0
G1X-0.14S255
G1X-3.16S0
G1X-0.28S255
G1X-0.27S0
G1X-1.17S255
G1X-0.13S0
G1X-0.13S255
G1X-1.39S0
G1X-0.14S255
G1X-0.14S0
G1X-0.7S255
G1X-0.15S0
G1X-0.17S255
G1X-2.36S0
G1X-0.17S255
G1X-0.17S0
G1X-0.69S255
G1X-0.15S0
G1X-0.15S255
G1X-1.35S0
G1X-0.14S255
G1X-0.14S0
G1X-0.71S255
G1X-0.14S0
G1X-0.15S255
G1X-2.28S0
G1X-0.15S255
G1X-0.14S0
G1X-0.75S255
G1X-0.14S0
G1X-0.15S255
G1X-1.14S0
G1X-0.13S255
G1X-0.13S0
G1X-4.81S255
G1X-0.13S0
G1X-0.13S255
G1X-10.18S0
G1X-0.13S255
G1X-0.14S0
G1X-0.8S255
G1X-0.13S0
G1X-0.13S255
G1X-1.38S0
G1X-0.14S255
G1X-0.13S0
G1X-0.69S255
G1X-0.13S0
G1X-0.14S255
G1X-1.35S0
G1X-0.15S255
G1X-0.15S0
G1X-0.76S255
G1X-0.15S0
G1X-0.15S255
G1X-0.98S0
G1X-0.13S255
G1X-0.13S0
G1X-0.7S255
G1X-0.13S0
G1X-0.13S255
G1X-6.46S0
G1X-0.13S255
G1X-0.13S0
G1X-0.8S255
G1X-0.14S0
G1X-0.13S255
G1X-6.31S0
G1X-0.13S255
G1X-0.14S0
G1X-0.7S255
G1X-0.14S0
G1X-0.13S255
G1X-1.37S0
G1X-0.13S255
G1X-0.14S0
G1X-0.26S255
G1X-2.7S0
G1X-0.13S255
G1X-0.14S0
G1X-0.72S255
G1X-0.13S0
G1X-0.14S255
G1X-1.06S0
G1X-0.14S255
G1X-0.14S0
G1X-0.7S255
G1X-0.15S0
G1X-0.17S255
G1X-2.36S0
G1X-0.17S255
G1X-0.17S0
G1X-0.69S255
G1X-0.15S0
G1X-0.15S255
G1X-2.52S0
G1X-0.19S255
G1X-0.27S0
G1X-1.03S255
G1X-2.07S0
G1X-0.76S255
G1X-0.13S0
G1X-0.13S255
G1Y0.1S0
G1X0.13S255
G1X0.13S0
G1X0.76S255
G1X2.53S0
G1X0.75S255
G1X0.25S0
G1X0.18S255
G1X2.42S0
G1X0.15S255
G1X0.16S0
G1X0.71S255
G1X0.17S0
G1X0.18S255
G1X2.21S0
G1X0.16S255
G1X0.16S0
G1X0.72S255
G1X0.14S0
G1X0.14S255
G1X1.13S0
G1X0.13S255
G1X0.15S0
G1X0.72S255
G1X0.14S0
G1X0.15S255
G1X2.46S0
G1X0.28S255
G1X0.3S0
G1X0.13S255
G1X1.37S0
G1X0.13S255
G1X0.14S0
G1X0.7S255
G1X0.14S0
G1X0.13S255
G1X6.32S0
G1X0.13S255
G1X0.14S0
G1X0.8S255
G1X0.13S0
G1X0.14S255
G1X6.44S0
G1X0.13S255
G1X0.13S0
G1X0.7S255
G1X0.13S0
G1X0.13S255
G1X0.93S0
G1X0.15S255
G1X0.15S0
G1X0.76S255
G1X0.15S0
G1X0.15S255
G1X1.4S0
G1X0.14S255
G1X0.13S0
G1X0.69S255
G1X0.13S0
G1X0.14S255
G1X1.39S0
G1X0.13S255
G1X0.13S0
G1X0.8S255
G1X0.14S0
G1X0.13S255
G1X10.17S0
G1X0.13S255
G1X0.13S0
G1X0.76S255
G1X4.18S0
G1X0.13S255
G1X1.1S0
G1X0.15S255
G1X0.14S0
G1X0.75S255
G1X0.14S0
G1X0.15S255
G1X2.36S0
G1X0.14S255
G1X0.15S0
G1X0.71S255
G1X0.14S0
G1X0.14S255
G1X1.36S0
G1X0.15S255
G1X0.15S0
G1X0.72S255
G1X0.17S0
G1X0.18S255
G1X2.2S0
G1X0.17S255
G1X0.16S0
G1X0.72S255
G1X0.14S0
G1X0.14S255
G1X1.43S0
G1X0.13S255
G1X0.13S0
G1X1.35S255
G1X0.27S0
G1X0.36S255
G1X1.34S0
G1X0.28S255
G1X1.28S0
G1X0.13S255
G1X0.14S0
G1X0.73S255
G1X0.14S0
G1X0.13S255
G1Y0.1S0
G1X-0.13S255
G1X-0.13S0
G1X-0.75S255
G1X-0.13S0
G1X-0.13S255
G1X-1.28S0
G1X-1.74S255
G1X-0.33S0
G1X-0.75S255
G1X-0.07S0
G1X-0.71S255
G1X-0.13S0
G1X-0.13S255
G1X-1.47S0
G1X-0.14S255
G1X-0.15S0
G1X-0.74S255
G1X-0.17S0
G1X-0.19S255
G1X-1.97S0
G1X-0.21S255
G1X-0.19S0
G1X-0.73S255
G1X-0.16S0
G1X-0.15S255
G1X-1.38S0
G1X-0.14S255
G1X-0.14S0
G1X-0.72S255
G1X-0.14S0
G1X-0.14S255
G1X-2.44S0
G1X-0.14S255
G1X-0.15S0
G1X-0.75S255
G1X-0.14S0
G1X-0.15S255
G1X-1.06S0
G1X-4.18S255
G1X-0.13S0
G1X-0.76S255
G1X-0.13S0
G1X-0.13S255
G1X-10.15S0
G1X-0.13S255
G1X-0.14S0
G1X-0.8S255
G1X-0.14S0
G1X-0.13S255
G1X-1.4S0
G1X-0.14S255
G1X-0.13S0
G1X-0.69S255
G1X-0.13S0
G1X-0.14S255
G1X-1.45S0
G1X-0.15S255
G1X-0.15S0
G1X-0.76S255
G1X-0.15S0
G1X-0.15S255
G1X-0.88S0
G1X-0.13S255
G1X-0.13S0
G1X-0.7S255
G1X-0.13S0
G1X-0.13S255
G1X-6.42S0
G1X-0.14S255
G1X-0.13S0
G1X-0.81S255
G1X-0.13S0
G1X-0.14S255
G1X-6.33S0
G1X-0.13S255
G1X-0.14S0
G1X-0.7S255
G1X-0.14S0
G1X-0.13S255
G1X-1.37S0
G1X-0.13S255
G1X-0.14S0
G1X-0.11S255
G1X-0.23S0
G1X-0.34S255
G1X-2.12S0
G1X-0.18S255
G1X-0.17S0
G1X-0.73S255
G1X-0.15S0
G1X-0.14S255
G1X-1.19S0
G1X-0.14S255
G1X-0.15S0
G1X-0.74S255
G1X-0.16S0
G1X-0.2S255
G1X-1.97S0
G1X-0.21S255
G1X-0.18S0
G1X-0.74S255
G1X-0.16S0
G1X-0.15S255
G1X-2.35S0
G1X-0.18S255
G1X-0.22S0
G1X-0.71S255
G1X-0.33S0
G1X-2.27S255
G1X-0.13S0
G1X-0.76S255
G1X-0.13S0
G1X-0.13S255
G1Y0.1S0
G1X0.13S255
G1X0.13S0
G1X0.76S255
G1X0.13S0
G1X0.13S255
G1X2.01S0
G1X0.37S255
G1X0.25S0
G1X0.68S255
G1X0.2S0
G1X0.18S255
G1X2.3S0
G1X0.16S255
G1X0.16S0
G1X0.76S255
G1X0.21S0
G1X0.24S255
G1X1.7S0
G1X0.21S255
G1X0.2S0
G1X0.76S255
G1X0.15S0
G1X0.15S255
G1X1.27S0
G1X0.14S255
G1X0.15S0
G1X0.77S255
G1X0.19S0
G1X0.24S255
G1X1.7S0
G1X0.38S255
G1X0.28S0
G1X0.28S255
G1X0.14S0
G1X0.13S255
G1X1.37S0
G1X0.13S255
G1X0.14S0
G1X0.7S255
G1X0.14S0
G1X0.13S255
G1X6.35S0
G1X0.13S255
G1X0.14S0
G1X0.8S255
G1X0.14S0
G1X0.13S255
G1X6.41S0
G1X0.13S255
G1X0.13S0
G1X0.7S255
G1X0.13S0
G1X0.13S255
G1X0.83S0
G1X0.14S255
G1X0.15S0
G1X0.76S255
G1X0.15S0
G1X0.15S255
G1X1.51S0
G1X0.14S255
G1X0.13S0
G1X0.69S255
G1X0.13S0
G1X0.14S255
G1X1.41S0
G1X0.14S255
G1X0.13S0
G1X0.81S255
G1X0.14S0
G1X0.13S255
G1X10.13S0
G1X0.13S255
G1X0.13S0
G1X0.76S255
G1X0.13S0
G1X4.18S255
G1X1.02S0
G1X0.15S255
G1X0.14S0
G1X0.75S255
G1X0.15S0
G1X0.14S255
G1X2.52S0
G1X0.14S255
G1X0.14S0
G1X0.72S255
G1X0.14S0
G1X0.14S255
G1X1.4S0
G1X0.16S255
G1X0.16S0
G1X0.76S255
G1X0.21S0
G1X0.24S255
G1X1.69S0
G1X0.21S255
G1X0.2S0
G1X0.77S255
G1X0.15S0
G1X0.14S255
G1X1.52S0
G1X0.13S255
G1X0.13S0
G1X0.71S255
G1X0.19S0
G1X0.86S255
G1X0.52S0
G1X0.58S255
G1X0.61S0
G1X0.13S255
G1X1.28S0
G1X0.13S255
G1X0.13S0
G1X0.75S255
G1X0.13S0
G1X0.13S255
G1X0.01Y0.1S0
G1X-0.14S255
G1X-0.13S0
G1X-0.75S255
G1X-0.13S0
G1X-0.14S255
G1X-1.27S0
G1X-0.13S255
G1X-0.13S0
G1X-0.19S255
G1X-1.06S0
G1X-1.06S255
G1X-0.32S0
G1X-0.71S255
G1X-0.13S0
G1X-0.13S255
G1X-1.57S0
G1X-0.15S255
G1X-0.15S0
G1X-0.82S255
G1X-0.2S0
G1X-0.3S255
G1X-1.28S0
G1X-0.3S255
G1X-0.23S0
G1X-0.81S255
G1X-0.17S0
G1X-0.16S255
G1X-1.43S0
G1X-0.14S255
G1X-0.14S0
G1X-0.72S255
G1X-0.14S0
G1X-0.14S255
G1X-2.6S0
G1X-0.14S255
G1X-0.14S0
G1X-0.76S255
G1X-0.14S0
G1X-0.15S255
G1X-5.02S0
G1X-0.14S255
G1X-0.13S0
G1X-0.76S255
G1X-0.13S0
G1X-0.13S255
G1X-10.11S0
G1X-0.14S255
G1X-0.13S0
G1X-0.81S255
G1X-0.13S0
G1X-0.14S255
G1X-1.43S0
G1X-0.14S255
G1X-0.13S0
G1X-0.69S255
G1X-0.13S0
G1X-0.14S255
G1X-1.56S0
G1X-0.15S255
G1X-0.15S0
G1X-0.76S255
G1X-0.15S0
G1X-0.15S255
G1X-0.77S0
G1X-0.13S255
G1X-0.13S0
G1X-0.7S255
G1X-0.13S0
G1X-0.13S255
G1X-6.38S0
G1X-0.14S255
G1X-0.14S0
G1X-0.8S255
G1X-0.14S0
G1X-0.13S255
G1X-4.37S0
G1X-2.13S255
G1X-0.14S0
G1X-0.7S255
G1X-0.14S0
G1X-0.78S255
G1X-0.72S0
G1X-0.13S255
G1X-0.14S0
G1X-0.48S255
G1X-0.33S0
G1X-0.49S255
G1X-1.07S0
G1X-0.36S255
G1X-0.24S0
G1X-0.81S255
G1X-0.16S0
G1X-0.15S255
G1X-1.36S0
G1X-0.16S255
G1X-0.15S0
G1X-0.82S255
G1X-0.2S0
G1X-0.3S255
G1X-1.28S0
G1X-0.3S255
G1X-0.23S0
G1X-0.81S255
G1X-0.17S0
G1X-0.16S255
G1X-2.29S0
G1X-0.17S255
G1X-0.18S0
G1X-0.67S255
G1X-0.2S0
G1X-0.27S255
G1X-2.28S0
G1X-0.13S255
G1X-0.13S0
G1X-0.76S255
G1X-0.13S0
G1X-0.13S255
G1Y0.1S0
G1X0.13S255
G1X0.13S0
G1X0.76S255
G1X0.13S0
G1X0.13S255
G1X2.45S0
G1X0.21S255
G1X0.17S0
G1X0.68S255
G1X0.18S0
G1X0.16S255
G1X2.28S0
G1X0.17S255
G1X0.17S0
G1X0.87S255
G1X0.29S0
G1X0.71S255
G1X0.06S0
G1X0.71S255
G1X0.28S0
G1X0.87S255
G1X0.16S0
G1X0.16S255
G1X1.48S0
G1X0.15S255
G1X0.17S0
G1X0.88S255
G1X0.34S0
G1X1.34S255
G1X0.44S0
G1X0.71S255
G1X0.14S0
G1X0.13S255
G1X0.72S0
G1X0.13S255
G1X0.79S0
G1X0.7S255
G1X2.14S0
G1X0.13S255
G1X4.39S0
G1X0.13S255
G1X0.14S0
G1X0.81S255
G1X0.14S0
G1X0.13S255
G1X6.36S0
G1X0.13S255
G1X0.13S0
G1X0.7S255
G1X0.13S0
G1X0.13S255
G1X0.72S0
G1X0.15S255
G1X0.15S0
G1X0.76S255
G1X0.15S0
G1X0.15S255
G1X1.61S0
G1X0.14S255
G1X0.13S0
G1X0.69S255
G1X0.13S0
G1X0.14S255
G1X1.45S0
G1X0.14S255
G1X0.13S0
G1X0.82S255
G1X0.13S0
G1X0.14S255
G1X10.08S0
G1X0.13S255
G1X0.13S0
G1X0.76S255
G1X0.13S0
G1X0.14S255
G1X4.98S0
G1X0.15S255
G1X0.14S0
G1X0.76S255
G1X0.14S0
G1X0.14S255
G1X2.68S0
G1X0.14S255
G1X0.14S0
G1X0.72S255
G1X0.14S0
G1X0.15S255
G1X1.45S0
G1X0.17S255
G1X0.17S0
G1X0.86S255
G1X0.3S0
G1X0.71S255
G1X0.06S0
G1X0.71S255
G1X0.28S0
G1X0.87S255
G1X0.16S0
G1X0.15S255
G1X1.63S0
G1X0.13S255
G1X0.13S0
G1X0.71S255
G1X0.13S0
G1X0.1S255
G1X0.22S0
G1X2.18S255
G1X0.13S0
G1X0.13S255
G1X1.27S0
G1X0.13S255
G1X0.14S0
G1X0.75S255
G1X0.14S0
G1X0.13S255
G1Y0.1S0
G1X-0.13S255
G1X-0.13S0
G1X-0.77S255
G1X-0.13S0
G1X-0.13S255
G1X-1.27S0
G1X-0.13S255
G1X-0.13S0
G1X-2.04S255
G1X-0.23S0
G1X-0.23S255
G1X-0.13S0
G1X-0.71S255
G1X-0.13S0
G1X-0.13S255
G1X-1.69S0
G1X-0.16S255
G1X-0.17S0
G1X-0.98S255
G1X-0.43S0
G1X-0.79S255
G1X-0.44S0
G1X-0.97S255
G1X-0.19S0
G1X-0.17S255
G1X-1.49S0
G1X-0.15S255
G1X-0.14S0
G1X-0.72S255
G1X-0.14S0
G1X-0.14S255
G1X-2.76S0
G1X-0.14S255
G1X-0.14S0
G1X-0.76S255
G1X-0.15S0
G1X-0.14S255
G1X-4.94S0
G1X-0.14S255
G1X-0.13S0
G1X-0.76S255
G1X-0.13S0
G1X-0.13S255
G1X-10.05S0
G1X-0.14S255
G1X-0.14S0
G1X-0.82S255
G1X-0.13S0
G1X-0.13S255
G1X-1.48S0
G1X-0.14S255
G1X-0.13S0
G1X-0.69S255
G1X-0.13S0
G1X-0.14S255
G1X-1.67S0
G1X-0.15S255
G1X-0.14S0
G1X-0.76S255
G1X-0.15S0
G1X-0.15S255
G1X-0.67S0
G1X-0.13S255
G1X-0.13S0
G1X-0.7S255
G1X-0.13S0
G1X-0.13S255
G1X-6.33S0
G1X-0.14S255
G1X-0.13S0
G1X-0.82S255
G1X-0.14S0
G1X-0.13S255
G1X-4.41S0
G1X-0.13S255
G1X-0.13S0
G1X-3.37S255
G1X-0.13S0
G1X-0.13S255
G1X-0.72S0
G1X-0.13S255
G1X-0.14S0
G1X-1.01S255
G1X-1.61S0
G1X-1.01S255
G1X-0.18S0
G1X-0.16S255
G1X-1.61S0
G1X-0.16S255
G1X-0.17S0
G1X-0.98S255
G1X-0.43S0
G1X-0.79S255
G1X-0.44S0
G1X-0.97S255
G1X-0.19S0
G1X-0.17S255
G1X-2.3S0
G1X-0.16S255
G1X-0.15S0
G1X-0.7S255
G1X-0.16S0
G1X-0.17S255
G1X-2.57S0
G1X-0.13S255
G1X-0.13S0
G1X-0.76S255
G1X-0.13S0
G1X-0.13S255
G1Y0.1S0
G1X0.13S255
G1X0.13S0
G1X0.76S255
G1X0.13S0
G1X0.13S255
G1X2.64S0
G1X0.16S255
G1X0.15S0
G1X0.71S255
G1X0.15S0
G1X0.15S255
G1X2.34S0
G1X0.19S255
G1X0.19S0
G1X1.17S255
G1X1.06S0
G1X1.18S255
G1X0.18S0
G1X0.17S255
G1X1.75S0
G1X0.18S255
G1X0.19S0
G1X1.33S255
G1X0.7S0
G1X1.5S255
G1X0.14S0
G1X0.13S255
G1X0.72S0
G1X0.13S255
G1X0.13S0
G1X3.37S255
G1X0.13S0
G1X0.13S255
G1X4.43S0
G1X0.14S255
G1X0.14S0
G1X0.81S255
G1X0.14S0
G1X0.14S255
G1X6.3S0
G1X0.13S255
G1X0.13S0
G1X0.7S255
G1X0.13S0
G1X0.13S255
G1X0.61S0
G1X0.15S255
G1X0.15S0
G1X0.76S255
G1X0.15S0
G1X0.15S255
G1X1.72S0
G1X0.14S255
G1X0.13S0
G1X0.69S255
G1X0.13S0
G1X0.14S255
G1X1.5S0
G1X0.13S255
G1X0.14S0
G1X0.82S255
G1X0.14S0
G1X0.14S255
G1X10.02S0
G1X0.13S255
G1X0.13S0
G1X0.76S255
G1X0.13S0
G1X0.14S255
G1X4.9S0
G1X0.14S255
G1X0.15S0
G1X0.76S255
G1X0.14S0
G1X0.14S255
G1X2.83S0
G1X0.15S255
G1X0.14S0
G1X0.72S255
G1X0.14S0
G1X0.15S255
G1X1.54S0
G1X0.19S255
G1X0.18S0
G1X1.17S255
G1X1.06S0
G1X1.19S255
G1X0.17S0
G1X0.18S255
G1X1.76S0
G1X0.13S255
G1X0.13S0
G1X0.71S255
G1X0.13S0
G1X0.13S255
G1X0.05S0
G1X0.19S255
G1X0.24S0
G1X1.89S255
G1X0.13S0
G1X0.13S255
G1X1.27S0
G1X0.13S255
G1X0.13S0
G1X0.77S255
G1X0.13S0
G1X0.13S255
G1X0.01Y0.1S0
G1X-0.14S255
G1X-0.13S0
G1X-0.77S255
G1X-0.13S0
G1X-0.14S255
G1X-1.26S0
G1X-0.13S255
G1X-0.13S0
G1X-1.73S255
G1X-0.25S0
G1X-0.2S255
G1X-0.19S0
G1X-0.13S255
G1X-0.13S0
G1X-0.71S255
G1X-0.13S0
G1X-0.13S255
G1X-1.85S0
G1X-0.18S255
G1X-0.19S0
G1X-3.18S255
G1X-0.21S0
G1X-0.19S255
G1X-1.6S0
G1X-0.15S255
G1X-0.14S0
G1X-0.72S255
G1X-0.15S0
G1X-0.14S255
G1X-2.91S0
G1X-0.14S255
G1X-0.14S0
G1X-0.76S255
G1X-0.15S0
G1X-0.14S255
G1X-4.86S0
G1X-0.14S255
G1X-0.13S0
G1X-0.76S255
G1X-0.13S0
G1X-0.13S255
G1X-9.98S0
G1X-0.14S255
G1X-0.14S0
G1X-0.83S255
G1X-0.14S0
G1X-0.13S255
G1X-1.53S0
G1X-0.14S255
G1X-0.13S0
G1X-0.69S255
G1X-0.13S0
G1X-0.14S255
G1X-1.77S0
G1X-0.15S255
G1X-0.15S0
G1X-0.76S255
G1X-0.15S0
G1X-0.15S255
G1X-0.56S0
G1X-0.13S255
G1X-0.13S0
G1X-0.7S255
G1X-0.13S0
G1X-0.13S255
G1X-6.26S0
G1X-0.14S255
G1X-0.14S0
G1X-0.82S255
G1X-0.14S0
G1X-0.14S255
G1X-4.46S0
G1X-0.13S255
G1X-0.13S0
G1X-3.37S255
G1X-0.13S0
G1X-0.13S255
G1X-0.72S0
G1X-0.13S255
G1X-0.14S0
G1X-3.42S255
G1X-0.2S0
G1X-0.19S255
G1X-1.93S0
G1X-0.18S255
G1X-0.19S0
G1X-3.18S255
G1X-0.21S0
G1X-0.19S255
G1X-2.4S0
G1X-0.14S255
G1X-0.14S0
G1X-0.74S255
G1X-0.14S0
G1X-0.14S255
G1X-2.7S0
G1X-0.13S255
G1X-0.13S0
G1X-0.76S255
G1X-0.13S0
G1X-0.13S255
G1Y0.1S0
G1X0.13S255
G1X0.13S0
G1X0.76S255
G1X0.13S0
G1X0.13S255
G1X2.73S0
G1X0.14S255
G1X0.14S0
G1X0.75S255
G1X0.14S0
G1X0.14S255
G1X2.47S0
G1X0.21S255
G1X0.23S0
G1X2.91S255
G1X0.21S0
G1X0.19S255
G1X2.12S0
G1X0.2S255
G1X0.22S0
G1X3.27S255
G1X0.16S0
G1X0.13S255
G1X0.72S0
G1X0.13S255
G1X0.13S0
G1X3.37S255
G1X0.13S0
G1X0.13S255
G1X4.49S0
G1X0.14S255
G1X0.14S0
G1X0.83S255
G1X0.14S0
G1X0.14S255
G1X6.22S0
G1X0.13S255
G1X0.13S0
G1X0.7S255
G1X0.13S0
G1X0.13S255
G1X0.51S0
G1X0.15S255
G1X0.15S0
G1X0.76S255
G1X0.15S0
G1X0.14S255
G1X1.83S0
G1X0.14S255
G1X0.13S0
G1X0.69S255
G1X0.13S0
G1X0.14S255
G1X1.56S0
G1X0.14S255
G1X0.13S0
G1X0.83S255
G1X0.15S0
G1X0.14S255
G1X9.94S0
G1X0.13S255
G1X0.13S0
G1X0.76S255
G1X0.13S0
G1X0.14S255
G1X4.82S0
G1X0.14S255
G1X0.15S0
G1X0.76S255
G1X0.14S0
G1X0.15S255
G1X2.98S0
G1X0.14S255
G1X0.14S0
G1X0.73S255
G1X0.14S0
G1X0.15S255
G1X1.66S0
G1X0.22S255
G1X0.22S0
G1X2.92S255
G1X0.21S0
G1X0.19S255
G1X1.94S0
G1X0.13S255
G1X0.13S0
G1X0.71S255
G1X0.13S0
G1X0.13S255
G1X0.33S0
G1X0.22S255
G1X0.28S0
G1X1.54S255
G1X0.13S0
G1X0.13S255
G1X1.26S0
G1X0.13S255
G1X0.14S0
G1X0.77S255
G1X0.14S0
G1X0.13S255
G1Y0.1S0
G1X-0.13S255
G1X-0.13S0
G1X-0.79S255
G1X-0.13S0
G1X-0.13S255
G1X-1.26S0
G1X-0.13S255
G1X-0.13S0
G1X-1.32S255
G1X-0.32S0
G1X-0.25S255
G1X-0.48S0
G1X-0.13S255
G1X-0.13S0
G1X-0.71S255
G1X-0.13S0
G1X-0.13S255
G1X-2.05S0
G1X-0.21S255
G1X-0.24S0
G1X-2.59S255
G1X-0.25S0
G1X-0.23S255
G1X-1.75S0
G1X-0.15S255
G1X-0.14S0
G1X-0.73S255
G1X-0.14S0
G1X-0.14S255
G1X-3.06S0
G1X-0.15S255
G1X-0.14S0
G1X-0.76S255
G1X-0.15S0
G1X-0.14S255
G1X-4.78S0
G1X-0.14S255
G1X-0.13S0
G1X-0.76S255
G1X-0.13S0
G1X-0.13S255
G1X-9.9S0
G1X-0.14S255
G1X-0.15S0
G1X-0.84S255
G1X-0.13S0
G1X-0.14S255
G1X-1.59S0
G1X-0.14S255
G1X-0.13S0
G1X-0.69S255
G1X-0.13S0
G1X-0.14S255
G1X-1.88S0
G1X-0.15S255
G1X-0.15S0
G1X-0.76S255
G1X-0.15S0
G1X-0.15S255
G1X-0.45S0
G1X-0.13S255
G1X-0.13S0
G1X-0.7S255
G1X-0.13S0
G1X-0.13S255
G1X-6.17S0
G1X-0.15S255
G1X-0.14S0
G1X-0.84S255
G1X-0.14S0
G1X-0.14S255
G1X-4.52S0
G1X-0.13S255
G1X-0.13S0
G1X-3.37S255
G1X-0.13S0
G1X-0.13S255
G1X-0.72S0
G1X-0.18S255
G1X-0.36S0
G1X-2.84S255
G1X-0.27S0
G1X-0.22S255
G1X-2.34S0
G1X-0.21S255
G1X-0.24S0
G1X-2.59S255
G1X-0.25S0
G1X-0.23S255
G1X-2.56S0
G1X-0.14S255
G1X-0.13S0
G1X-0.76S255
G1X-0.14S0
G1X-0.14S255
G1X-2.76S0
G1X-0.13S255
G1X-0.13S0
G1X-0.76S255
G1X-0.13S0
G1X-0.13S255
G1Y0.1S0
G1X0.13S255
G1X0.13S0
G1X0.76S255
G1X0.13S0
G1X0.13S255
G1X2.78S0
G1X0.13S255
G1X0.13S0
G1X0.78S255
G1X0.13S0
G1X0.14S255
G1X2.68S0
G1X0.25S255
G1X0.3S0
G1X2.19S255
G1X0.28S0
G1X0.24S255
G1X2.6S0
G1X0.25S255
G1X0.34S0
G1X2.29S255
G1X0.43S0
G1X0.34S255
G1X0.8S0
G1X0.13S255
G1X0.13S0
G1X3.37S255
G1X0.13S0
G1X0.13S255
G1X4.55S0
G1X0.15S255
G1X0.14S0
G1X0.84S255
G1X0.15S0
G1X0.15S255
G1X6.12S0
G1X0.13S255
G1X0.13S0
G1X0.7S255
G1X0.13S0
G1X0.13S255
G1X0.4S0
G1X0.15S255
G1X0.15S0
G1X0.76S255
G1X0.15S0
G1X0.15S255
G1X1.93S0
G1X0.14S255
G1X0.13S0
G1X0.69S255
G1X0.13S0
G1X0.14S255
G1X1.62S0
G1X0.14S255
G1X0.14S0
G1X0.85S255
G1X0.15S0
G1X0.14S255
G1X9.85S0
G1X0.13S255
G1X0.13S0
G1X0.76S255
G1X0.13S0
G1X0.14S255
G1X4.74S0
G1X0.14S255
G1X0.15S0
G1X0.76S255
G1X0.15S0
G1X0.14S255
G1X3.14S0
G1X0.14S255
G1X0.14S0
G1X0.73S255
G1X0.15S0
G1X0.14S255
G1X1.85S0
G1X0.25S255
G1X0.3S0
G1X2.19S255
G1X0.28S0
G1X0.23S255
G1X2.18S0
G1X0.13S255
G1X0.13S0
G1X0.71S255
G1X0.13S0
G1X0.13S255
G1X0.66S0
G1X0.28S255
G1X0.45S0
G1X0.96S255
G1X0.15S0
G1X0.13S255
G1X1.25S0
G1X0.14S255
G1X0.13S0
G1X0.79S255
G1X0.13S0
G1X0.13S255
G1X0.01Y0.1S0
G1X-0.14S255
G1X-0.13S0
G1X-0.79S255
G1X-0.14S0
G1X-0.13S255
G1X-1.25S0
G1X-0.13S255
G1X-1.26S0
G1X-0.4S255
G1X-0.84S0
G1X-0.13S255
G1X-0.97S0
G1X-0.13S255
G1X-2.32S0
G1X-0.28S255
G1X-0.37S0
G1X-1.62S255
G1X-0.39S0
G1X-0.29S255
G1X-1.97S0
G1X-0.14S255
G1X-1.02S0
G1X-0.14S255
G1X-3.22S0
G1X-0.14S255
G1X-1.06S0
G1X-0.14S255
G1X-4.7S0
G1X-0.14S255
G1X-0.13S0
G1X-0.76S255
G1X-0.13S0
G1X-0.13S255
G1X-9.79S0
G1X-0.15S255
G1X-0.15S0
G1X-0.85S255
G1X-0.15S0
G1X-0.14S255
G1X-1.66S0
G1X-0.14S255
G1X-0.13S0
G1X-0.69S255
G1X-0.13S0
G1X-0.14S255
G1X-1.98S0
G1X-0.15S255
G1X-0.15S0
G1X-0.76S255
G1X-0.15S0
G1X-0.15S255
G1X-0.35S0
G1X-0.13S255
G1X-0.13S0
G1X-0.7S255
G1X-0.13S0
G1X-0.13S255
G1X-6.07S0
G1X-0.15S255
G1X-0.15S0
G1X-0.85S255
G1X-0.14S0
G1X-0.15S255
G1X-4.59S0
G1X-0.13S255
G1X-2.14S0
G1X-0.7S255
G1X-0.79S0
G1X-0.13S255
G1X-1.03S0
G1X-0.41S255
G1X-0.56S0
G1X-1.54S255
G1X-0.44S0
G1X-0.31S255
G1X-2.91S0
G1X-0.28S255
G1X-0.37S0
G1X-1.62S255
G1X-0.38S0
G1X-0.3S255
G1X-2.82S0
G1X-0.13S255
G1X-0.14S0
G1X-0.79S255
G1X-0.13S0
G1X-0.13S255
G1X-2.79S0
G1X-0.13S255
G1X-0.13S0
G1X-0.76S255
G1X-0.13S0
G1X-0.13S255
G1Y0.1S0
G1X0.13S255
G1X0.13S0
G1X0.76S255
G1X0.13S0
G1X0.13S255
G1X2.79S0
G1X0.14S255
G1X0.13S0
G1X0.79S255
G1X0.13S0
G1X0.14S255
G1X3.01S0
G1X0.36S255
G1X0.86S0
G1X0.16S255
G1X0.84S0
G1X0.35S255
G1X3.3S0
G1X0.41S255
G1X1.86S0
G1X0.51S255
G1X1.3S0
G1X0.78S255
G1X0.14S0
G1X0.7S255
G1X0.14S0
G1X2.13S255
G1X4.64S0
G1X0.14S255
G1X0.14S0
G1X0.86S255
G1X0.16S0
G1X0.15S255
G1X6.01S0
G1X0.13S255
G1X0.13S0
G1X0.7S255
G1X0.13S0
G1X0.13S255
G1X0.3S0
G1X0.14S255
G1X0.15S0
G1X0.76S255
G1X0.15S0
G1X0.15S255
G1X2.04S0
G1X0.14S255
G1X0.13S0
G1X0.69S255
G1X0.13S0
G1X0.14S255
G1X1.7S0
G1X0.15S255
G1X0.14S0
G1X0.86S255
G1X0.15S0
G1X0.16S255
G1X9.73S0
G1X0.13S255
G1X0.13S0
G1X0.76S255
G1X0.13S0
G1X0.14S255
G1X4.66S0
G1X1.34S255
G1X3.3S0
G1X1.3S255
G1X2.13S0
G1X0.36S255
G1X0.86S0
G1X0.16S255
G1X0.84S0
G1X0.35S255
G1X2.5S0
G1X1.23S255
G1X1.11S0
G1X1.52S255
G1X1.25S0
G1X0.13S255
G1X0.14S0
G1X0.79S255
G1X0.13S0
G1X0.14S255
G1Y0.1S0
G1X-0.13S255
G1X-0.13S0
G1X-0.81S255
G1X-0.13S0
G1X-0.13S255
G1X-1.82S0
G1X-0.39S255
G1X-1.67S0
G1X-1.23S255
G1X-2.74S0
G1X-0.55S255
G1X-0.96S0
G1X-0.57S255
G1X-2.34S0
G1X-1.31S255
G1X-3.37S0
G1X-1.34S255
G1X-4.62S0
G1X-0.14S255
G1X-0.13S0
G1X-0.76S255
G1X-0.13S0
G1X-0.13S255
G1X-4.91S0
G1X-0.36S255
G1X-4.39S0
G1X-0.16S255
G1X-0.16S0
G1X-0.87S255
G1X-0.15S0
G1X-0.15S255
G1X-1.74S0
G1X-0.14S255
G1X-0.13S0
G1X-0.69S255
G1X-0.13S0
G1X-0.14S255
G1X-2.09S0
G1X-0.15S255
G1X-0.15S0
G1X-0.76S255
G1X-0.15S0
G1X-0.15S255
G1X-0.24S0
G1X-0.13S255
G1X-0.13S0
G1X-0.7S255
G1X-0.13S0
G1X-0.13S255
G1X-1.18S0
G1X-0.37S255
G1X-4.39S0
G1X-0.16S255
G1X-0.16S0
G1X-0.87S255
G1X-0.15S0
G1X-0.14S255
G1X-4.68S0
G1X-2.13S255
G1X-0.14S0
G1X-0.7S255
G1X-0.14S0
G1X-0.78S255
G1X-1.65S0
G1X-0.89S255
G1X-0.57S0
G1X-0.7S255
G1X-3.81S0
G1X-0.55S255
G1X-0.96S0
G1X-0.57S255
G1X-3.26S0
G1X-0.13S255
G1X-0.13S0
G1X-0.8S255
G1X-0.14S0
G1X-0.13S255
G1X-2.79S0
G1X-0.13S255
G1X-0.13S0
G1X-0.76S255
G1X-0.13S0
G1X-0.13S255
G1Y0.1S0
G1X0.13S255
G1X0.13S0
G1X0.76S255
G1X0.13S0
G1X0.13S255
G1X2.78S0
G1X0.14S255
G1X0.13S0
G1X0.81S255
G1X0.13S0
G1X0.14S255
G1X3.62S0
G1X1.35S255
G1X4.6S0
G1X1.21S255
G1X2.82S0
G1X0.13S255
G1X0.14S0
G1X0.7S255
G1X0.14S0
G1X0.13S255
G1X6.72S0
G1X0.15S255
G1X0.15S0
G1X0.89S255
G1X0.16S0
G1X0.17S255
G1X4.18S0
G1X0.22S255
G1X0.15S0
G1X0.13S255
G1X1.18S0
G1X0.13S255
G1X0.13S0
G1X0.7S255
G1X0.13S0
G1X0.13S255
G1X0.19S0
G1X0.15S255
G1X0.15S0
G1X0.76S255
G1X0.15S0
G1X0.15S255
G1X2.14S0
G1X0.14S255
G1X0.13S0
G1X0.69S255
G1X0.13S0
G1X0.14S255
G1X1.79S0
G1X0.15S255
G1X0.15S0
G1X0.88S255
G1X0.17S0
G1X0.17S255
G1X4.18S0
G1X0.22S255
G1X0.14S0
G1X0.13S255
G1X4.91S0
G1X0.13S255
G1X0.13S0
G1X0.76S255
G1X0.13S0
G1X0.14S255
G1X13.35S0
G1X1.35S255
G1X8.2S0
G1X0.14S255
G1X0.13S0
G1X0.81S255
G1X0.13S0
G1X0.13S255
G1Y0.1S0
G1X-0.13S255
G1X-0.13S0
G1X-0.81S255
G1X-0.14S0
G1X-0.13S255
G1X-22.9S0
G1X-0.14S255
G1X-0.13S0
G1X-0.76S255
G1X-0.13S0
G1X-0.13S255
G1X-4.91S0
G1X-0.13S255
G1X-0.27S0
G1X-0.22S255
G1X-3.97S0
G1X-0.17S255
G1X-0.17S0
G1X-0.91S255
G1X-0.15S0
G1X-0.15S255
G1X-1.84S0
G1X-0.14S255
G1X-0.13S0
G1X-0.69S255
G1X-0.13S0
G1X-0.14S255
G1X-2.2S0
G1X-0.15S255
G1X-0.14S0
G1X-0.76S255
G1X-0.15S0
G1X-0.15S255
G1X-0.14S0
G1X-0.13S255
G1X-0.13S0
G1X-0.7S255
G1X-0.13S0
G1X-0.13S255
G1X-1.18S0
G1X-0.13S255
G1X-0.28S0
G1X-0.22S255
G1X-3.97S0
G1X-0.17S255
G1X-0.17S0
G1X-0.9S255
G1X-0.15S0
G1X-0.15S255
G1X-6.78S0
G1X-0.13S255
G1X-0.14S0
G1X-0.7S255
G1X-0.14S0
G1X-0.13S255
G1X-13.61S0
G1X-0.13S255
G1X-0.13S0
G1X-0.82S255
G1X-0.13S0
G1X-0.14S255
G1X-2.77S0
G1X-0.13S255
G1X-0.13S0
G1X-0.76S255
G1X-0.13S0
G1X-0.13S255
G1Y0.1S0
G1X0.13S255
G1X0.13S0
G1X0.76S255
G1X0.13S0
G1X0.13S255
G1X2.74S0
G1X0.13S255
G1X0.14S0
G1X0.84S255
G1X0.13S0
G1X0.14S255
G1X13.61S0
G1X0.13S255
G1X0.14S0
G1X0.7S255
G1X0.14S0
G1X0.13S255
G1X6.83S0
G1X0.15S255
G1X0.16S0
G1X0.92S255
G1X0.17S0
G1X0.19S255
G1X3.72S0
G1X0.24S255
G1X0.19S0
G1X0.08S255
G1X0.14S0
G1X0.13S255
G1X1.18S0
G1X0.13S255
G1X0.13S0
G1X0.7S255
G1X0.13S0
G1X0.13S255
G1X0.08S0
G1X0.15S255
G1X0.15S0
G1X0.76S255
G1X0.15S0
G1X0.15S255
G1X2.25S0
G1X0.14S255
G1X0.13S0
G1X0.69S255
G1X0.13S0
G1X0.14S255
G1X1.9S0
G1X0.15S255
G1X0.15S0
G1X0.93S255
G1X0.17S0
G1X0.19S255
G1X3.72S0
G1X0.24S255
G1X0.18S0
G1X0.09S255
G1X0.13S0
G1X0.13S255
G1X4.91S0
G1X0.13S255
G1X0.13S0
G1X0.76S255
G1X0.13S0
G1X0.14S255
G1X22.9S0
G1X0.13S255
G1X0.14S0
G1X0.81S255
G1X0.13S0
G1X0.14S255
G1Y0.1S0
G1X-0.13S255
G1X-0.14S0
G1X-0.82S255
G1X-0.13S0
G1X-0.13S255
G1X-22.9S0
G1X-0.14S255
G1X-0.13S0
G1X-0.76S255
G1X-0.13S0
G1X-0.13S255
G1X-4.91S0
G1X-0.13S255
G1X-0.13S0
G1X-0.22S255
G1X-0.2S0
G1X-0.24S255
G1X-3.46S0
G1X-0.2S255
G1X-0.19S0
G1X-0.94S255
G1X-0.16S0
G1X-0.16S255
G1X-1.95S0
G1X-0.14S255
G1X-0.13S0
G1X-0.69S255
G1X-0.13S0
G1X-0.14S255
G1X-2.3S0
G1X-0.15S255
G1X-0.15S0
G1X-0.76S255
G1X-0.15S0
G1X-0.15S255
G1X-0.03S0
G1X-0.13S255
G1X-0.13S0
G1X-0.7S255
G1X-0.13S0
G1X-0.13S255
G1X-1.18S0
G1X-0.13S255
G1X-0.14S0
G1X-0.22S255
G1X-0.2S0
G1X-0.24S255
G1X-3.46S0
G1X-0.19S255
G1X-0.19S0
G1X-0.94S255
G1X-0.16S0
G1X-0.16S255
G1X-6.89S0
G1X-0.13S255
G1X-0.14S0
G1X-0.7S255
G1X-0.14S0
G1X-0.13S255
G1X-13.63S0
G1X-0.13S255
G1X-0.14S0
G1X-0.85S255
G1X-0.14S0
G1X-0.16S255
G1X-2.68S0
G1X-0.13S255
G1X-0.13S0
G1X-0.76S255
G1X-0.13S0
G1X-0.13S255
G1Y0.1S0
G1X0.13S255
G1X0.13S0
G1X0.76S255
G1X0.13S0
G1X0.13S255
G1X2.61S0
G1X0.16S255
G1X0.17S0
G1X0.88S255
G1X0.13S0
G1X0.14S255
G1X13.64S0
G1X0.13S255
G1X0.14S0
G1X0.7S255
G1X0.14S0
G1X0.13S255
G1X6.95S0
G1X0.17S255
G1X0.16S0
G1X0.97S255
G1X0.19S0
G1X0.22S255
G1X3.15S0
G1X0.27S255
G1X0.21S0
G1X0.36S255
G1X0.14S0
G1X0.13S255
G1X1.18S0
G1X0.13S255
G1X0.13S0
G1X0.7S255
G1X0.13S0
G1X0.26S255
G1X0.15S0
G1X0.76S255
G1X0.15S0
G1X0.15S255
G1X2.35S0
G1X0.14S255
G1X0.13S0
G1X0.69S255
G1X0.13S0
G1X0.14S255
G1X2.02S0
G1X0.16S255
G1X0.16S0
G1X0.98S255
G1X0.19S0
G1X0.22S255
G1X3.15S0
G1X0.27S255
G1X0.21S0
G1X0.36S255
G1X0.13S0
G1X0.13S255
G1X4.91S0
G1X0.13S255
G1X0.13S0
G1X0.76S255
G1X0.13S0
G1X0.14S255
G1X22.89S0
G1X0.14S255
G1X0.13S0
G1X0.83S255
G1X0.13S0
G1X0.13S255
G1Y0.1S0
G1X-0.13S255
G1X-0.13S0
G1X-0.83S255
G1X-0.14S0
G1X-0.13S255
G1X-22.89S0
G1X-0.14S255
G1X-0.13S0
G1X-0.76S255
G1X-0.13S0
G1X-0.13S255
G1X-4.91S0
G1X-0.13S255
G1X-0.13S0
G1X-0.51S255
G1X-0.24S0
G1X-0.28S255
G1X-2.81S0
G1X-0.24S255
G1X-0.22S0
G1X-1S255
G1X-0.17S0
G1X-0.16S255
G1X-2.09S0
G1X-0.14S255
G1X-0.13S0
G1X-0.69S255
G1X-0.13S0
G1X-0.14S255
G1X-2.41S0
G1X-0.15S255
G1X-0.15S0
G1X-0.76S255
G1X-0.15S0
G1X-0.2S255
G1X-0.13S0
G1X-0.7S255
G1X-0.13S0
G1X-0.13S255
G1X-1.18S0
G1X-0.13S255
G1X-0.14S0
G1X-0.51S255
G1X-0.23S0
G1X-0.29S255
G1X-2.81S0
G1X-0.24S255
G1X-0.21S0
G1X-1.01S255
G1X-0.17S0
G1X-0.16S255
G1X-7.02S0
G1X-0.13S255
G1X-0.14S0
G1X-0.7S255
G1X-0.14S0
G1X-0.13S255
G1X-13.67S0
G1X-0.14S255
G1X-0.13S0
G1X-0.92S255
G1X-0.18S0
G1X-0.22S255
G1X-2.47S0
G1X-0.13S255
G1X-0.13S0
G1X-0.76S255
G1X-0.13S0
G1X-0.13S255
G1Y0.1S0
G1X0.13S255
G1X0.13S0
G1X0.76S255
G1X0.13S0
G1X0.13S255
G1X2.24S0
G1X0.32S255
G1X0.22S0
G1X0.97S255
G1X0.14S0
G1X0.14S255
G1X13.7S0
G1X0.13S255
G1X0.14S0
G1X0.7S255
G1X0.14S0
G1X0.13S255
G1X7.09S0
G1X0.17S255
G1X0.18S0
G1X1.05S255
G1X0.23S0
G1X0.28S255
G1X2.39S0
G1X0.33S255
G1X0.26S0
G1X0.67S255
G1X0.14S0
G1X0.13S255
G1X1.18S0
G1X0.13S255
G1X0.13S0
G1X0.7S255
G1X0.13S0
G1X0.15S255
G1X0.15S0
G1X0.76S255
G1X0.15S0
G1X0.15S255
G1X2.46S0
G1X0.14S255
G1X0.13S0
G1X0.69S255
G1X0.13S0
G1X0.14S255
G1X2.16S0
G1X0.17S255
G1X0.18S0
G1X1.04S255
G1X0.24S0
G1X0.28S255
G1X2.39S0
G1X0.33S255
G1X0.26S0
G1X0.67S255
G1X0.13S0
G1X0.13S255
G1X4.91S0
G1X0.13S255
G1X0.13S0
G1X0.76S255
G1X0.13S0
G1X0.14S255
G1X22.89S0
G1X0.13S255
G1X0.13S0
G1X0.84S255
G1X0.13S0
G1X0.14S255
G1Y0.1S0
G1X-0.13S255
G1X-0.14S0
G1X-0.84S255
G1X-0.13S0
G1X-0.13S255
G1X-18.85S0
G1X-4.18S255
G1X-0.13S0
G1X-0.76S255
G1X-0.13S0
G1X-0.13S255
G1X-4.91S0
G1X-0.13S255
G1X-0.13S0
G1X-0.85S255
G1X-0.31S0
G1X-0.4S255
G1X-1.85S0
G1X-0.34S255
G1X-0.27S0
G1X-1.1S255
G1X-0.18S0
G1X-0.18S255
G1X-2.24S0
G1X-0.14S255
G1X-0.13S0
G1X-0.69S255
G1X-0.13S0
G1X-0.14S255
G1X-2.51S0
G1X-0.15S255
G1X-0.15S0
G1X-0.76S255
G1X-0.15S0
G1X-0.1S255
G1X-0.13S0
G1X-0.7S255
G1X-0.13S0
G1X-0.13S255
G1X-1.18S0
G1X-0.13S255
G1X-0.14S0
G1X-0.84S255
G1X-0.32S0
G1X-0.4S255
G1X-1.84S0
G1X-0.35S255
G1X-0.27S0
G1X-1.1S255
G1X-0.18S0
G1X-0.17S255
G1X-7.18S0
G1X-0.13S255
G1X-0.14S0
G1X-0.7S255
G1X-0.14S0
G1X-0.13S255
G1X-13.73S0
G1X-0.15S255
G1X-0.14S0
G1X-1.06S255
G1X-0.31S0
G1X-2.47S255
G1X-0.13S0
G1X-0.76S255
G1X-0.13S0
G1X-0.13S255
G1Y0.1S0
G1X0.13S255
G1X0.13S0
G1X0.76S255
G1X0.13S0
G1X1.91S255
G1X0.66S0
G1X1.21S255
G1X0.16S0
G1X0.14S255
G1X13.78S0
G1X0.13S255
G1X0.14S0
G1X0.7S255
G1X0.14S0
G1X0.13S255
G1X7.26S0
G1X0.18S255
G1X0.19S0
G1X1.17S255
G1X0.33S0
G1X0.55S255
G1X0.9S0
G1X0.63S255
G1X0.38S0
G1X1.06S255
G1X0.14S0
G1X0.13S255
G1X1.18S0
G1X0.13S255
G1X0.13S0
G1X0.7S255
G1X0.13S0
G1X0.04S255
G1X0.15S0
G1X0.76S255
G1X0.15S0
G1X0.15S255
G1X2.57S0
G1X0.14S255
G1X0.13S0
G1X0.69S255
G1X0.13S0
G1X0.14S255
G1X2.33S0
G1X0.18S255
G1X0.19S0
G1X1.17S255
G1X0.33S0
G1X0.54S255
G1X0.91S0
G1X0.63S255
G1X0.38S0
G1X1.06S255
G1X0.13S0
G1X0.13S255
G1X4.91S0
G1X0.13S255
G1X0.13S0
G1X0.76S255
G1X4.18S0
G1X0.13S255
G1X18.84S0
G1X0.14S255
G1X0.13S0
G1X0.85S255
G1X0.13S0
G1X0.13S255
G1Y0.1S0
G1X-0.13S255
G1X-0.13S0
G1X-0.85S255
G1X-0.14S0
G1X-0.13S255
G1X-18.84S0
G1X-0.13S255
G1X-4.18S0
G1X-0.76S255
G1X-0.13S0
G1X-0.13S255
G1X-4.91S0
G1X-0.13S255
G1X-0.13S0
G1X-1.33S255
G1X-0.51S0
G1X-1.33S255
G1X-0.46S0
G1X-1.28S255
G1X-0.2S0
G1X-0.19S255
G1X-2.42S0
G1X-0.14S255
G1X-0.13S0
G1X-0.69S255
G1X-0.13S0
G1X-0.14S255
G1X-2.62S0
G1X-0.15S255
G1X-0.15S0
G1X-0.76S255
G1X-0.22S0
G1X-0.75S255
G1X-0.13S0
G1X-0.13S255
G1X-1.18S0
G1X-0.13S255
G1X-0.14S0
G1X-1.32S255
G1X-0.52S0
G1X-1.33S255
G1X-0.46S0
G1X-1.28S255
G1X-0.19S0
G1X-0.2S255
G1X-7.35S0
G1X-0.13S255
G1X-0.14S0
G1X-0.7S255
G1X-0.14S0
G1X-0.13S255
G1X-13.83S0
G1X-0.16S255
G1X-0.16S0
G1X-1.51S255
G1X-2.33S0
G1X-0.76S255
G1X-0.13S0
G1X-0.13S255
G1Y0.1S0
G1X0.13S255
G1X0.13S0
G1X4.51S255
G1X0.18S0
G1X0.16S255
G1X13.9S0
G1X0.13S255
G1X0.14S0
G1X0.7S255
G1X0.14S0
G1X0.13S255
G1X7.46S0
G1X0.2S255
G1X0.21S0
G1X1.46S255
G1X1.64S0
G1X1.68S255
G1X0.14S0
G1X0.13S255
G1X1.18S0
G1X0.13S255
G1X0.13S0
G1X1.68S255
G1X0.15S0
G1X0.15S255
G1X2.67S0
G1X0.14S255
G1X0.13S0
G1X0.69S255
G1X0.13S0
G1X0.14S255
G1X2.53S0
G1X0.19S255
G1X0.21S0
G1X1.47S255
G1X1.63S0
G1X1.69S255
G1X0.13S0
G1X0.13S255
G1X4.91S0
G1X0.13S255
G1X0.13S0
G1X4.81S255
G1X0.13S0
G1X0.13S255
G1X18.84S0
G1X0.13S255
G1X0.13S0
G1X0.86S255
G1X0.13S0
G1X0.14S255
G1Y0.1S0
G1X-0.13S255
G1X-0.14S0
G1X-0.86S255
G1X-0.13S0
G1X-0.13S255
G1X-18.84S0
G1X-0.13S255
G1X-0.13S0
G1X-4.81S255
G1X-0.13S0
G1X-0.13S255
G1X-4.91S0
G1X-0.13S255
G1X-0.2S0
G1X-4.58S255
G1X-0.22S0
G1X-0.21S255
G1X-2.64S0
G1X-0.14S255
G1X-0.13S0
G1X-0.69S255
G1X-0.13S0
G1X-0.14S255
G1X-2.73S0
G1X-0.14S255
G1X-0.15S0
G1X-1.63S255
G1X-0.13S0
G1X-0.13S255
G1X-1.18S0
G1X-0.13S255
G1X-0.2S0
G1X-4.58S255
G1X-0.23S0
G1X-0.21S255
G1X-7.57S0
G1X-0.13S255
G1X-0.14S0
G1X-0.7S255
G1X-0.14S0
G1X-0.13S255
G1X-13.97S0
G1X-0.18S255
G1X-0.21S0
G1X-4.39S255
G1X-0.13S0
G1X-0.13S255
G1Y0.1S0
G1X0.13S255
G1X0.13S0
G1X4.25S255
G1X0.23S0
G1X0.2S255
G1X14.07S0
G1X0.13S255
G1X0.14S0
G1X0.7S255
G1X0.14S0
G1X0.13S255
G1X7.7S0
G1X0.22S255
G1X0.25S0
G1X4.2S255
G1X0.33S0
G1X0.22S255
G1X1.18S0
G1X0.13S255
G1X0.13S0
G1X1.57S255
G1X0.15S0
G1X0.15S255
G1X2.78S0
G1X0.14S255
G1X0.13S0
G1X0.69S255
G1X0.13S0
G1X0.14S255
G1X2.76S0
G1X0.23S255
G1X0.24S0
G1X4.21S255
G1X0.33S0
G1X0.21S255
G1X4.91S0
G1X0.13S255
G1X0.13S0
G1X4.81S255
G1X0.13S0
G1X0.13S255
G1X18.83S0
G1X0.14S255
G1X0.13S0
G1X0.87S255
G1X0.13S0
G1X0.13S255
G1Y0.1S0
G1X-0.13S255
G1X-0.13S0
G1X-0.87S255
G1X-0.14S0
G1X-0.13S255
G1X-18.83S0
G1X-0.13S255
G1X-0.13S0
G1X-4.81S255
G1X-0.13S0
G1X-0.13S255
G1X-5.03S0
G1X-0.3S255
G1X-0.35S0
G1X-3.8S255
G1X-0.27S0
G1X-0.24S255
G1X-2.9S0
G1X-0.14S255
G1X-0.13S0
G1X-0.69S255
G1X-0.13S0
G1X-0.14S255
G1X-2.83S0
G1X-0.15S255
G1X-0.15S0
G1X-1.52S255
G1X-0.13S0
G1X-0.13S255
G1X-1.3S0
G1X-0.31S255
G1X-0.35S0
G1X-3.8S255
G1X-0.27S0
G1X-0.24S255
G1X-7.83S0
G1X-0.13S255
G1X-0.14S0
G1X-0.7S255
G1X-0.14S0
G1X-0.13S255
G1X-14.18S0
G1X-0.23S255
G1X-0.29S0
G1X-4.05S255
G1X-0.13S0
G1X-0.13S255
G1Y0.1S0
G1X0.13S255
G1X0.13S0
G1X3.81S255
G1X0.34S0
G1X0.28S255
G1X14.32S0
G1X0.13S255
G1X0.98S0
G1X0.13S255
G1X7.98S0
G1X0.27S255
G1X0.31S0
G1X3.33S255
G1X0.37S0
G1X0.33S255
G1X1.51S0
G1X0.13S255
G1X0.13S0
G1X1.47S255
G1X0.15S0
G1X0.15S255
G1X2.88S0
G1X0.14S255
G1X0.13S0
G1X0.69S255
G1X0.13S0
G1X0.14S255
G1X3.05S0
G1X0.27S255
G1X0.31S0
G1X3.32S255
G1X0.38S0
G1X0.32S255
G1X5.24S0
G1X0.13S255
G1X0.13S0
G1X4.81S255
G1X0.13S0
G1X0.13S255
G1X18.83S0
G1X0.13S255
G1X0.13S0
G1X0.88S255
G1X0.13S0
G1X0.14S255
G1Y0.1S0
G1X-0.13S255
G1X-0.14S0
G1X-0.88S255
G1X-0.13S0
G1X-0.13S255
G1X-18.83S0
G1X-0.13S255
G1X-0.13S0
G1X-4.81S255
G1X-0.13S0
G1X-0.13S255
G1X-5.46S0
G1X-0.35S255
G1X-0.43S0
G1X-2.75S255
G1X-0.37S0
G1X-0.31S255
G1X-3.22S0
G1X-0.14S255
G1X-0.13S0
G1X-0.69S255
G1X-0.13S0
G1X-0.14S255
G1X-2.94S0
G1X-0.15S255
G1X-0.15S0
G1X-1.41S255
G1X-0.13S0
G1X-0.13S255
G1X-1.74S0
G1X-0.35S255
G1X-0.42S0
G1X-2.76S255
G1X-0.37S0
G1X-0.3S255
G1X-8.16S0
G1X-1.24S255
G1X-14.49S0
G1X-0.35S255
G1X-0.5S0
G1X-3.41S255
G1X-0.13S0
G1X-0.13S255
G1Y0.1S0
G1X0.13S255
G1X3.69S0
G1X0.45S255
G1X24.34S0
G1X0.35S255
G1X0.49S0
G1X1.96S255
G1X0.56S0
G1X0.4S255
G1X1.98S0
G1X0.13S255
G1X1.64S0
G1X0.15S255
G1X2.99S0
G1X0.14S255
G1X0.95S0
G1X0.14S255
G1X3.43S0
G1X0.35S255
G1X0.49S0
G1X1.95S255
G1X0.57S0
G1X0.4S255
G1X5.7S0
G1X0.13S255
G1X5.07S0
G1X0.13S255
G1X18.82S0
G1X0.14S255
G1X1.15S0
G1X0.13S255
G1Y0.1S0
G1X-1.42S255
G1X-18.82S0
G1X-5.33S255
G1X-5.98S0
G1X-0.5S255
G1X-1.08S0
G1X-0.22S255
G1X-1S0
G1X-0.45S255
G1X-3.66S0
G1X-1.23S255
G1X-3.04S0
G1X-1.87S255
G1X-2.26S0
G1X-0.5S255
G1X-1.07S0
G1X-0.23S255
G1X-1S0
G1X-0.45S255
G1X-24.87S0
G1X-3.97S255
G1Y0.1S0
G1X3.36S255
G1X25.79S0
G1X0.7S255
G1X1.19S0
G1X0.71S255
G1X2.6S0
G1X1.81S255
G1X3.1S0
G1X1.23S255
G1X3.97S0
G1X0.69S255
G1X1.2S0
G1X0.71S255
G1X6.32S0
G1X5.33S255
G1X18.82S0
G1X1.43S255
G1X-32.39Y0.1S0
G1X-1.68S255
G1X-13.63S0
G1X-1.67S255
; Image @ 25.4 mm/sec, 75% power
M8
G0X8.04Y-61.4
; Layer C00
G1X0.1S191.3
G1X0.2Y0.1S0
G1X-0.2S191.3
G1X-0.1S0
G1X-0.1S191.3
G1X-0.1S0
G1X-0.2S191.3
G1X-0.2Y0.1S0
G1X0.1S191.3
G1X0.1S0
G1X0.4S191.3
G1X0.2S0
G1X0.2S191.3
G1X0.3Y0.1S0
G1X-0.2S191.3
G1X-0.2S0
G1X-0.1S191.3
G1X-0.2S0
G1X-0.2S191.3
G1X-0.2S0
G1X-0.1S191.3
G1X-0.1S0
G1X-0.1S191.3
G1X-0.2Y0.1S0
G1X0.2S191.3
G1X0.1S0
G1X0.3S191.3
G1X0.1S0
G1X0.1S191.3
G1X0.1S0
G1X0.2S191.3
G1X0.1S0
G1X0.1S191.3
G1X0.2S0
G1X0.3S191.3
G1X0.2Y0.1S0
G1X-0.1S191.3
G1X-0.1S0
G1X-0.1S191.3
G1X-0.3S0
G1X-0.3S191.3
G1X-0.2S0
G1X-0.1S191.3
G1X-0.1S0
G1X-0.3S191.3
G1X-0.1S0
G1X-0.2S191.3
G1X-0.1S0
G1X-0.1S191.3
G1X-0.2Y0.1S0
G1X0.1S191.3
G1X0.1S0
G1X0.1S191.3
G1X0.1S0
G1X0.2S191.3
G1X0.2S0
G1X0.1S191.3
G1X0.1S0
G1X0.2S191.3
G1X0.1S0
G1X0.1S191.3
G1X0.2S0
G1X0.2S191.3
G1X0.1S0
G1X0.1S191.3
G1X0.2S0
G1X0.1S191.3
G1X0.1S0
G1X0.1S191.3
G1X0.1Y0.1S0
G1X-0.2S191.3
G1X-0.2S0
G1X-0.1S191.3
G1X-0.1S0
G1X-0.2S191.3
G1X-0.1S0
G1X-0.1S191.3
G1X-0.2S0
G1X-0.2S191.3
G1X-0.1S0
G1X-0.2S191.3
G1X-0.1S0
G1X-0.3S191.3
G1X-0.1S0
G1X-0.1S191.3
G1X-0.1S0
G1X-0.2S191.3
G1X-0.1S0
G1X-0.1S191.3
G1X-0.1Y0.1S0
G1X0.1S191.3
G1X0.1S0
G1X0.2S191.3
G1X0.1S0
G1X0.2S191.3
G1X0.1S0
G1X0.2S191.3
G1X0.1S0
G1X0.2S191.3
G1X0.2S0
G1X0.1S191.3
G1X0.1S0
G1X0.2S191.3
G1X0.2S0
G1X0.1S191.3
G1X0.1S0
G1X0.2S191.3
G1X0.1S0
G1X0.1S191.3
G1X0.2S0
G1X0.2S191.3
G1X0.2Y0.1S0
G1X-0.1S191.3
G1X-0.1S0
G1X-0.2S191.3
G1X-0.2S0
G1X-0.2S191.3
G1X-0.1S0
G1X-0.1S191.3
G1X-0.2S0
G1X-0.1S191.3
G1X-0.1S0
G1X-0.2S191.3
G1X-0.2S0
G1X-0.2S191.3
G1X-0.1S0
G1X-0.2S191.3
G1X-0.1S0
G1X-0.1S191.3
G1X-0.1S0
G1X-0.2S191.3
G1X-0.1S0
G1X-0.2S191.3
G1X-0.1S0
G1X-0.1S191.3
G1X-0.1S0
G1X-0.1S191.3
G1X-0.2Y0.1S0
G1X0.2S191.3
G1X0.1S0
G1X0.2S191.3
G1X0.1S0
G1X0.1S191.3
G1X0.1S0
G1X0.2S191.3
G1X0.1S0
G1X0.2S191.3
G1X0.1S0
G1X0.2S191.3
G1X0.1S0
G1X0.2S191.3
G1X0.1S0
G1X0.1S191.3
G1X0.2S0
G1X0.2S191.3
G1X0.1S0
G1X0.1S191.3
G1X0.2S0
G1X0.1S191.3
G1X0.1S0
G1X0.2S191.3
G1X0.2S0
G1X0.2S191.3
G1X0.1S0
G1X0.1S191.3
G1Y0.1S0
G1X-0.1S191.3
G1X-0.2S0
G1X-0.1S191.3
G1X-0.2S0
G1X-0.2S191.3
G1X-0.2S0
G1X-0.1S191.3
G1X-0.1S0
G1X-0.2S191.3
G1X-0.1S0
G1X-0.1S191.3
G1X-0.2S0
G1X-0.2S191.3
G1X-0.1S0
G1X-0.2S191.3
G1X-0.1S0
G1X-0.1S191.3
G1X-0.1S0
G1X-0.2S191.3
G1X-0.1S0
G1X-0.1S191.3
G1X-0.1S0
G1X-0.2S191.3
G1X-0.1S0
G1X-0.2S191.3
G1X-0.1S0
G1X-0.1S191.3
G1X-0.1S0
G1X-0.1S191.3
G1X-0.2Y0.1S0
G1X0.1S191.3
G1X0.1S0
G1X0.2S191.3
G1X0.1S0
G1X0.2S191.3
G1X0.1S0
G1X0.2S191.3
G1X0.1S0
G1X0.2S191.3
G1X0.1S0
G1X0.2S191.3
G1X0.1S0
G1X0.2S191.3
G1X0.1S0
G1X0.1S191.3
G1X0.2S0
G1X0.2S191.3
G1X0.1S0
G1X0.1S191.3
G1X0.2S0
G1X0.2S191.3
G1X0.1S0
G1X0.2S191.3
G1X0.2S0
G1X0.2S191.3
G1X0.1S0
G1X0.1S191.3
G1X0.2S0
G1X0.1S191.3
G1X0.3Y0.1S0
G1X-0.2S191.3
G1X-0.1S0
G1X-0.2S191.3
G1X-0.1S0
G1X-0.2S191.3
G1X-0.1S0
G1X-0.2S191.3
G1X-0.2S0
G1X-0.1S191.3
G1X-0.1S0
G1X-0.1S191.3
G1X-0.2S0
G1X-0.1S191.3
G1X-0.1S0
G1X-0.2S191.3
G1X-0.2S0
G1X-0.2S191.3
G1X-0.1S0
G1X-0.2S191.3
G1X-0.1S0
G1X-0.2S191.3
G1X-0.1S0
G1X-0.2S191.3
G1X-0.1S0
G1X-0.2S191.3
G1X-0.1S0
G1X-0.2S191.3
G1X-0.1S0
G1X-0.2S191.3
G1X-0.1S0
G1X-0.1S191.3
G1X-0.3Y0.1S0
G1X0.1S191.3
G1X0.1S0
G1X0.2S191.3
G1X0.1S0
G1X0.2S191.3
G1X0.1S0
G1X0.1S191.3
G1X0.1S0
G1X0.1S191.3
G1X0.1S0
G1X0.1S191.3
G1X0.1S0
G1X0.2S191.3
G1X0.1S0
G1X0.1S191.3
G1X0.1S0
G1X0.2S191.3
G1X0.1S0
G1X0.3S191.3
G1X0.1S0
G1X0.1S191.3
G1X0.2S0
G1X0.2S191.3
G1X0.1S0
G1X0.1S191.3
G1X0.1S0
G1X0.1S191.3
G1X0.1S0
G1X0.2S191.3
G1X0.3S0
G1X0.1S191.3
G1X0.2S0
G1X0.1S191.3
G1X0.2S0
G1X0.1S191.3
G1X0.1S0
G1X0.2S191.3
G1X0.2Y0.1S0
G1X-0.2S191.3
G1X-0.1S0
G1X-0.1S191.3
G1X-0.2S0
G1X-0.1S191.3
G1X-0.1S0
G1X-0.2S191.3
G1X-0.1S0
G1X-0.2S191.3
G1X-0.1S0
G1X-0.2S191.3
G1X-0.1S0
G1X-0.1S191.3
G1X-0.2S0
G1X-0.2S191.3
G1X-0.1S0
G1X-0.1S191.3
G1X-0.2S0
G1X-0.2S191.3
G1X-0.1S0
G1X-0.1S191.3
G1X-0.1S0
G1X-0.1S191.3
G1X-0.1S0
G1X-0.1S191.3
G1X-0.1S0
G1X-0.2S191.3
G1X-0.1S0
G1X-0.2S191.3
G1X-0.1S0
G1X-0.2S191.3
G1X-0.1S0
G1X-0.2S191.3
G1X-0.1S0
G1X-0.1S191.3
G1X-0.1S0
G1X-0.2S191.3
G1X-0.1S0
G1X-0.1S191.3
G1X-0.1S0
G1X-0.1S191.3
G1Y0.1S0
G1X0.2S191.3
G1X0.1S0
G1X0.2S191.3
G1X0.1S0
G1X0.2S191.3
G1X0.1S0
G1X0.2S191.3
G1X0.1S0
G1X0.2S191.3
G1X0.1S0
G1X0.2S191.3
G1X0.1S0
G1X0.2S191.3
G1X0.1S0
G1X0.2S191.3
G1X0.1S0
G1X0.1S191.3
G1X0.3S0
G1X0.3S191.3
G1X0.2S0
G1X0.1S191.3
G1X0.1S0
G1X0.2S191.3
G1X0.2S0
G1X0.1S191.3
G1X0.1S0
G1X0.1S191.3
G1X0.2S0
G1X0.1S191.3
G1X0.2S0
G1X0.2S191.3
G1X0.1S0
G1X0.1S191.3
G1X0.2S0
G1X0.1S191.3
G1X0.1S0
G1X0.2S191.3
G1X0.2Y0.1S0
G1X-0.2S191.3
G1X-0.1S0
G1X-0.1S191.3
G1X-0.2S0
G1X-0.1S191.3
G1X-0.1S0
G1X-0.2S191.3
G1X-0.1S0
G1X-0.1S191.3
G1X-0.1S0
G1X-0.2S191.3
G1X-0.1S0
G1X-0.2S191.3
G1X-0.2S0
G1X-0.1S191.3
G1X-0.1S0
G1X-0.2S191.3
G1X-0.2S0
G1X-0.3S191.3
G1X-0.6S0
G1X-0.2S191.3
G1X-0.1S0
G1X-0.2S191.3
G1X-0.1S0
G1X-0.1S191.3
G1X-0.1S0
G1X-0.1S191.3
G1X-0.1S0
G1X-0.2S191.3
G1X-0.1S0
G1X-0.2S191.3
G1X-0.1S0
G1X-0.2S191.3
G1X-0.1S0
G1X-0.1S191.3
G1X-0.1S0
G1X-0.2S191.3
G1X-0.1S0
G1X-0.2S191.3
G1X-0.3Y0.1S0
G1X0.1S191.3
G1X0.1S0
G1X0.2S191.3
G1X0.1S0
G1X0.1S191.3
G1X0.1S0
G1X0.2S191.3
G1X0.1S0
G1X0.2S191.3
G1X0.1S0
G1X0.2S191.3
G1X0.1S0
G1X0.1S191.3
G1X0.1S0
G1X0.2S191.3
G1X0.1S0
G1X0.2S191.3
G1X0.1S0
G1X0.2S191.3
G1X0.4S0
G1X0.2S191.3
G1X0.5S0
G1X0.2S191.3
G1X0.2S0
G1X0.1S191.3
G1X0.1S0
G1X0.2S191.3
G1X0.1S0
G1X0.1S191.3
G1X0.2S0
G1X0.1S191.3
G1X0.1S0
G1X0.1S191.3
G1X0.2S0
G1X0.1S191.3
G1X0.1S0
G1X0.2S191.3
G1X0.1S0
G1X0.1S191.3
G1X0.2S0
G1X0.1S191.3
G1X0.2S0
G1X0.1S191.3
G1Y0.1S0
G1X-0.1S191.3
G1X-0.1S0
G1X-0.1S191.3
G1X-0.1S0
G1X-0.2S191.3
G1X-0.1S0
G1X-0.2S191.3
G1X-0.2S0
G1X-0.1S191.3
G1X-0.1S0
G1X-0.2S191.3
G1X-0.2S0
G1X-0.2S191.3
G1X-0.1S0
G1X-0.1S191.3
G1X-0.1S0
G1X-0.1S191.3
G1X-0.2S0
G1X-0.3S191.3
G1X-0.3S0
G1X-0.2S191.3
G1X-0.1S0
G1X-0.1S191.3
G1X-0.5S0
G1X-0.2S191.3
G1X-0.1S0
G1X-0.2S191.3
G1X-0.1S0
G1X-0.2S191.3
G1X-0.1S0
G1X-0.2S191.3
G1X-0.1S0
G1X-0.1S191.3
G1X-0.1S0
G1X-0.2S191.3
G1X-0.1S0
G1X-0.2S191.3
G1X-0.1S0
G1X-0.2S191.3
G1X-0.1S0
G1X-0.1S191.3
G1X-0.1S0
G1X-0.1S191.3
G1X-0.3Y0.1S0
G1X0.1S191.3
G1X0.1S0
G1X0.3S191.3
G1X0.1S0
G1X0.2S191.3
G1X0.1S0
G1X0.2S191.3
G1X0.1S0
G1X0.2S191.3
G1X0.1S0
G1X0.2S191.3
G1X0.1S0
G1X0.2S191.3
G1X0.1S0
G1X0.2S191.3
G1X0.1S0
G1X0.2S191.3
G1X0.4S0
G1X0.2S191.3
G1X0.6S0
G1X0.1S191.3
G1X0.4S0
G1X0.3S191.3
G1X0.2S0
G1X0.1S191.3
G1X0.1S0
G1X0.2S191.3
G1X0.1S0
G1X0.1S191.3
G1X0.1S0
G1X0.1S191.3
G1X0.1S0
G1X0.2S191.3
G1X0.2S0
G1X0.1S191.3
G1X0.1S0
G1X0.1S191.3
G1X0.1S0
G1X0.1S191.3
G1X0.1S0
G1X0.1S191.3
G1X0.2S0
G1X0.2S191.3
G1X0.1Y0.1S0
G1X-0.2S191.3
G1X-0.1S0
G1X-0.2S191.3
G1X-0.1S0
G1X-0.2S191.3
G1X-0.2S0
G1X-0.1S191.3
G1X-0.1S0
G1X-0.1S191.3
G1X-0.1S0
G1X-0.1S191.3
G1X-0.1S0
G1X-0.1S191.3
G1X-0.2S0
G1X-0.1S191.3
G1X-0.1S0
G1X-0.1S191.3
G1X-0.3S0
G1X-0.3S191.3
G1X-0.5S0
G1X-0.1S191.3
G1X-0.2S0
G1X-0.1S191.3
G1X-0.2S0
G1X-0.1S191.3
G1X-0.1S0
G1X-0.1S191.3
G1X-0.7S0
G1X-0.2S191.3
G1X-0.1S0
G1X-0.1S191.3
G1X-0.1S0
G1X-0.2S191.3
G1X-0.1S0
G1X-0.2S191.3
G1X-0.1S0
G1X-0.1S191.3
G1X-0.1S0
G1X-0.2S191.3
G1X-0.1S0
G1X-0.1S191.3
G1X-0.1S0
G1X-0.2S191.3
G1X-0.1S0
G1X-0.2S191.3
G1X-0.1S0
G1X-0.2S191.3
G1X-0.1Y0.1S0
G1X0.1S191.3
G1X0.1S0
G1X0.1S191.3
G1X0.1S0
G1X0.2S191.3
G1X0.1S0
G1X0.2S191.3
G1X0.1S0
G1X0.2S191.3
G1X0.1S0
G1X0.2S191.3
G1X0.1S0
G1X0.2S191.3
G1X0.1S0
G1X0.2S191.3
G1X0.1S0
G1X0.2S191.3
G1X0.1S0
G1X0.2S191.3
G1X0.2S0
G1X0.2S191.3
G1X0.1S0
G1X0.1S191.3
G1X0.3S0
G1X0.1S191.3
G1X0.2S0
G1X0.1S191.3
G1X0.3S0
G1X0.1S191.3
G1X0.1S0
G1X0.1S191.3
G1X0.4S0
G1X0.3S191.3
G1X0.2S0
G1X0.2S191.3
G1X0.1S0
G1X0.2S191.3
G1X0.2S0
G1X0.2S191.3
G1X0.1S0
G1X0.2S191.3
G1X0.2S0
G1X0.1S191.3
G1X0.2S0
G1X0.1S191.3
G1X0.2S0
G1X0.2S191.3
G1X0.1S0
G1X0.1S191.3
G1X0.2Y0.1S0
G1X-0.1S191.3
G1X-0.1S0
G1X-0.1S191.3
G1X-0.2S0
G1X-0.1S191.3
G1X-0.2S0
G1X-0.1S191.3
G1X-0.1S0
G1X-0.1S191.3
G1X-0.1S0
G1X-0.2S191.3
G1X-0.1S0
G1X-0.1S191.3
G1X-0.2S0
G1X-0.1S191.3
G1X-0.1S0
G1X-0.1S191.3
G1X-0.1S0
G1X-0.1S191.3
G1X-0.2S0
G1X-0.1S191.3
G1X-0.1S0
G1X-0.3S191.3
G1X-0.3S0
G1X-0.1S191.3
G1X-0.2S0
G1X-0.1S191.3
G1X-0.2S0
G1X-0.1S191.3
G1X-0.2S0
G1X-0.1S191.3
G1X-0.2S0
G1X-0.1S191.3
G1X-0.3S0
G1X-0.1S191.3
G1X-0.6S0
G1X-0.1S191.3
G1X-0.1S0
G1X-0.2S191.3
G1X-0.1S0
G1X-0.1S191.3
G1X-0.1S0
G1X-0.1S191.3
G1X-0.1S0
G1X-0.2S191.3
G1X-0.1S0
G1X-0.1S191.3
G1X-0.1S0
G1X-0.2S191.3
G1X-0.1S0
G1X-0.1S191.3
G1X-0.2S0
G1X-0.2S191.3
G1X-0.1S0
G1X-0.2S191.3
G1X-0.1S0
G1X-0.1S191.3
G1X-0.2Y0.1S0
G1X0.1S191.3
G1X0.1S0
G1X0.1S191.3
G1X0.1S0
G1X0.2S191.3
G1X0.1S0
G1X0.2S191.3
G1X0.1S0
G1X0.2S191.3
G1X0.1S0
G1X0.2S191.3
G1X0.1S0
G1X0.2S191.3
G1X0.1S0
G1X0.2S191.3
G1X0.1S0
G1X0.2S191.3
G1X0.1S0
G1X0.2S191.3
G1X0.4S0
G1X0.1S191.3
G1X0.4S0
G1X0.1S191.3
G1X0.1S0
G1X0.1S191.3
G1X0.3S0
G1X0.1S191.3
G1X0.2S0
G1X0.1S191.3
G1X0.5S0
G1X0.1S191.3
G1X0.5S0
G1X0.2S191.3
G1X0.1S0
G1X0.2S191.3
G1X0.1S0
G1X0.1S191.3
G1X0.1S0
G1X0.1S191.3
G1X0.1S0
G1X0.2S191.3
G1X0.2S0
G1X0.1S191.3
G1X0.1S0
G1X0.1S191.3
G1X0.1S0
G1X0.3S191.3
G1X0.1S0
G1X0.2S191.3
G1X0.1S0
G1X0.1S191.3
G1X0.1S0
G1X0.2S191.3
G1X0.2Y0.1S0
G1X-0.2S191.3
G1X-0.2S0
G1X-0.1S191.3
G1X-0.1S0
G1X-0.1S191.3
G1X-0.2S0
G1X-0.1S191.3
G1X-0.2S0
G1X-0.1S191.3
G1X-0.2S0
G1X-0.1S191.3
G1X-0.1S0
G1X-0.1S191.3
G1X-0.1S0
G1X-0.2S191.3
G1X-0.2S0
G1X-0.2S191.3
G1X-0.2S0
G1X-0.2S191.3
G1X-0.4S0
G1X-0.1S191.3
G1X-0.2S0
G1X-0.1S191.3
G1X-0.2S0
G1X-0.1S191.3
G1X-0.1S0
G1X-0.1S191.3
G1X-0.6S0
G1X-0.1S191.3
G1X-0.2S0
G1X-0.1S191.3
G1X-0.2S0
G1X-0.2S191.3
G1X-0.2S0
G1X-0.1S191.3
G1X-0.3S0
G1X-0.1S191.3
G1X-0.1S0
G1X-0.2S191.3
G1X-0.1S0
G1X-0.2S191.3
G1X-0.1S0
G1X-0.2S191.3
G1X-0.1S0
G1X-0.2S191.3
G1X-0.1S0
G1X-0.2S191.3
G1X-0.1S0
G1X-0.2S191.3
G1X-0.1S0
G1X-0.2S191.3
G1X-0.1S0
G1X-0.2S191.3
G1X-0.1S0
G1X-0.1S191.3
G1X-0.2Y0.1S0
G1X0.1S191.3
G1X0.1S0
G1X0.1S191.3
G1X0.1S0
G1X0.2S191.3
G1X0.1S0
G1X0.1S191.3
G1X0.1S0
G1X0.1S191.3
G1X0.1S0
G1X0.2S191.3
G1X0.1S0
G1X0.2S191.3
G1X0.1S0
G1X0.2S191.3
G1X0.1S0
G1X0.1S191.3
G1X0.1S0
G1X0.1S191.3
G1X0.1S0
G1X0.2S191.3
G1X0.5S0
G1X0.1S191.3
G1X0.4S0
G1X0.1S191.3
G1X0.5S0
G1X0.1S191.3
G1X0.1S0
G1X0.2S191.3
G1X0.1S0
G1X0.1S191.3
G1X0.2S0
G1X0.1S191.3
G1X0.2S0
G1X0.1S191.3
G1X0.2S0
G1X0.1S191.3
G1X0.2S0
G1X0.1S191.3
G1X0.4S0
G1X0.2S191.3
G1X0.1S0
G1X0.1S191.3
G1X0.1S0
G1X0.1S191.3
G1X0.2S0
G1X0.1S191.3
G1X0.1S0
G1X0.2S191.3
G1X0.1S0
G1X0.2S191.3
G1X0.2S0
G1X0.2S191.3
G1X0.1S0
G1X0.1S191.3
G1X0.1S0
G1X0.1S191.3
G1X0.2S0
G1X0.2S191.3
G1X0.1S0
G1X0.1S191.3
G1X0.1Y0.1S0
G1X-0.2S191.3
G1X-0.1S0
G1X-0.1S191.3
G1X-0.2S0
G1X-0.3S191.3
G1X-0.1S0
G1X-0.2S191.3
G1X-0.1S0
G1X-0.2S191.3
G1X-0.1S0
G1X-0.1S191.3
G1X-0.2S0
G1X-0.1S191.3
G1X-0.2S0
G1X-0.1S191.3
G1X-0.1S0
G1X-0.2S191.3
G1X-0.1S0
G1X-0.2S191.3
G1X-0.5S0
G1X-0.1S191.3
G1X-0.2S0
G1X-0.1S191.3
G1X-0.3S0
G1X-0.1S191.3
G1X-0.5S0
G1X-0.1S191.3
G1X-0.6S0
G1X-0.1S191.3
G1X-0.1S0
G1X-0.1S191.3
G1X-0.3S0
G1X-0.1S191.3
G1X-0.2S0
G1X-0.1S191.3
G1X-0.2S0
G1X-0.1S191.3
G1X-0.2S0
G1X-0.1S191.3
G1X-0.1S0
G1X-0.2S191.3
G1X-0.1S0
G1X-0.2S191.3
G1X-0.1S0
G1X-0.1S191.3
G1X-0.1S0
G1X-0.2S191.3
G1X-0.1S0
G1X-0.2S191.3
G1X-0.1S0
G1X-0.2S191.3
G1X-0.1S0
G1X-0.2S191.3
G1X-0.1S0
G1X-0.2S191.3
G1X-0.1S0
G1X-0.2S191.3
G1X-0.1Y0.1S0
G1X0.1S191.3
G1X0.1S0
G1X0.1S191.3
G1X0.1S0
G1X0.2S191.3
G1X0.1S0
G1X0.2S191.3
G1X0.1S0
G1X0.2S191.3
G1X0.1S0
G1X0.2S191.3
G1X0.1S0
G1X0.1S191.3
G1X0.1S0
G1X0.2S191.3
G1X0.1S0
G1X0.2S191.3
G1X0.1S0
G1X0.2S191.3
G1X0.4S0
G1X0.1S191.3
G1X0.2S0
G1X0.1S191.3
G1X0.2S0
G1X0.2S191.3
G1X0.2S0
G1X0.1S191.3
G1X0.2S0
G1X0.2S191.3
G1X0.1S0
G1X0.1S191.3
G1X0.3S0
G1X0.1S191.3
G1X0.1S0
G1X0.1S191.3
G1X0.2S0
G1X0.1S191.3
G1X0.2S0
G1X0.1S191.3
G1X0.4S0
G1X0.2S191.3
G1X0.1S0
G1X0.1S191.3
G1X0.3S0
G1X0.2S191.3
G1X0.1S0
G1X0.2S191.3
G1X0.1S0
G1X0.2S191.3
G1X0.1S0
G1X0.1S191.3
G1X0.2S0
G1X0.1S191.3
G1X0.3S0
G1X0.1S191.3
G1X0.3S0
G1X0.2S191.3
G1X0.1S0
G1X0.1S191.3
G1X0.2S0
G1X0.2S191.3
G1X0.2Y0.1S0
G1X-0.2S191.3
G1X-0.1S0
G1X-0.1S191.3
G1X-0.2S0
G1X-0.2S191.3
G1X-0.2S0
G1X-0.1S191.3
G1X-0.1S0
G1X-0.1S191.3
G1X-0.1S0
G1X-0.2S191.3
G1X-0.1S0
G1X-0.2S191.3
G1X-0.1S0
G1X-0.2S191.3
G1X-0.2S0
G1X-0.1S191.3
G1X-0.2S0
G1X-0.1S191.3
G1X-0.5S0
G1X-0.1S191.3
G1X-0.4S0
G1X-0.1S191.3
G1X-0.2S0
G1X-0.1S191.3
G1X-0.2S0
G1X-0.1S191.3
G1X-0.2S0
G1X-0.1S191.3
G1X-0.2S0
G1X-0.1S191.3
G1X-0.2S0
G1X-0.1S191.3
G1X-0.6S0
G1X-0.1S191.3
G1X-0.5S0
G1X-0.1S191.3
G1X-0.2S0
G1X-0.1S191.3
G1X-0.2S0
G1X-0.1S191.3
G1X-0.2S0
G1X-0.2S191.3
G1X-0.1S0
G1X-0.2S191.3
G1X-0.1S0
G1X-0.2S191.3
G1X-0.1S0
G1X-0.2S191.3
G1X-0.1S0
G1X-0.2S191.3
G1X-0.1S0
G1X-0.2S191.3
G1X-0.1S0
G1X-0.1S191.3
G1X-0.1S0
G1X-0.2S191.3
G1X-0.1S0
G1X-0.2S191.3
G1X-0.1S0
G1X-0.1S191.3
G1Y0.1S0
G1X0.1S191.3
G1X0.1S0
G1X0.2S191.3
G1X0.1S0
G1X0.2S191.3
G1X0.1S0
G1X0.2S191.3
G1X0.1S0
G1X0.1S191.3
G1X0.1S0
G1X0.2S191.3
G1X0.1S0
G1X0.2S191.3
G1X0.1S0
G1X0.2S191.3
G1X0.1S0
G1X0.1S191.3
G1X0.1S0
G1X0.1S191.3
G1X0.4S0
G1X0.1S191.3
G1X0.2S0
G1X0.1S191.3
G1X0.3S0
G1X0.1S191.3
G1X0.2S0
G1X0.1S191.3
G1X0.2S0
G1X0.1S191.3
G1X0.1S0
G1X0.1S191.3
G1X0.2S0
G1X0.1S191.3
G1X0.2S0
G1X0.1S191.3
G1X0.4S0
G1X0.1S191.3
G1X0.3S0
G1X0.1S191.3
G1X0.2S0
G1X0.1S191.3
G1X0.2S0
G1X0.1S191.3
G1X0.3S0
G1X0.1S191.3
G1X0.5S0
G1X0.3S191.3
G1X0.1S0
G1X0.1S191.3
G1X0.2S0
G1X0.2S191.3
G1X0.1S0
G1X0.1S191.3
G1X0.1S0
G1X0.1S191.3
G1X0.1S0
G1X0.2S191.3
G1X0.1S0
G1X0.1S191.3
G1X0.1S0
G1X0.1S191.3
G1X0.1S0
G1X0.2S191.3
G1X0.2S0
G1X0.1S191.3
G1X0.1S0
G1X0.2S191.3
G1X0.2Y0.1S0
G1X-0.2S191.3
G1X-0.1S0
G1X-0.1S191.3
G1X-0.2S0
G1X-0.1S191.3
G1X-0.1S0
G1X-0.2S191.3
G1X-0.2S0
G1X-0.2S191.3
G1X-0.1S0
G1X-0.1S191.3
G1X-0.2S0
G1X-0.1S191.3
G1X-0.2S0
G1X-0.1S191.3
G1X-0.2S0
G1X-0.1S191.3
G1X-0.1S0
G1X-0.3S191.3
G1X-0.3S0
G1X-0.1S191.3
G1X-0.1S0
G1X-0.2S191.3
G1X-0.1S0
G1X-0.1S191.3
G1X-0.2S0
G1X-0.1S191.3
G1X-0.2S0
G1X-0.1S191.3
G1X-0.3S0
G1X-0.1S191.3
G1X-0.1S0
G1X-0.1S191.3
G1X-0.2S0
G1X-0.1S191.3
G1X-0.2S0
G1X-0.1S191.3
G1X-0.3S0
G1X-0.1S191.3
G1X-0.2S0
G1X-0.1S191.3
G1X-0.3S0
G1X-0.1S191.3
G1X-0.2S0
G1X-0.1S191.3
G1X-0.2S0
G1X-0.1S191.3
G1X-0.2S0
G1X-0.1S191.3
G1X-0.2S0
G1X-0.1S191.3
G1X-0.3S0
G1X-0.2S191.3
G1X-0.1S0
G1X-0.2S191.3
G1X-0.1S0
G1X-0.1S191.3
G1X-0.1S0
G1X-0.1S191.3
G1X-0.1S0
G1X-0.1S191.3
G1X-0.1S0
G1X-0.2S191.3
G1X-0.1S0
G1X-0.2S191.3
G1X-0.1S0
G1X-0.1S191.3
G1X-0.1S0
G1X-0.2S191.3
G1X-0.1S0
G1X-0.2S191.3
G1X-0.1S0
G1X-0.1S191.3
G1X-0.2Y0.1S0
G1X0.1S191.3
G1X0.1S0
G1X0.1S191.3
G1X0.1S0
G1X0.2S191.3
G1X0.1S0
G1X0.1S191.3
G1X0.1S0
G1X0.2S191.3
G1X0.1S0
G1X0.2S191.3
G1X0.1S0
G1X0.2S191.3
G1X0.1S0
G1X0.2S191.3
G1X0.1S0
G1X0.2S191.3
G1X0.1S0
G1X0.2S191.3
G1X0.4S0
G1X0.1S191.3
G1X0.2S0
G1X0.1S191.3
G1X0.4S0
G1X0.1S191.3
G1X0.2S0
G1X0.1S191.3
G1X0.2S0
G1X0.1S191.3
G1X0.2S0
G1X0.1S191.3
G1X0.2S0
G1X0.1S191.3
G1X0.2S0
G1X0.1S191.3
G1X0.2S0
G1X0.1S191.3
G1X0.1S0
G1X0.1S191.3
G1X0.2S0
G1X0.6S191.3
G1X0.2S0
G1X0.1S191.3
G1X0.2S0
G1X0.1S191.3
G1X0.5S0
G1X0.1S191.3
G1X0.5S0
G1X0.3S191.3
G1X0.1S0
G1X0.2S191.3
G1X0.1S0
G1X0.2S191.3
G1X0.1S0
G1X0.1S191.3
G1X0.2S0
G1X0.1S191.3
G1X0.1S0
G1X0.1S191.3
G1X0.2S0
G1X0.1S191.3
G1X0.1S0
G1X0.2S191.3
G1X0.2S0
G1X0.1S191.3
G1X0.2S0
G1X0.2S191.3
G1X0.2Y0.1S0
G1X-0.2S191.3
G1X-0.1S0
G1X-0.1S191.3
G1X-0.2S0
G1X-0.2S191.3
G1X-0.1S0
G1X-0.2S191.3
G1X-0.2S0
G1X-0.1S191.3
G1X-0.1S0
G1X-0.2S191.3
G1X-0.1S0
G1X-0.1S191.3
G1X-0.1S0
G1X-0.2S191.3
G1X-0.2S0
G1X-0.1S191.3
G1X-0.2S0
G1X-0.2S191.3
G1X-0.6S0
G1X-0.1S191.3
G1X-0.3S0
G1X-0.1S191.3
G1X-0.3S0
G1X-0.1S191.3
G1X-0.2S0
G1X-1S191.3
G1X-0.5S0
G1X-0.1S191.3
G1X-0.2S0
G1X-0.1S191.3
G1X-0.4S0
G1X-0.1S191.3
G1X-0.3S0
G1X-0.1S191.3
G1X-0.4S0
G1X-0.1S191.3
G1X-0.2S0
G1X-0.1S191.3
G1X-0.3S0
G1X-0.1S191.3
G1X-0.3S0
G1X-0.2S191.3
G1X-0.1S0
G1X-0.2S191.3
G1X-0.1S0
G1X-0.2S191.3
G1X-0.1S0
G1X-0.2S191.3
G1X-0.1S0
G1X-0.1S191.3
G1X-0.1S0
G1X-0.2S191.3
G1X-0.1S0
G1X-0.2S191.3
G1X-0.1S0
G1X-0.2S191.3
G1X-0.1S0
G1X-0.2S191.3
G1X-0.1S0
G1X-0.1S191.3
G1X-0.2Y0.1S0
G1X0.1S191.3
G1X0.1S0
G1X0.1S191.3
G1X0.1S0
G1X0.2S191.3
G1X0.1S0
G1X0.2S191.3
G1X0.1S0
G1X0.2S191.3
G1X0.1S0
G1X0.2S191.3
G1X0.1S0
G1X0.2S191.3
G1X0.1S0
G1X0.2S191.3
G1X0.1S0
G1X0.2S191.3
G1X0.1S0
G1X0.2S191.3
G1X0.3S0
G1X0.1S191.3
G1X0.2S0
G1X0.1S191.3
G1X0.3S0
G1X0.1S191.3
G1X0.2S0
G1X0.1S191.3
G1X0.1S0
G1X0.1S191.3
G1X0.2S0
G1X0.1S191.3
G1X0.2S0
G1X0.1S191.3
G1X0.2S0
G1X0.1S191.3
G1X0.4S0
G1X0.1S191.3
G1X0.2S0
G1X1.5S191.3
G1X0.2S0
G1X0.1S191.3
G1X0.2S0
G1X0.1S191.3
G1X0.2S0
G1X0.1S191.3
G1X0.1S0
G1X0.2S191.3
G1X0.5S0
G1X0.2S191.3
G1X0.1S0
G1X0.1S191.3
G1X0.1S0
G1X0.1S191.3
G1X0.1S0
G1X0.2S191.3
G1X0.2S0
G1X0.2S191.3
G1X0.1S0
G1X0.2S191.3
G1X0.2S0
G1X0.1S191.3
G1X0.1S0
G1X0.2S191.3
G1X0.1S0
G1X0.1S191.3
G1X0.2S0
G1X0.3S191.3
G1X0.1Y0.1S0
G1X-0.1S191.3
G1X-0.2S0
G1X-0.1S191.3
G1X-0.2S0
G1X-0.2S191.3
G1X-0.1S0
G1X-0.1S191.3
G1X-0.2S0
G1X-0.1S191.3
G1X-0.2S0
G1X-0.1S191.3
G1X-0.2S0
G1X-0.1S191.3
G1X-0.2S0
G1X-0.1S191.3
G1X-0.1S0
G1X-0.1S191.3
G1X-0.2S0
G1X-0.3S191.3
G1X-0.5S0
G1X-0.1S191.3
G1X-0.6S0
G1X-0.1S191.3
G1X-0.2S0
G1X-0.1S191.3
G1X-0.2S0
G1X-0.5S191.3
G1X-0.1S0
G1X-0.2S191.3
G1X-0.1S0
G1X-0.8S191.3
G1X-0.2S0
G1X-0.1S191.3
G1X-0.2S0
G1X-0.1S191.3
G1X-0.1S0
G1X-0.1S191.3
G1X-0.3S0
G1X-0.1S191.3
G1X-0.2S0
G1X-0.1S191.3
G1X-0.2S0
G1X-0.1S191.3
G1X-0.2S0
G1X-0.1S191.3
G1X-0.2S0
G1X-0.1S191.3
G1X-0.2S0
G1X-0.1S191.3
G1X-0.6S0
G1X-0.2S191.3
G1X-0.1S0
G1X-0.1S191.3
G1X-0.1S0
G1X-0.1S191.3
G1X-0.1S0
G1X-0.2S191.3
G1X-0.1S0
G1X-0.1S191.3
G1X-0.1S0
G1X-0.1S191.3
G1X-0.1S0
G1X-0.2S191.3
G1X-0.1S0
G1X-0.1S191.3
G1X-0.1S0
G1X-0.2S191.3
G1X-0.1S0
G1X-0.2S191.3
G1X-0.1S0
G1X-0.1S191.3
G1Y0.1S0
G1X0.1S191.3
G1X0.1S0
G1X0.2S191.3
G1X0.1S0
G1X0.2S191.3
G1X0.1S0
G1X0.2S191.3
G1X0.1S0
G1X0.2S191.3
G1X0.1S0
G1X0.2S191.3
G1X0.1S0
G1X0.2S191.3
G1X0.1S0
G1X0.2S191.3
G1X0.1S0
G1X0.2S191.3
G1X0.3S0
G1X0.1S191.3
G1X0.2S0
G1X0.1S191.3
G1X0.3S0
G1X0.1S191.3
G1X0.2S0
G1X0.1S191.3
G1X0.2S0
G1X0.1S191.3
G1X0.6S0
G1X0.1S191.3
G1X0.5S0
G1X0.1S191.3
G1X0.1S0
G1X0.1S191.3
G1X0.2S0
G1X0.9S191.3
G1X0.1S0
G1X0.2S191.3
G1X0.1S0
G1X0.5S191.3
G1X0.3S0
G1X0.1S191.3
G1X0.2S0
G1X0.2S191.3
G1X0.3S0
G1X0.1S191.3
G1X0.1S0
G1X0.2S191.3
G1X0.4S0
G1X0.3S191.3
G1X0.2S0
G1X0.2S191.3
G1X0.1S0
G1X0.2S191.3
G1X0.1S0
G1X0.2S191.3
G1X0.1S0
G1X0.2S191.3
G1X0.1S0
G1X0.1S191.3
G1X0.2S0
G1X0.2S191.3
G1X0.1S0
G1X0.1S191.3
G1X0.2S0
G1X0.2S191.3
G1X0.3Y0.1S0
G1X-0.1S191.3
G1X-0.1S0
G1X-0.1S191.3
G1X-0.2S0
G1X-0.1S191.3
G1X-0.1S0
G1X-0.2S191.3
G1X-0.1S0
G1X-0.1S191.3
G1X-0.2S0
G1X-0.2S191.3
G1X-0.1S0
G1X-0.1S191.3
G1X-0.1S0
G1X-0.1S191.3
G1X-0.1S0
G1X-0.1S191.3
G1X-0.2S0
G1X-0.1S191.3
G1X-0.1S0
G1X-0.1S191.3
G1X-0.1S0
G1X-0.2S191.3
G1X-0.6S0
G1X-0.1S191.3
G1X-0.4S0
G1X-0.1S191.3
G1X-0.1S0
G1X-0.1S191.3
G1X-0.4S0
G1X-0.1S191.3
G1X-0.2S0
G1X-0.2S191.3
G1X-0.1S0
G1X-0.1S191.3
G1X-0.1S0
G1X-0.6S191.3
G1X-0.1S0
G1X-0.1S191.3
G1X-0.1S0
G1X-0.1S191.3
G1X-0.1S0
G1X-0.2S191.3
G1X-0.1S0
G1X-0.1S191.3
G1X-0.5S0
G1X-0.2S191.3
G1X-0.1S0
G1X-0.1S191.3
G1X-0.2S0
G1X-0.2S191.3
G1X-0.1S0
G1X-0.1S191.3
G1X-0.3S0
G1X-0.1S191.3
G1X-0.2S0
G1X-0.1S191.3
G1X-0.2S0
G1X-0.1S191.3
G1X-0.2S0
G1X-0.1S191.3
G1X-0.2S0
G1X-0.1S191.3
G1X-0.3S0
G1X-0.2S191.3
G1X-0.1S0
G1X-0.2S191.3
G1X-0.1S0
G1X-0.2S191.3
G1X-0.1S0
G1X-0.2S191.3
G1X-0.1S0
G1X-0.1S191.3
G1X-0.1S0
G1X-0.2S191.3
G1X-0.1S0
G1X-0.1S191.3
G1X-0.1S0
G1X-0.2S191.3
G1X-0.1S0
G1X-0.2S191.3
G1X-0.1S0
G1X-0.1S191.3
G1X-0.2Y0.1S0
G1X0.1S191.3
G1X0.1S0
G1X0.1S191.3
G1X0.1S0
G1X0.2S191.3
G1X0.1S0
G1X0.1S191.3
G1X0.1S0
G1X0.2S191.3
G1X0.1S0
G1X0.2S191.3
G1X0.1S0
G1X0.2S191.3
G1X0.1S0
G1X0.2S191.3
G1X0.1S0
G1X0.1S191.3
G1X0.1S0
G1X0.2S191.3
G1X0.1S0
G1X0.2S191.3
G1X0.2S0
G1X0.1S191.3
G1X0.2S0
G1X0.1S191.3
G1X0.3S0
G1X0.1S191.3
G1X0.3S0
G1X0.1S191.3
G1X0.2S0
G1X0.1S191.3
G1X0.5S0
G1X0.1S191.3
G1X0.5S0
G1X0.1S191.3
G1X0.1S0
G1X0.2S191.3
G1X0.4S0
G1X0.7S191.3
G1X0.1S0
G1X0.2S191.3
G1X0.1S0
G1X0.8S191.3
G1X0.2S0
G1X0.1S191.3
G1X0.2S0
G1X0.1S191.3
G1X0.3S0
G1X0.1S191.3
G1X0.4S0
G1X0.2S191.3
G1X0.1S0
G1X0.1S191.3
G1X0.3S0
G1X0.2S191.3
G1X0.1S0
G1X0.1S191.3
G1X0.1S0
G1X0.2S191.3
G1X0.2S0
G1X0.1S191.3
G1X0.2S0
G1X0.1S191.3
G1X0.1S0
G1X0.2S191.3
G1X0.1S0
G1X0.1S191.3
G1X0.2S0
G1X0.2S191.3
G1X0.1S0
G1X0.2S191.3
G1X0.2S0
G1X0.2S191.3
G1X0.2Y0.1S0
G1X-0.2S191.3
G1X-0.1S0
G1X-0.1S191.3
G1X-0.1S0
G1X-0.2S191.3
G1X-0.2S0
G1X-0.1S191.3
G1X-0.2S0
G1X-0.2S191.3
G1X-0.1S0
G1X-0.1S191.3
G1X-0.2S0
G1X-0.2S191.3
G1X-0.1S0
G1X-0.2S191.3
G1X-0.1S0
G1X-0.2S191.3
G1X-0.1S0
G1X-0.2S191.3
G1X-0.5S0
G1X-0.1S191.3
G1X-0.5S0
