; LightBurn 0.9.24
; GRBL device profile, current position
; Bounds: X0 Y-98.12 to X65.14 Y-0.06
G00 G17 G40 G21 G54
G91
M4
; Scan @ 25.4 mm/sec, 100% power
M8
G0X31.45Y-94.36
; Layer 5mm Ply
G1X0.25F1524S255
G1X1.02S0
G1X0.53S255
G1X0.72S0
G1X0.25S255
G1X0.62S0
G1X0.25S255
G1X0.62S0
G1X0.25S255
G1X0.37S0
G1X0.24S255
G1X0.63S0
G1X0.24S255
G1X0.62S0
G1X0.25S255
G1Y0.1S0
G1X-0.25S255
G1X-0.62S0
G1X-0.24S255
G1X-0.63S0
G1X-0.24S255
G1X-0.37S0
G1X-0.25S255
G1X-0.62S0
G1X-0.25S255
G1X-0.62S0
G1X-0.25S255
G1X-0.57S0
G1X-0.81S255
G1X-0.89S0
G1X-0.25S255
G1Y0.1S0
G1X0.25S255
G1X0.81S0
G1X0.31S255
G1X0.35S0
G1X0.32S255
G1X0.48S0
G1X0.25S255
G1X0.62S0
G1X0.25S255
G1X0.62S0
G1X0.25S255
G1X0.37S0
G1X0.24S255
G1X0.63S0
G1X0.24S255
G1X0.62S0
G1X0.25S255
G1Y0.1S0
G1X-0.25S255
G1X-0.62S0
G1X-0.24S255
G1X-0.63S0
G1X-0.24S255
G1X-0.37S0
G1X-0.25S255
G1X-0.62S0
G1X-0.25S255
G1X-0.62S0
G1X-0.25S255
G1X-0.43S0
G1X-0.27S255
G1X-0.56S0
G1X-0.26S255
G1X-0.75S0
G1X-0.25S255
G1Y0.1S0
G1X0.25S255
G1X0.71S0
G1X0.25S255
G1X0.67S0
G1X0.25S255
G1X0.39S0
G1X0.25S255
G1X0.62S0
G1X0.25S255
G1X0.62S0
G1X0.25S255
G1X0.37S0
G1X0.24S255
G1X0.63S0
G1X0.24S255
G1X0.62S0
G1X0.25S255
G1Y0.1S0
G1X-0.25S255
G1X-0.62S0
G1X-0.24S255
G1X-0.63S0
G1X-0.24S255
G1X-0.37S0
G1X-0.25S255
G1X-0.62S0
G1X-0.25S255
G1X-0.62S0
G1X-0.25S255
G1X-0.37S0
G1X-0.25S255
G1X-0.72S0
G1X-0.25S255
G1X-0.68S0
G1X-0.25S255
G1Y0.1S0
G1X0.25S255
G1X0.67S0
G1X0.24S255
G1X0.76S0
G1X0.25S255
G1X0.35S0
G1X0.25S255
G1X0.62S0
G1X0.25S255
G1X0.62S0
G1X0.25S255
G1X0.37S0
G1X0.24S255
G1X0.63S0
G1X0.24S255
G1X0.62S0
G1X0.25S255
G1Y0.1S0
G1X-0.25S255
G1X-0.62S0
G1X-0.24S255
G1X-0.63S0
G1X-0.24S255
G1X-0.37S0
G1X-0.25S255
G1X-0.62S0
G1X-0.25S255
G1X-0.62S0
G1X-0.25S255
G1X-0.33S0
G1X-0.25S255
G1X-0.79S0
G1X-0.25S255
G1X-0.65S0
G1X-0.25S255
G1Y0.1S0
G1X0.25S255
G1X0.64S0
G1X0.26S255
G1X0.79S0
G1X0.25S255
G1X0.33S0
G1X0.26S255
G1X0.61S0
G1X0.25S255
G1X0.62S0
G1X0.25S255
G1X0.37S0
G1X0.25S255
G1X0.62S0
G1X0.24S255
G1X0.62S0
G1X0.25S255
G1Y0.1S0
G1X-0.25S255
G1X-0.61S0
G1X-0.25S255
G1X-0.62S0
G1X-0.25S255
G1X-0.37S0
G1X-0.25S255
G1X-0.61S0
G1X-0.26S255
G1X-0.61S0
G1X-0.26S255
G1X-0.32S0
G1X-0.25S255
G1X-0.81S0
G1X-0.25S255
G1X-0.64S0
G1X-0.25S255
G1Y0.1S0
G1X0.25S255
G1X0.64S0
G1X0.25S255
G1X0.81S0
G1X0.25S255
G1X0.32S0
G1X0.28S255
G1X0.59S0
G1X0.28S255
G1X0.59S0
G1X0.25S255
G1X0.37S0
G1X0.27S255
G1X0.59S0
G1X0.28S255
G1X0.59S0
G1X0.25S255
G1X-0.01Y0.1S0
G1X-0.26S255
G1X-0.53S0
G1X-0.34S255
G1X-0.52S0
G1X-0.32S255
G1X-0.38S0
G1X-0.26S255
G1X-0.53S0
G1X-0.34S255
G1X-0.52S0
G1X-0.33S255
G1X-0.32S0
G1X-0.26S255
G1X-0.79S0
G1X-0.26S255
G1X-0.64S0
G1X-0.25S255
G1Y0.1S0
G1X0.25S255
G1X0.65S0
G1X0.25S255
G1X0.79S0
G1X0.25S255
G1X0.33S0
G1X0.42S255
G1X0.36S0
G1X0.51S255
G1X0.36S0
G1X0.31S255
G1X0.4S0
G1X0.41S255
G1X0.36S0
G1X0.52S255
G1X0.35S0
G1X0.31S255
G1X-0.05Y0.1S0
G1X-0.75S255
G1X-0.12S0
G1X-0.76S255
G1X-0.05S0
G1X-0.22S255
G1X-0.45S0
G1X-0.76S255
G1X-0.11S0
G1X-0.76S255
G1X-0.05S0
G1X-0.23S255
G1X-0.34S0
G1X-0.25S255
G1X-0.77S0
G1X-0.25S255
G1X-0.66S0
G1X-0.25S255
G1X-0.39S0
G1X-0.1S255
G1Y0.1S0
G1X0.28S255
G1X0.21S0
G1X0.25S255
G1X0.68S0
G1X0.25S255
G1X0.74S0
G1X0.25S255
G1X0.35S0
G1X0.23S255
G1X0.17S0
G1X0.54S255
G1X0.33S0
G1X0.52S255
G1X0.57S0
G1X0.22S255
G1X0.17S0
G1X0.54S255
G1X0.34S0
G1X0.51S255
G1X-4.52Y0.1S0
G1X-0.25S255
G1X-0.69S0
G1X-0.25S255
G1X-0.7S0
G1X-0.25S255
G1X-0.06S0
G1X-0.43S255
G1X0.18Y0.1S0
G1X0.56S255
G1X0.73S0
G1X0.26S255
G1X0.61S0
G1X0.26S255
G1X-0.05Y0.1S0
G1X-0.29S255
G1X-0.46S0
G1X-0.28S255
G1X-0.78S0
G1X-0.42S255
G1X0.11Y0.1S0
G1X0.31S255
G1X0.85S0
G1X0.89S255
G1X-0.11Y0.1S0
G1X-0.67S255
G1X-0.96S0
G1X-0.23S255
G1X0.07Y0.1S0
G1X0.16S255
G1X1.28S0
G1X0.04S255
G1X22.05Y7.1S0
G1X-0.38S255
G1Y0.1S0
G1X0.38S255
G1Y0.1S0
G1X-0.38S255
G1Y0.1S0
G1X0.38S255
G1Y0.1S0
G1X-0.38S255
G1Y0.1S0
G1X0.38S255
G1Y0.1S0
G1X-0.38S255
G1Y0.1S0
G1X0.38S255
G1X2.73Y0.1S0
G1X-0.31S255
G1X-1.61S0
G1X-0.45S255
G1X-0.36S0
G1X-0.38S255
G1X-7.02S0
G1X-0.58S255
G1X-4.74S0
G1X-0.6S255
G1X-2.07S0
G1X-0.31S255
G1X-3.98S0
G1X-0.55S255
G1X-10.94S0
G1X-0.57S255
G1X-1.07S0
G1X-0.31S255
G1X-0.87S0
G1X-0.31S255
G1X-8.06S0
G1X-0.61S255
G1X-3.62S0
G1X-0.61S255
G1X-5.53Y0.1S0
G1X0.4S255
G1X1.37S0
G1X0.37S255
G1X1.04S0
G1X0.38S255
G1X0.56S0
G1X0.38S255
G1X0.77S0
G1X1.12S255
G1X1.97S0
G1X0.37S255
G1X0.77S0
G1X1.12S255
G1X2.35S0
G1X0.43S255
G1X0.84S0
G1X0.43S255
G1X0.97S0
G1X0.37S255
G1X1.05S0
G1X0.37S255
G1X0.77S0
G1X0.65S255
G1X0.53S0
G1X0.65S255
G1X0.69S0
G1X1.09S255
G1X0.89S0
G1X0.37S255
G1X1.04S0
G1X0.38S255
G1X1.75S0
G1X0.37S255
G1X0.56S0
G1X0.38S255
G1X1.04S0
G1X0.37S255
G1X1.83S0
G1X0.37S255
G1X1.08S0
G1X1.06S255
G1X0.93S0
G1X0.38S255
G1X1.04S0
G1X0.37S255
G1X0.78S0
G1X0.64S255
G1X1.71S0
G1X1.12S255
G1X0.79S0
G1X0.37S255
G1X0.37S0
G1X1.95S255
G1X0.74S0
G1X1.09S255
G1X2.99S0
G1X0.37S255
G1X0.92S0
G1X1.99S255
G1X0.5S0
G1X0.38S255
G1X0.16S0
G1X0.88S255
G1X1.15S0
G1X0.64S255
G1X0.43S0
G1X0.42S255
G1Y0.1S0
G1X-0.42S255
G1X-0.44S0
G1X-0.72S255
G1X-0.92S0
G1X-1.14S255
G1X-0.04S0
G1X-0.38S255
G1X-0.5S0
G1X-1.98S255
G1X-0.93S0
G1X-0.37S255
G1X-2.85S0
G1X-1.37S255
G1X-0.6S0
G1X-1.95S255
G1X-0.37S0
G1X-0.37S255
G1X-0.65S0
G1X-1.39S255
G1X-1.59S0
G1X-0.71S255
G1X-0.7S0
G1X-0.37S255
G1X-1.04S0
G1X-0.38S255
G1X-0.79S0
G1X-1.34S255
G1X-0.94S0
G1X-0.37S255
G1X-1.83S0
G1X-0.37S255
G1X-1.04S0
G1X-0.38S255
G1X-0.56S0
G1X-0.37S255
G1X-1.75S0
G1X-0.38S255
G1X-1.04S0
G1X-0.37S255
G1X-0.75S0
G1X-1.37S255
G1X-0.57S0
G1X-0.71S255
G1X-0.47S0
G1X-0.71S255
G1X-0.69S0
G1X-0.37S255
G1X-1.05S0
G1X-0.37S255
G1X-0.93S0
G1X-0.5S255
G1X-0.78S0
G1X-0.49S255
G1X-2.18S0
G1X-1.38S255
G1X-0.65S0
G1X-0.37S255
G1X-1.83S0
G1X-1.39S255
G1X-0.64S0
G1X-0.38S255
G1X-0.56S0
G1X-0.38S255
G1X-1.04S0
G1X-0.37S255
G1X-1.37S0
G1X-0.4S255
G1Y0.1S0
G1X0.4S255
G1X1.37S0
G1X0.37S255
G1X1.04S0
G1X0.38S255
G1X0.56S0
G1X0.38S255
G1X0.56S0
G1X0.57S255
G1X0.45S0
G1X0.54S255
G1X1.74S0
G1X0.37S255
G1X0.56S0
G1X0.58S255
G1X0.44S0
G1X0.54S255
G1X2.06S0
G1X0.55S255
G1X0.73S0
G1X0.55S255
G1X0.9S0
G1X0.37S255
G1X1.05S0
G1X0.37S255
G1X0.66S0
G1X0.73S255
G1X0.44S0
G1X0.73S255
G1X0.49S0
G1X0.61S255
G1X0.37S0
G1X0.59S255
G1X0.65S0
G1X0.37S255
G1X1.04S0
G1X0.38S255
G1X1.75S0
G1X0.37S255
G1X0.56S0
G1X0.38S255
G1X1.04S0
G1X0.37S255
G1X1.83S0
G1X0.37S255
G1X0.84S0
G1X0.59S255
G1X0.36S0
G1X0.6S255
G1X0.68S0
G1X0.38S255
G1X1.04S0
G1X0.37S255
G1X0.66S0
G1X0.73S255
G1X1.53S0
G1X0.57S255
G1X0.45S0
G1X0.54S255
G1X0.56S0
G1X0.37S255
G1X0.37S0
G1X1.95S255
G1X0.49S0
G1X0.61S255
G1X0.38S0
G1X0.58S255
G1X2.76S0
G1X0.37S255
G1X0.97S0
G1X1.94S255
G1X0.5S0
G1X0.77S255
G1X0.32S0
G1X0.56S255
G1X0.8S0
G1X0.73S255
G1X0.46S0
G1X0.42S255
G1Y0.1S0
G1X-0.42S255
G1X-0.8S0
G1X-0.4S255
G1X-0.72S0
G1X-0.45S255
G1X-0.68S0
G1X-0.59S255
G1X-1.97S0
G1X-0.43S255
G1X-1.01S0
G1X-0.37S255
G1X-2.68S0
G1X-0.48S255
G1X-0.75S0
G1X-0.49S255
G1X-1.83S0
G1X-0.47S255
G1X-0.44S0
G1X-0.37S255
G1X-0.51S0
G1X-0.42S255
G1X-0.81S0
G1X-0.44S255
G1X-1.81S0
G1X-0.4S255
G1X-0.65S0
G1X-0.37S255
G1X-1.04S0
G1X-0.38S255
G1X-0.61S0
G1X-0.48S255
G1X-0.74S0
G1X-0.48S255
G1X-0.76S0
G1X-0.37S255
G1X-1.83S0
G1X-0.37S255
G1X-1.04S0
G1X-0.38S255
G1X-0.56S0
G1X-0.37S255
G1X-1.75S0
G1X-0.38S255
G1X-1.04S0
G1X-0.37S255
G1X-0.58S0
G1X-0.48S255
G1X-0.75S0
G1X-0.49S255
G1X-0.75S0
G1X-0.4S255
G1X-0.78S0
G1X-0.4S255
G1X-0.64S0
G1X-0.37S255
G1X-1.05S0
G1X-0.37S255
G1X-0.87S0
G1X-0.61S255
G1X-0.68S0
G1X-0.6S255
G1X-1.98S0
G1X-0.42S255
G1X-0.8S0
G1X-0.45S255
G1X-0.5S0
G1X-0.37S255
G1X-1.69S0
G1X-0.42S255
G1X-0.8S0
G1X-0.45S255
G1X-0.5S0
G1X-0.38S255
G1X-0.56S0
G1X-0.38S255
G1X-1.04S0
G1X-0.37S255
G1X-1.37S0
G1X-0.4S255
G1Y0.1S0
G1X0.4S255
G1X1.37S0
G1X0.37S255
G1X1.04S0
G1X0.38S255
G1X0.56S0
G1X0.38S255
G1X0.46S0
G1X0.41S255
G1X0.96S0
G1X0.38S255
G1X1.65S0
G1X0.37S255
G1X0.46S0
G1X0.41S255
G1X0.96S0
G1X0.39S255
G1X1.9S0
G1X0.33S255
G1X0.01S0
G1X0.32S255
G1X0.62S0
G1X0.67S255
G1X0.84S0
G1X0.37S255
G1X1.05S0
G1X0.37S255
G1X0.64S0
G1X0.37S255
G1X0.8S0
G1X0.38S255
G1X0.73S0
G1X0.44S255
G1X0.94S0
G1X0.44S255
G1X0.53S0
G1X0.37S255
G1X1.04S0
G1X0.38S255
G1X1.75S0
G1X0.37S255
G1X0.56S0
G1X0.38S255
G1X1.04S0
G1X0.37S255
G1X1.83S0
G1X0.37S255
G1X0.71S0
G1X0.43S255
G1X0.94S0
G1X0.44S255
G1X0.55S0
G1X0.38S255
G1X1.04S0
G1X0.37S255
G1X0.64S0
G1X0.37S255
G1X1.81S0
G1X0.41S255
G1X0.96S0
G1X0.38S255
G1X0.47S0
G1X0.37S255
G1X0.53S0
G1X0.47S255
G1X1.69S0
G1X0.43S255
G1X0.95S0
G1X0.44S255
G1X2.63S0
G1X0.37S255
G1X1.07S0
G1X0.45S255
G1X1.89S0
G1X0.5S255
G1X0.87S0
G1X0.41S255
G1X0.65S0
G1X0.37S255
G1Y0.1S0
G1X-0.37S255
G1X-0.62S0
G1X-0.38S255
G1X-1S0
G1X-0.43S255
G1X-1.8S0
G1X-0.47S255
G1X-1.14S0
G1X-0.37S255
G1X-2.59S0
G1X-0.42S255
G1X-1.08S0
G1X-0.41S255
G1X-1.56S0
G1X-0.46S255
G1X-0.62S0
G1X-0.37S255
G1X-0.45S0
G1X-0.38S255
G1X-1.03S0
G1X-0.39S255
G1X-1.78S0
G1X-0.37S255
G1X-0.64S0
G1X-0.37S255
G1X-1.04S0
G1X-0.38S255
G1X-0.51S0
G1X-0.41S255
G1X-1.08S0
G1X-0.41S255
G1X-0.66S0
G1X-0.37S255
G1X-1.83S0
G1X-0.37S255
G1X-1.04S0
G1X-0.38S255
G1X-0.56S0
G1X-0.37S255
G1X-1.75S0
G1X-0.38S255
G1X-1.04S0
G1X-0.37S255
G1X-0.49S0
G1X-0.42S255
G1X-1.07S0
G1X-0.42S255
G1X-0.69S0
G1X-0.37S255
G1X-0.8S0
G1X-0.37S255
G1X-0.64S0
G1X-0.37S255
G1X-1.05S0
G1X-0.37S255
G1X-0.81S0
G1X-0.34S255
G1X-0.04S0
G1X-0.34S255
G1X-0.57S0
G1X-0.32S255
G1X-0.07S0
G1X-0.33S255
G1X-1.86S0
G1X-0.38S255
G1X-1.03S0
G1X-0.39S255
G1X-0.43S0
G1X-0.37S255
G1X-1.63S0
G1X-0.38S255
G1X-1.03S0
G1X-0.39S255
G1X-0.43S0
G1X-0.38S255
G1X-0.56S0
G1X-0.38S255
G1X-1.04S0
G1X-0.37S255
G1X-1.37S0
G1X-0.4S255
G1Y0.1S0
G1X0.4S255
G1X1.37S0
G1X0.37S255
G1X1.04S0
G1X0.38S255
G1X0.56S0
G1X0.38S255
G1X0.6S0
G1X0.19S255
G1X1.05S0
G1X0.39S255
G1X1.63S0
G1X0.37S255
G1X0.6S0
G1X0.19S255
G1X1.05S0
G1X0.4S255
G1X1.81S0
G1X0.34S255
G1X0.12S0
G1X0.32S255
G1X0.52S0
G1X0.34S255
G1X0.1S0
G1X0.34S255
G1X0.78S0
G1X0.37S255
G1X1.05S0
G1X0.37S255
G1X0.63S0
G1X0.37S255
G1X0.81S0
G1X0.37S255
G1X0.67S0
G1X0.39S255
G1X1.17S0
G1X0.19S255
G1X0.67S0
G1X0.37S255
G1X1.04S0
G1X0.38S255
G1X1.75S0
G1X0.37S255
G1X0.56S0
G1X0.38S255
G1X1.04S0
G1X0.37S255
G1X1.83S0
G1X0.37S255
G1X0.63S0
G1X0.4S255
G1X1.16S0
G1X0.4S255
G1X0.48S0
G1X0.38S255
G1X1.04S0
G1X0.37S255
G1X0.64S0
G1X0.37S255
G1X1.95S0
G1X0.19S255
G1X1.04S0
G1X0.4S255
G1X0.45S0
G1X0.37S255
G1X0.71S0
G1X0.46S255
G1X1.44S0
G1X0.4S255
G1X1.17S0
G1X0.19S255
G1X2.77S0
G1X0.37S255
G1X1.22S0
G1X0.5S255
G1X1.69S0
G1X0.4S255
G1X1.07S0
G1X0.38S255
G1X0.58S0
G1X0.37S255
G1Y0.1S0
G1X-0.37S255
G1X-0.55S0
G1X-0.38S255
G1X-1.13S0
G1X-0.37S255
G1X-1.58S0
G1X-0.51S255
G1X-1.32S0
G1X-0.37S255
G1X-4.16S0
G1X-0.39S255
G1X-1.33S0
G1X-0.47S255
G1X-0.79S0
G1X-0.37S255
G1X-0.46S0
G1X-0.46S255
G1X-3.11S0
G1X-0.37S255
G1X-0.64S0
G1X-0.37S255
G1X-1.04S0
G1X-0.38S255
G1X-0.46S0
G1X-0.39S255
G1X-1.22S0
G1X-0.39S255
G1X-0.61S0
G1X-0.37S255
G1X-1.83S0
G1X-0.37S255
G1X-1.04S0
G1X-0.38S255
G1X-0.56S0
G1X-0.37S255
G1X-1.75S0
G1X-0.38S255
G1X-1.04S0
G1X-0.37S255
G1X-2.06S0
G1X-0.39S255
G1X-0.64S0
G1X-0.37S255
G1X-0.81S0
G1X-0.37S255
G1X-0.63S0
G1X-0.37S255
G1X-1.05S0
G1X-0.37S255
G1X-0.75S0
G1X-0.34S255
G1X-0.15S0
G1X-0.35S255
G1X-0.46S0
G1X-0.32S255
G1X-0.17S0
G1X-0.35S255
G1X-1.8S0
G1X-0.45S255
G1X-1.77S0
G1X-0.37S255
G1X-1.64S0
G1X-0.46S255
G1X-1.76S0
G1X-0.38S255
G1X-0.56S0
G1X-0.38S255
G1X-1.04S0
G1X-0.37S255
G1X-1.37S0
G1X-0.4S255
G1Y0.1S0
G1X0.4S255
G1X1.37S0
G1X0.37S255
G1X1.04S0
G1X0.38S255
G1X0.56S0
G1X0.38S255
G1X1.53S0
G1X0.65S255
G1X1.68S0
G1X0.37S255
G1X1.54S0
G1X0.65S255
G1X1.8S0
G1X0.35S255
G1X0.22S0
G1X0.33S255
G1X0.41S0
G1X0.34S255
G1X0.21S0
G1X0.34S255
G1X0.72S0
G1X0.37S255
G1X1.05S0
G1X0.37S255
G1X0.63S0
G1X0.37S255
G1X0.81S0
G1X0.37S255
G1X0.63S0
G1X0.38S255
G1X2.08S0
G1X0.37S255
G1X1.04S0
G1X0.38S255
G1X1.75S0
G1X0.37S255
G1X0.56S0
G1X0.38S255
G1X1.04S0
G1X0.37S255
G1X1.83S0
G1X0.37S255
G1X0.6S0
G1X0.38S255
G1X1.26S0
G1X0.38S255
G1X0.45S0
G1X0.38S255
G1X1.04S0
G1X0.37S255
G1X0.64S0
G1X0.37S255
G1X2.88S0
G1X0.65S255
G1X0.5S0
G1X0.37S255
G1X0.88S0
G1X0.46S255
G1X1.24S0
G1X0.38S255
G1X4.18S0
G1X0.37S255
G1X1.41S0
G1X0.54S255
G1X1.46S0
G1X0.35S255
G1X1.16S0
G1X0.38S255
G1X0.54S0
G1X0.37S255
G1Y0.1S0
G1X-0.37S255
G1X-0.53S0
G1X-0.38S255
G1X-1.17S0
G1X-0.35S255
G1X-1.35S0
G1X-0.53S255
G1X-1.53S0
G1X-0.37S255
G1X-4.19S0
G1X-0.38S255
G1X-1.14S0
G1X-0.46S255
G1X-0.97S0
G1X-0.37S255
G1X-0.55S0
G1X-0.97S255
G1X-2.51S0
G1X-0.37S255
G1X-0.64S0
G1X-0.37S255
G1X-1.04S0
G1X-0.38S255
G1X-0.44S0
G1X-0.38S255
G1X-1.28S0
G1X-0.38S255
G1X-0.59S0
G1X-0.37S255
G1X-1.83S0
G1X-0.37S255
G1X-1.04S0
G1X-0.38S255
G1X-0.56S0
G1X-0.37S255
G1X-1.75S0
G1X-0.38S255
G1X-1.04S0
G1X-0.37S255
G1X-2.09S0
G1X-0.38S255
G1X-0.62S0
G1X-0.37S255
G1X-0.81S0
G1X-0.37S255
G1X-0.63S0
G1X-0.37S255
G1X-1.05S0
G1X-0.37S255
G1X-0.68S0
G1X-0.35S255
G1X-0.26S0
G1X-0.35S255
G1X-0.36S0
G1X-0.32S255
G1X-0.28S0
G1X-0.35S255
G1X-1.83S0
G1X-0.97S255
G1X-1.16S0
G1X-0.37S255
G1X-1.73S0
G1X-0.97S255
G1X-1.16S0
G1X-0.38S255
G1X-0.56S0
G1X-0.38S255
G1X-1.04S0
G1X-0.37S255
G1X-1.37S0
G1X-0.4S255
G1Y0.1S0
G1X0.4S255
G1X1.37S0
G1X0.37S255
G1X1.04S0
G1X0.38S255
G1X0.56S0
G1X0.38S255
G1X0.85S0
G1X1.18S255
G1X1.83S0
G1X0.37S255
G1X0.86S0
G1X1.17S255
G1X1.9S0
G1X0.35S255
G1X0.34S0
G1X0.32S255
G1X0.3S0
G1X0.35S255
G1X0.32S0
G1X0.35S255
G1X0.65S0
G1X0.37S255
G1X1.05S0
G1X0.37S255
G1X0.63S0
G1X0.37S255
G1X0.81S0
G1X0.37S255
G1X0.61S0
G1X2.03S255
G1X0.45S0
G1X0.37S255
G1X1.04S0
G1X0.38S255
G1X1.75S0
G1X0.37S255
G1X0.56S0
G1X0.38S255
G1X1.04S0
G1X0.37S255
G1X1.83S0
G1X0.37S255
G1X0.58S0
G1X0.39S255
G1X1.28S0
G1X0.39S255
G1X0.43S0
G1X0.38S255
G1X1.04S0
G1X0.37S255
G1X0.64S0
G1X0.37S255
G1X2.2S0
G1X1.18S255
G1X0.65S0
G1X0.37S255
G1X1.05S0
G1X0.46S255
G1X1.05S0
G1X2.02S255
G1X2.56S0
G1X0.37S255
G1X1.64S0
G1X0.54S255
G1X1.23S0
G1X0.34S255
G1X1.19S0
G1X0.38S255
G1X0.52S0
G1X0.37S255
G1Y0.1S0
G1X-0.37S255
G1X-0.53S0
G1X-0.37S255
G1X-1.18S0
G1X-0.35S255
G1X-1.12S0
G1X-0.53S255
G1X-1.76S0
G1X-0.37S255
G1X-2.56S0
G1X-2.01S255
G1X-0.97S0
G1X-0.46S255
G1X-1.14S0
G1X-0.37S255
G1X-0.85S0
G1X-1.15S255
G1X-2.03S0
G1X-0.37S255
G1X-0.64S0
G1X-0.37S255
G1X-1.04S0
G1X-0.38S255
G1X-0.44S0
G1X-0.38S255
G1X-1.28S0
G1X-0.38S255
G1X-0.59S0
G1X-0.37S255
G1X-1.83S0
G1X-0.37S255
G1X-1.04S0
G1X-0.38S255
G1X-0.56S0
G1X-0.37S255
G1X-1.75S0
G1X-0.38S255
G1X-1.04S0
G1X-0.37S255
G1X-0.46S0
G1X-2.01S255
G1X-0.62S0
G1X-0.37S255
G1X-0.81S0
G1X-0.37S255
G1X-0.63S0
G1X-0.37S255
G1X-1.04S0
G1X-0.38S255
G1X-0.62S0
G1X-0.35S255
G1X-0.38S0
G1X-0.34S255
G1X-0.26S0
G1X-0.32S255
G1X-0.38S0
G1X-0.36S255
G1X-2.06S0
G1X-1.16S255
G1X-0.68S0
G1X-0.37S255
G1X-2.03S0
G1X-1.15S255
G1X-0.68S0
G1X-0.38S255
G1X-0.56S0
G1X-0.38S255
G1X-1.04S0
G1X-0.37S255
G1X-1.37S0
G1X-0.4S255
G1Y0.1S0
G1X0.4S255
G1X1.37S0
G1X0.38S255
G1X1.03S0
G1X0.38S255
G1X0.56S0
G1X0.38S255
G1X0.58S0
G1X0.94S255
G1X2.34S0
G1X0.37S255
G1X0.59S0
G1X0.94S255
G1X2.34S0
G1X0.36S255
G1X0.44S0
G1X0.32S255
G1X0.2S0
G1X0.35S255
G1X0.43S0
G1X0.35S255
G1X0.59S0
G1X0.38S255
G1X1.04S0
G1X0.37S255
G1X0.63S0
G1X0.37S255
G1X0.81S0
G1X0.37S255
G1X0.63S0
G1X2S255
G1X0.46S0
G1X0.38S255
G1X1.03S0
G1X0.38S255
G1X1.75S0
G1X0.37S255
G1X0.56S0
G1X0.38S255
G1X1.04S0
G1X0.37S255
G1X1.83S0
G1X0.37S255
G1X0.6S0
G1X0.38S255
G1X1.27S0
G1X0.38S255
G1X0.44S0
G1X0.38S255
G1X1.04S0
G1X0.37S255
G1X0.64S0
G1X0.37S255
G1X1.93S0
G1X0.94S255
G1X1.16S0
G1X0.37S255
G1X1.23S0
G1X0.45S255
G1X0.9S0
G1X1.99S255
G1X2.57S0
G1X0.37S255
G1X1.88S0
G1X0.52S255
G1X1.01S0
G1X0.35S255
G1X1.17S0
G1X0.38S255
G1X0.53S0
G1X0.37S255
G1Y0.1S0
G1X-0.37S255
G1X-0.54S0
G1X-0.38S255
G1X-1.14S0
G1X-0.37S255
G1X-0.91S0
G1X-0.51S255
G1X-1.99S0
G1X-0.37S255
G1X-2.58S0
G1X-0.38S255
G1X-1.2S0
G1X-0.39S255
G1X-0.82S0
G1X-0.45S255
G1X-1.32S0
G1X-0.37S255
G1X-1.52S0
G1X-0.63S255
G1X-1.88S0
G1X-0.37S255
G1X-0.64S0
G1X-0.38S255
G1X-1.02S0
G1X-0.39S255
G1X-0.45S0
G1X-0.39S255
G1X-1.24S0
G1X-0.39S255
G1X-0.6S0
G1X-0.37S255
G1X-1.83S0
G1X-0.38S255
G1X-1.02S0
G1X-0.39S255
G1X-0.56S0
G1X-0.37S255
G1X-1.75S0
G1X-0.38S255
G1X-1.02S0
G1X-0.39S255
G1X-0.48S0
G1X-0.38S255
G1X-1.2S0
G1X-0.39S255
G1X-0.64S0
G1X-0.37S255
G1X-0.81S0
G1X-0.37S255
G1X-0.63S0
G1X-0.37S255
G1X-1.03S0
G1X-0.39S255
G1X-0.56S0
G1X-0.35S255
G1X-0.49S0
G1X-0.34S255
G1X-0.15S0
G1X-0.32S255
G1X-0.5S0
G1X-0.36S255
G1X-2.67S0
G1X-0.64S255
G1X-0.53S0
G1X-0.37S255
G1X-2.7S0
G1X-0.63S255
G1X-0.53S0
G1X-0.38S255
G1X-0.56S0
G1X-0.38S255
G1X-1.03S0
G1X-0.38S255
G1X-1.37S0
G1X-0.4S255
G1Y0.1S0
G1X0.4S255
G1X1.37S0
G1X0.4S255
G1X1.01S0
G1X0.37S255
G1X0.57S0
G1X0.38S255
G1X0.49S0
G1X0.43S255
G1X2.94S0
G1X0.37S255
G1X0.5S0
G1X0.43S255
G1X2.88S0
G1X0.36S255
G1X0.56S0
G1X0.31S255
G1X0.1S0
G1X0.35S255
G1X0.54S0
G1X0.35S255
G1X0.53S0
G1X0.41S255
G1X1.01S0
G1X0.37S255
G1X0.63S0
G1X0.37S255
G1X0.81S0
G1X0.37S255
G1X0.67S0
G1X0.38S255
G1X1.16S0
G1X0.38S255
G1X0.5S0
G1X0.4S255
G1X1.01S0
G1X0.37S255
G1X1.76S0
G1X0.37S255
G1X0.56S0
G1X0.41S255
G1X1S0
G1X0.37S255
G1X1.84S0
G1X0.37S255
G1X0.63S0
G1X0.39S255
G1X1.18S0
G1X0.39S255
G1X0.48S0
G1X0.41S255
G1X1S0
G1X0.38S255
G1X0.64S0
G1X0.37S255
G1X1.84S0
G1X0.43S255
G1X1.76S0
G1X0.37S255
G1X1.4S0
G1X0.45S255
G1X0.76S0
G1X0.39S255
G1X1.16S0
G1X0.38S255
G1X2.6S0
G1X0.37S255
G1X2.1S0
G1X0.49S255
G1X0.82S0
G1X0.4S255
G1X1.09S0
G1X0.37S255
G1X0.57S0
G1X0.37S255
G1Y0.1S0
G1X-0.37S255
G1X-0.6S0
G1X-0.38S255
G1X-1.01S0
G1X-0.44S255
G1X-0.74S0
G1X-0.47S255
G1X-2.2S0
G1X-0.37S255
G1X-2.62S0
G1X-0.39S255
G1X-1.1S0
G1X-0.39S255
G1X-0.7S0
G1X-0.45S255
G1X-1.49S0
G1X-0.37S255
G1X-0.85S0
G1X-0.04S255
G1X-0.94S0
G1X-0.37S255
G1X-1.83S0
G1X-0.37S255
G1X-0.65S0
G1X-0.39S255
G1X-0.96S0
G1X-0.43S255
G1X-0.5S0
G1X-0.41S255
G1X-1.1S0
G1X-0.4S255
G1X-0.66S0
G1X-0.37S255
G1X-1.84S0
G1X-0.39S255
G1X-0.96S0
G1X-0.43S255
G1X-0.56S0
G1X-0.37S255
G1X-1.76S0
G1X-0.39S255
G1X-0.96S0
G1X-0.43S255
G1X-0.52S0
G1X-0.39S255
G1X-1.09S0
G1X-0.4S255
G1X-0.69S0
G1X-0.37S255
G1X-0.81S0
G1X-0.37S255
G1X-0.63S0
G1X-0.37S255
G1X-0.98S0
G1X-0.44S255
G1X-0.5S0
G1X-0.35S255
G1X-0.6S0
G1X-0.34S255
G1X-0.05S0
G1X-0.32S255
G1X-0.6S0
G1X-0.37S255
G1X-1.95S0
G1X-0.04S255
G1X-0.94S0
G1X-0.37S255
G1X-0.48S0
G1X-0.37S255
G1X-2.03S0
G1X-0.04S255
G1X-0.94S0
G1X-0.37S255
G1X-0.48S0
G1X-0.38S255
G1X-0.58S0
G1X-0.38S255
G1X-0.96S0
G1X-0.43S255
G1X-1.37S0
G1X-0.4S255
G1Y0.1S0
G1X0.4S255
G1X1.37S0
G1X0.48S255
G1X0.88S0
G1X0.4S255
G1X0.59S0
G1X0.38S255
G1X0.48S0
G1X0.36S255
G1X0.92S0
G1X0.38S255
G1X1.72S0
G1X0.37S255
G1X0.49S0
G1X0.36S255
G1X0.91S0
G1X0.38S255
G1X1.61S0
G1X0.37S255
G1X0.66S0
G1X0.32S255
G1X0.33
G1X0.66S0
G1X0.35S255
G1X0.47S0
G1X0.48S255
G1X0.94S0
G1X0.37S255
G1X0.63S0
G1X0.37S255
G1X0.81S0
G1X0.37S255
G1X0.74S0
G1X0.4S255
G1X0.99S0
G1X0.39S255
G1X0.57S0
G1X0.48S255
G1X0.89S0
G1X0.4S255
G1X1.77S0
G1X0.37S255
G1X0.56S0
G1X0.48S255
G1X0.89S0
G1X0.4S255
G1X1.85S0
G1X0.37S255
G1X0.7S0
G1X0.42S255
G1X0.98S0
G1X0.42S255
G1X0.55S0
G1X0.48S255
G1X0.89S0
G1X0.4S255
G1X0.66S0
G1X0.37S255
G1X1.83S0
G1X0.36S255
G1X0.92S0
G1X0.38S255
G1X0.54S0
G1X0.37S255
G1X1.58S0
G1X0.44S255
G1X0.66S0
G1X0.41S255
G1X0.98S0
G1X0.4S255
G1X2.67S0
G1X0.37S255
G1X2.29S0
G1X0.46S255
G1X0.66S0
G1X0.49S255
G1X0.91S0
G1X0.4S255
G1X0.63S0
G1X0.37S255
G1Y0.1S0
G1X-0.37S255
G1X-0.67S0
G1X-0.44S255
G1X-0.74S0
G1X-0.58S255
G1X-0.61S0
G1X-0.43S255
G1X-2.37S0
G1X-0.37S255
G1X-2.72S0
G1X-0.43S255
G1X-0.81S0
G1X-0.45S255
G1X-0.62S0
G1X-0.45S255
G1X-1.66S0
G1X-0.37S255
G1X-0.57S0
G1X-0.41S255
G1X-0.82S0
G1X-0.38S255
G1X-1.85S0
G1X-0.37S255
G1X-0.68S0
G1X-0.45S255
G1X-0.73S0
G1X-0.57S255
G1X-0.59S0
G1X-0.47S255
G1X-0.8S0
G1X-0.46S255
G1X-0.75S0
G1X-0.37S255
G1X-1.88S0
G1X-0.44S255
G1X-0.73S0
G1X-0.57S255
G1X-0.56S0
G1X-0.37S255
G1X-1.8S0
G1X-0.44S255
G1X-0.74S0
G1X-0.56S255
G1X-0.61S0
G1X-0.44S255
G1X-0.81S0
G1X-0.44S255
G1X-0.79S0
G1X-0.37S255
G1X-0.81S0
G1X-0.37S255
G1X-0.63S0
G1X-0.37S255
G1X-0.35S0
G1X-0.01S255
G1X-0.49S0
G1X-0.57S255
G1X-0.43S0
G1X-0.36S255
G1X-0.71S0
G1X-0.6S255
G1X-0.72S0
G1X-0.37S255
G1X-1.6S0
G1X-0.42S255
G1X-0.81S0
G1X-0.38S255
G1X-0.51S0
G1X-0.37S255
G1X-1.75S0
G1X-0.41S255
G1X-0.82S0
G1X-0.38S255
G1X-0.5S0
G1X-0.38S255
G1X-0.61S0
G1X-0.44S255
G1X-0.73S0
G1X-0.57S255
G1X-1.37S0
G1X-0.4S255
G1Y0.1S0
G1X0.4S255
G1X1.37S0
G1X0.75S255
G1X0.41S0
G1X0.55S255
G1X0.64S0
G1X0.38S255
G1X0.54S0
G1X0.47S255
G1X0.55S0
G1X0.51S255
G1X1.79S0
G1X0.37S255
G1X0.55S0
G1X0.47S255
G1X0.55S0
G1X0.5S255
G1X1.62S0
G1X0.37S255
G1X0.77S0
G1X0.55S255
G1X0.77S0
G1X0.36S255
G1X0.4S0
G1X0.34S255
G1X0.01S0
G1X0.76S255
G1X0.31S0
G1X0.37S255
G1X0.63S0
G1X0.37S255
G1X0.81S0
G1X0.37S255
G1X0.86S0
G1X0.53S255
G1X0.51S0
G1X0.5S255
G1X0.69S0
G1X0.34S255
G1X0.4
G1X0.41S0
G1X0.56S255
G1X1.83S0
G1X0.37S255
G1X0.56S0
G1X0.34S255
G1X0.4
G1X0.41S0
G1X0.56S255
G1X1.91S0
G1X0.37S255
G1X0.82S0
G1X0.54S255
G1X0.5S0
G1X0.54S255
G1X0.67S0
G1X0.34S255
G1X0.4
G1X0.41S0
G1X0.56S255
G1X0.72S0
G1X0.37S255
G1X1.89S0
G1X0.47S255
G1X0.55S0
G1X0.51S255
G1X0.61S0
G1X0.37S255
G1X1.75S0
G1X0.44S255
G1X0.62S0
G1X0.52S255
G1X0.52S0
G1X0.5S255
G1X2.79S0
G1X0.37S255
G1X2.43S0
G1X0.42S255
G1X0.56S0
G1X0.7S255
G1X0.49S0
G1X0.5S255
G1X0.74S0
G1X0.37S255
G1X0.37Y0.1S0
G1X-1.02S255
G1X-0.54S0
G1X-1.2S255
G1X-0.07S0
G1X-0.34S255
G1X-0.53S0
G1X-0.4S255
G1X-2.48S0
G1X-0.37S255
G1X-0.6S0
G1X-0.14S255
G1X-2.14S0
G1X-1.36S255
G1X-0.65S0
G1X-1.79S255
G1X-0.46S0
G1X-0.37S255
G1X-0.67S0
G1X-1.4S255
G1X-1.59S0
G1X-1.02S255
G1X-0.5S0
G1X-1.22S255
G1X-0.09S0
G1X-0.34S255
G1X-0.76S0
G1X-1.4S255
G1X-0.48S0
G1X-1.13S255
G1X-1.64S0
G1X-1.23S255
G1X-0.08S0
G1X-0.34S255
G1X-0.56S0
G1X-0.37S255
G1X-1.89S0
G1X-1.23S255
G1X-0.08S0
G1X-0.34S255
G1X-0.78S0
G1X-1.36S255
G1X-0.58S0
G1X-1.01S255
G1X-0.16S0
G1X-1.02S255
G1X-0.36S0
G1X-0.37S255
G1X-0.28S0
G1X-0.73S255
G1X-0.07S0
G1X-0.34S255
G1X-0.37S0
G1X-0.36S255
G1X-0.82S0
G1X-0.5S255
G1X-0.83S0
G1X-0.37S255
G1X-1.65S0
G1X-1.39S255
G1X-0.62S0
G1X-0.37S255
G1X-1.85S0
G1X-1.4S255
G1X-0.61S0
G1X-0.38S255
G1X-0.71S0
G1X-1.23S255
G1X-0.04S0
G1X-0.37S255
G1X-1.37S0
G1X-0.4S255
G1Y0.1S0
G1X0.4S255
G1X1.37S0
G1X0.37S255
G1X0.15S0
G1X1.02S255
G1X0.81S0
G1X0.38S255
G1X0.72S0
G1X1.18S255
G1X1.96S0
G1X0.37S255
G1X0.72S0
G1X1.19S255
G1X1.72S0
G1X0.38S255
G1X0.88S0
G1X0.44S255
G1X0.88S0
G1X0.36S255
G1X0.34S0
G1X0.34S255
G1X0.15S0
G1X0.69S255
G1X0.24S0
G1X0.37S255
G1X0.36S0
G1X1.02S255
G1X0.16S0
G1X1.01S255
G1X0.7S0
G1X1.12S255
G1X0.9S0
G1X0.34S255
G1X0.19S0
G1X1.02S255
G1X1.99S0
G1X0.37S255
G1X0.56S0
G1X0.34S255
G1X0.19S0
G1X1.02S255
G1X1.74S0
G1X1.13S255
G1X0.61S0
G1X1.14S255
G1X0.89S0
G1X0.34S255
G1X0.2S0
G1X1.02S255
G1X0.59S0
G1X1.02S255
G1X1.7S0
G1X1.18S255
G1X0.78S0
G1X0.37S255
G1X0.46S0
G1X1.79S255
G1X0.77S0
G1X1.12S255
G1X2.26S0
G1X0.33S255
G1X0.41S0
G1X0.37S255
G1X2.51S0
G1X0.39S255
G1X0.51S0
G1X0.34S255
G1X0.17S0
G1X0.99S255
G1X0.65S0
G1X1.02S255
G1Y0.1S0
G1X-1.02S255
G1X-0.84S0
G1X-0.63S255
G1X-0.34S0
G1X-0.34S255
G1X-0.5S0
G1X-0.39S255
G1X-1.15S0
G1X-0.39S255
G1X-0.98S0
G1X-0.37S255
G1X-0.24S0
G1X-0.5S255
G1X-2.46S0
G1X-0.71S255
G1X-0.98S0
G1X-1.79S255
G1X-0.46S0
G1X-0.37S255
G1X-1S0
G1X-0.76S255
G1X-1.9S0
G1X-1.02S255
G1X-0.79S0
G1X-0.64S255
G1X-0.38S0
G1X-0.34S255
G1X-1.1S0
G1X-0.73S255
G1X-0.81S0
G1X-1.13S255
G1X-1.93S0
G1X-0.64S255
G1X-0.38S0
G1X-0.34S255
G1X-0.56S0
G1X-0.37S255
G1X-2.18S0
G1X-0.64S255
G1X-0.38S0
G1X-0.34S255
G1X-1.1S0
G1X-0.71S255
G1X-0.91S0
G1X-1.01S255
G1X-0.16S0
G1X-1.02S255
G1X-0.36S0
G1X-0.37S255
G1X-0.35S0
G1X-0.47S255
G1X-0.26S0
G1X-0.34S255
G1X-0.31S0
G1X-0.36S255
G1X-0.94S0
G1X-0.38S255
G1X-0.94S0
G1X-0.38S255
G1X-1.91S0
G1X-0.77S255
G1X-0.92S0
G1X-0.37S255
G1X-2.18S0
G1X-0.76S255
G1X-0.92S0
G1X-0.38S255
G1X-1S0
G1X-0.64S255
G1X-0.34S0
G1X-0.37S255
G1X-1.37S0
G1X-0.4S255
G1Y0.1S0
G1X0.4S255
G1X1.37S0
G1X0.37S255
G1X15.92S0
G1X0.37S255
G1X0.81S0
G1X0.37S255
G1X11.18S0
G1X0.37S255
G1X5.5S0
G1X0.37S255
G1X10.8S0
G1X0.64S255
G1X0.1S0
G1X0.37S255
G1X1S0
G1X0.38S255
G1X1.14S0
G1X0.38S255
G1X2.94S0
G1X0.37S255
G1Y0.1S0
G1X-0.37S255
G1X-2.95S0
G1X-0.39S255
G1X-1.09S0
G1X-0.39S255
G1X-1.02S0
G1X-0.93S255
G1X-10.98S0
G1X-0.37S255
G1X-5.5S0
G1X-0.37S255
G1X-11.18S0
G1X-0.37S255
G1X-0.81S0
G1X-0.37S255
G1X-15.92S0
G1X-0.37S255
G1X-1.37S0
G1X-0.4S255
G1Y0.1S0
G1X0.4S255
G1X1.37S0
G1X0.37S255
G1X15.92S0
G1X0.37S255
G1X0.81S0
G1X0.37S255
G1X11.19S0
G1X0.37S255
G1X5.49S0
G1X0.37S255
G1X11.14S0
G1X0.77S255
G1X1.05S0
G1X0.4S255
G1X1S0
G1X0.41S255
G1X2.98S0
G1X0.37S255
G1Y0.1S0
G1X-0.37S255
G1X-3.03S0
G1X-0.45S255
G1X-0.82S0
G1X-0.44S255
G1X-1.1S0
G1X-0.64S255
G1X-11.27S0
G1X-0.37S255
G1X-5.47S0
G1X-0.39S255
G1X-11.19S0
G1X-0.37S255
G1X-0.81S0
G1X-0.37S255
G1X-15.92S0
G1X-0.37S255
G1X-1.37S0
G1X-0.4S255
G1X-1Y0.1S0
G1X2.4S255
G1X0.37S0
G1X0.37S255
G1X1.98S0
G1X0.38S255
G1X3.86S0
G1X0.37S255
G1X8.33S0
G1X0.37S255
G1X0.63S0
G1X0.37S255
G1X0.81S0
G1X0.37S255
G1X6.63S0
G1X0.37S255
G1X4.21S0
G1X0.44S255
G1X5.4S0
G1X0.37S255
G1X4.03S0
G1X0.37S255
G1X6.99S0
G1X0.52S255
G1X1.16S0
G1X0.53S255
G1X0.52S0
G1X0.55S255
G1X3.08S0
G1X0.37S255
G1Y0.1S0
G1X-0.3S255
G1X-3.24S0
G1X-1.43S255
G1X-1.24S0
G1X-0.42S255
G1X-7.09S0
G1X-0.37S255
G1X-4.03S0
G1X-0.3S255
G1X-5.03S0
G1X-0.85S255
G1X-4.24S0
G1X-0.37S255
G1X-6.63S0
G1X-0.29S255
G1X-0.89S0
G1X-0.29S255
G1X-0.71S0
G1X-0.37S255
G1X-8.33S0
G1X-0.37S255
G1X-3.86S0
G1X-0.38S255
G1X-1.98S0
G1X-0.37S255
G1X-0.37S0
G1X-2.4S255
G1Y0.1S0
G1X2.4S255
G1X0.37S0
G1X0.37S255
G1X1.98S0
G1X0.38S255
G1X3.86S0
G1X0.37S255
G1X8.33S0
G1X0.37S255
G1X0.88S0
G1X0.12S255
G1X1.05S0
G1X0.13S255
G1X6.63S0
G1X0.37S255
G1X4.29S0
G1X0.82S255
G1X5.18S0
G1X0.13S255
G1X4.03S0
G1X0.37S255
G1X7.17S0
G1X0.34S255
G1X1.37S0
G1X1.17S255
G1X3.54S0
G1X0.13S255
G1X-3.86Y0.1S0
G1X-0.78S255
G1X-1.57S0
G1X-0.27S255
G1X-7.24S0
G1X-0.37S255
G1X-9.32S0
G1X-0.73S255
G1X-4.4S0
G1X-0.37S255
G1X-8.81S0
G1X-0.37S255
G1X-8.33S0
G1X-0.37S255
G1X-3.86S0
G1X-0.38S255
G1X-1.98S0
G1X-0.37S255
G1X-0.37S0
G1X-2.4S255
G1X21.35Y1.3S0
G1X0.15S255
G1Y0.1S0
G1X-0.15S255
G1Y0.1S0
G1X0.15S255
G1X1.54Y0.1S0
G1X-0.18S255
G1X-0.18S0
G1X-0.28S255
G1X-0.45S0
G1X-0.4S255
G1X-0.05S0
G1X-0.15S255
G1X-0.38S0
G1X-0.48S255
G1X-0.97S0
G1X-0.48S255
G1X-0.3S0
G1X-0.81S255
G1X-0.15S0
G1X-0.16S255
G1X-0.31S0
G1X-0.5S255
G1X-0.7S0
G1X-0.28S255
G1X-0.31S0
G1X-0.15S255
G1X-0.44S0
G1X-0.15S255
G1X-0.37S0
G1X-0.47S255
G1X-0.44S0
G1X-0.16S255
G1X-0.76S0
G1X-0.16S255
G1X-0.43S0
G1X-0.15S255
G1X-0.24S0
G1X-0.16S255
G1X-0.72S0
G1X-0.16S255
G1X-0.43S0
G1X-0.16S255
G1X-0.35S0
G1X-0.48S255
G1X-0.29S0
G1X-0.28S255
G1X-0.21S0
G1X-0.28S255
G1X-0.3S0
G1X-0.16S255
G1X-0.43S0
G1X-0.16S255
G1X-0.4S0
G1X-0.19S255
G1X-0.34S0
G1X-0.19S255
G1X-0.95S0
G1X-0.51S255
G1X-0.3S0
G1X-0.15S255
G1X-0.8S0
G1X-0.51S255
G1X-0.3S0
G1X-0.16S255
G1X-0.24S0
G1X-0.15S255
G1X-0.44S0
G1X-0.15S255
G1X-0.57S0
G1X-0.17S255
G1Y0.1S0
G1X0.17S255
G1X0.57S0
G1X0.15S255
G1X0.44S0
G1X0.15S255
G1X0.24S0
G1X0.16S255
G1X0.21S0
G1X0.2S255
G1X0.31S0
G1X0.18S255
G1X0.71S0
G1X0.15S255
G1X0.22S0
G1X0.19S255
G1X0.31S0
G1X0.18S255
G1X0.83S0
G1X0.25S255
G1X0.29S0
G1X0.24S255
G1X0.37S0
G1X0.16S255
G1X0.43S0
G1X0.16S255
G1X0.27S0
G1X0.17S255
G1X0.32S0
G1X0.17S255
G1X0.32S0
G1X0.21S255
G1X0.28S0
G1X0.2S255
G1X0.25S0
G1X0.16S255
G1X0.43S0
G1X0.16S255
G1X0.72S0
G1X0.16S255
G1X0.24S0
G1X0.15S255
G1X0.43S0
G1X0.16S255
G1X0.76S0
G1X0.16S255
G1X0.33S0
G1X0.21S255
G1X0.26S0
G1X0.21S255
G1X0.27S0
G1X0.15S255
G1X0.44S0
G1X0.15S255
G1X0.27S0
G1X0.18S255
G1X0.75S0
G1X0.2S255
G1X0.3S0
G1X0.18S255
G1X0.22S0
G1X0.16S255
G1X0.17S0
G1X0.19S255
G1X0.79S0
G1X0.21S255
G1X0.28S0
G1X0.21S255
G1X0.76S0
G1X0.21S255
G1X0.26S0
G1X0.21S255
G1X0.28S0
G1X0.26S255
G1X0.24S0
G1X0.2S255
G1X0.31S0
G1X0.18S255
G1X0.32S0
G1X0.18S255
G1X-0.53Y0.1S0
G1X-0.15S255
G1X-0.26S0
G1X-0.16S255
G1X-0.41S0
G1X-0.18S255
G1X-0.23S0
G1X-0.17S255
G1X-0.44S0
G1X-0.17S255
G1X-0.67S0
G1X-0.17S255
G1X-0.45S0
G1X-0.18S255
G1X-0.64S0
G1X-0.19S255
G1X-0.26S0
G1X-0.16S255
G1X-0.19S0
G1X-0.15S255
G1X-0.44S0
G1X-0.15S255
G1X-0.75S0
G1X-0.15S255
G1X-0.27S0
G1X-0.15S255
G1X-0.44S0
G1X-0.15S255
G1X-0.22S0
G1X-0.17S255
G1X-0.44S0
G1X-0.18S255
G1X-0.27S0
G1X-0.16S255
G1X-0.76S0
G1X-0.16S255
G1X-0.43S0
G1X-0.15S255
G1X-0.24S0
G1X-0.16S255
G1X-0.72S0
G1X-0.16S255
G1X-0.43S0
G1X-0.16S255
G1X-0.2S0
G1X-0.17S255
G1X-0.45S0
G1X-0.18S255
G1X-0.29S0
G1X-0.15S255
G1X-0.34S0
G1X-0.15S255
G1X-0.26S0
G1X-0.16S255
G1X-0.43S0
G1X-0.16S255
G1X-0.34S0
G1X-0.14S255
G1X-0.02S0
G1X-0.14S255
G1X-0.24S0
G1X-0.13S255
G1X-0.03S0
G1X-0.14S255
G1X-0.77S0
G1X-0.16S255
G1X-0.43S0
G1X-0.16S255
G1X-0.18S0
G1X-0.15S255
G1X-0.68S0
G1X-0.16S255
G1X-0.43S0
G1X-0.16S255
G1X-0.18S0
G1X-0.16S255
G1X-0.24S0
G1X-0.15S255
G1X-0.44S0
G1X-0.15S255
G1X-0.57S0
G1X-0.17S255
G1Y0.1S0
G1X0.17S255
G1X0.57S0
G1X0.15S255
G1X0.44S0
G1X0.15S255
G1X0.24S0
G1X0.16S255
G1X0.69S0
G1X0.23S255
G1X0.69S0
G1X0.15S255
G1X0.7S0
G1X0.22S255
G1X0.75S0
G1X0.14S255
G1X0.09S0
G1X0.13S255
G1X0.18S0
G1X0.15S255
G1X0.07S0
G1X0.15S255
G1X0.3S0
G1X0.16S255
G1X0.43S0
G1X0.16S255
G1X0.26S0
G1X0.15S255
G1X0.34S0
G1X0.15S255
G1X0.28S0
G1X0.15S255
G1X0.86S0
G1X0.16S255
G1X0.43S0
G1X0.16S255
G1X0.72S0
G1X0.16S255
G1X0.24S0
G1X0.15S255
G1X0.43S0
G1X0.16S255
G1X0.76S0
G1X0.16S255
G1X0.25S0
G1X0.16S255
G1X0.51S0
G1X0.17S255
G1X0.19S0
G1X0.15S255
G1X0.44S0
G1X0.15S255
G1X0.27S0
G1X0.15S255
G1X1.26S0
G1X0.22S255
G1X0.2S0
G1X0.16S255
G1X0.34S0
G1X0.2S255
G1X0.54S0
G1X0.16S255
G1X1.97S0
G1X0.16S255
G1X0.2S0
G1X0.15S255
G1X0.47S0
G1X0.16S255
G1X0.23S0
G1X0.15S255
G1Y0.1S0
G1X-0.15S255
G1X-0.22S0
G1X-0.16S255
G1X-0.49S0
G1X-0.14S255
G1X-0.19S0
G1X-0.17S255
G1X-1.3S0
G1X-0.85S255
G1X-0.44S0
G1X-0.19S255
G1X-0.43S0
G1X-0.16S255
G1X-0.26S0
G1X-0.49S255
G1X-0.93S0
G1X-0.15S255
G1X-0.27S0
G1X-0.15S255
G1X-0.44S0
G1X-0.15S255
G1X-0.19S0
G1X-0.15S255
G1X-0.54S0
G1X-0.16S255
G1X-0.24S0
G1X-0.16S255
G1X-0.76S0
G1X-0.16S255
G1X-0.43S0
G1X-0.15S255
G1X-0.24S0
G1X-0.16S255
G1X-0.72S0
G1X-0.16S255
G1X-0.43S0
G1X-0.16S255
G1X-0.19S0
G1X-0.84S255
G1X-0.26S0
G1X-0.15S255
G1X-0.34S0
G1X-0.15S255
G1X-0.26S0
G1X-0.16S255
G1X-0.43S0
G1X-0.16S255
G1X-0.27S0
G1X-0.15S255
G1X-0.13S0
G1X-0.14S255
G1X-0.13S0
G1X-0.14S255
G1X-0.13S0
G1X-0.15S255
G1X-0.79S0
G1X-0.48S255
G1X-0.37S0
G1X-0.15S255
G1X-0.76S0
G1X-0.48S255
G1X-0.37S0
G1X-0.16S255
G1X-0.24S0
G1X-0.15S255
G1X-0.44S0
G1X-0.15S255
G1X-0.57S0
G1X-0.17S255
G1Y0.1S0
G1X0.17S255
G1X0.57S0
G1X0.16S255
G1X0.43S0
G1X0.15S255
G1X0.24S0
G1X0.16S255
G1X0.23S0
G1X0.35S255
G1X1.03S0
G1X0.15S255
G1X0.23S0
G1X0.36S255
G1X1.02S0
G1X0.15S255
G1X0.19S0
G1X0.13S255
G1X0.08S0
G1X0.14S255
G1X0.19S0
G1X0.15S255
G1X0.24S0
G1X0.16S255
G1X0.43S0
G1X0.16S255
G1X0.26S0
G1X0.15S255
G1X0.34S0
G1X0.15S255
G1X0.27S0
G1X0.16S255
G1X0.51S0
G1X0.15S255
G1X0.2S0
G1X0.16S255
G1X0.43S0
G1X0.16S255
G1X0.72S0
G1X0.16S255
G1X0.24S0
G1X0.16S255
G1X0.42S0
G1X0.16S255
G1X0.76S0
G1X0.16S255
G1X0.25S0
G1X0.16S255
G1X0.52S0
G1X0.15S255
G1X0.2S0
G1X0.16S255
G1X0.43S0
G1X0.15S255
G1X0.27S0
G1X0.15S255
G1X0.8S0
G1X0.35S255
G1X0.53S0
G1X0.16S255
G1X0.52S0
G1X0.19S255
G1X0.37S0
G1X0.15S255
G1X0.51S0
G1X0.15S255
G1X1.3S0
G1X0.17S255
G1X0.21S0
G1X0.15S255
G1X0.47S0
G1X0.16S255
G1X0.23S0
G1X0.15S255
G1Y0.1S0
G1X-0.15S255
G1X-0.25S0
G1X-0.16S255
G1X-0.42S0
G1X-0.18S255
G1X-0.26S0
G1X-0.21S255
G1X-0.31S0
G1X-0.21S255
G1X-0.7S0
G1X-0.16S255
G1X-0.47S0
G1X-0.16S255
G1X-0.3S0
G1X-0.18S255
G1X-0.61S0
G1X-0.16S255
G1X-0.76S0
G1X-0.15S255
G1X-0.77S0
G1X-0.15S255
G1X-0.27S0
G1X-0.16S255
G1X-0.41S0
G1X-0.17S255
G1X-0.21S0
G1X-0.17S255
G1X-0.46S0
G1X-0.17S255
G1X-0.27S0
G1X-0.16S255
G1X-0.76S0
G1X-0.16S255
G1X-0.41S0
G1X-0.17S255
G1X-0.24S0
G1X-0.16S255
G1X-0.73S0
G1X-0.16S255
G1X-0.4S0
G1X-0.18S255
G1X-0.21S0
G1X-0.16S255
G1X-0.47S0
G1X-0.16S255
G1X-0.29S0
G1X-0.15S255
G1X-0.34S0
G1X-0.15S255
G1X-0.26S0
G1X-0.16S255
G1X-0.41S0
G1X-0.18S255
G1X-0.21S0
G1X-0.15S255
G1X-0.24S0
G1X-0.14S255
G1X-0.03S0
G1X-0.13S255
G1X-0.25S0
G1X-0.15S255
G1X-1.22S0
G1X-0.16S255
G1X-0.2S0
G1X-0.15S255
G1X-1.25S0
G1X-0.16S255
G1X-0.2S0
G1X-0.16S255
G1X-0.24S0
G1X-0.16S255
G1X-0.4S0
G1X-0.18S255
G1X-0.57S0
G1X-0.17S255
G1Y0.1S0
G1X0.17S255
G1X0.57S0
G1X0.25S255
G1X0.29S0
G1X0.18S255
G1X0.26S0
G1X0.16S255
G1X0.21S0
G1X0.16S255
G1X0.33S0
G1X0.18S255
G1X0.73S0
G1X0.15S255
G1X0.21S0
G1X0.16S255
G1X0.33S0
G1X0.18S255
G1X0.67S0
G1X0.15S255
G1X0.31S0
G1X0.24S255
G1X0.3S0
G1X0.15S255
G1X0.18S0
G1X0.25S255
G1X0.18S0
G1X0.02S255
G1X0.14S0
G1X0.16S255
G1X0.26S0
G1X0.15S255
G1X0.34S0
G1X0.15S255
G1X0.34S0
G1X0.19S255
G1X0.31S0
G1X0.18S255
G1X0.27S0
G1X0.25S255
G1X0.29S0
G1X0.19S255
G1X0.74S0
G1X0.16S255
G1X0.24S0
G1X0.24S255
G1X0.29S0
G1X0.19S255
G1X0.78S0
G1X0.16S255
G1X0.31S0
G1X0.2S255
G1X0.31S0
G1X0.19S255
G1X0.27S0
G1X0.24S255
G1X0.29S0
G1X0.19S255
G1X0.29S0
G1X0.15S255
G1X0.78S0
G1X0.16S255
G1X0.33S0
G1X0.17S255
G1X0.24S0
G1X0.16S255
G1X0.69S0
G1X0.19S255
G1X0.27S0
G1X0.18S255
G1X0.32S0
G1X0.18S255
G1X0.77S0
G1X0.63S255
G1X0.34S0
G1X0.25S255
G1X0.28S0
G1X0.19S255
G1X0.29S0
G1X0.15S255
G1X0.16Y0.1S0
G1X-0.43S255
G1X-0.25S0
G1X-0.46S255
G1X-0.04S0
G1X-0.14S255
G1X-0.8S0
G1X-0.15S255
G1X-0.88S0
G1X-0.5S255
G1X-0.31S0
G1X-0.74S255
G1X-0.19S0
G1X-0.16S255
G1X-0.3S0
G1X-0.54S255
G1X-0.68S0
G1X-0.43S255
G1X-0.23S0
G1X-0.47S255
G1X-0.05S0
G1X-0.14S255
G1X-0.36S0
G1X-0.51S255
G1X-0.23S0
G1X-0.47S255
G1X-0.71S0
G1X-0.47S255
G1X-0.05S0
G1X-0.14S255
G1X-0.24S0
G1X-0.16S255
G1X-0.8S0
G1X-0.47S255
G1X-0.06S0
G1X-0.14S255
G1X-0.36S0
G1X-0.49S255
G1X-0.28S0
G1X-0.42S255
G1X-0.07S0
G1X-0.42S255
G1X-0.15S0
G1X-0.16S255
G1X-0.11S0
G1X-0.29S255
G1X-0.05S0
G1X-0.14S255
G1X-0.15S0
G1X-0.15S255
G1X-0.35S0
G1X-0.2S255
G1X-0.35S0
G1X-0.16S255
G1X-0.7S0
G1X-0.54S255
G1X-0.28S0
G1X-0.15S255
G1X-0.8S0
G1X-0.53S255
G1X-0.28S0
G1X-0.16S255
G1X-0.31S0
G1X-0.46S255
G1X-0.06S0
G1X-0.15S255
G1X-0.57S0
G1X-0.17S255
G1Y0.1S0
G1X0.17S255
G1X0.57S0
G1X0.15S255
G1X6.64S0
G1X0.15S255
G1X0.34S0
G1X0.15S255
G1X4.66S0
G1X0.16S255
G1X2.29S0
G1X0.15S255
G1X4.48S0
G1X0.15S255
G1X1.79S0
G1X0.15S255
G1Y0.1S0
G1X-0.15S255
G1X-1.77S0
G1X-0.15S255
G1X-4.5S0
G1X-0.15S255
G1X-2.29S0
G1X-0.15S255
G1X-4.67S0
G1X-0.15S255
G1X-0.34S0
G1X-0.15S255
G1X-6.64S0
G1X-0.15S255
G1X-0.57S0
G1X-0.17S255
G1X-0.41Y0.1S0
G1X1S255
G1X0.15S0
G1X0.15S255
G1X0.83S0
G1X0.16S255
G1X1.61S0
G1X0.15S255
G1X3.47S0
G1X0.16S255
G1X0.27S0
G1X0.14S255
G1X0.35S0
G1X0.14S255
G1X2.76S0
G1X0.16S255
G1X1.76S0
G1X0.36S255
G1X2.08S0
G1X0.14S255
G1X1.68S0
G1X0.16S255
G1X2.67S0
G1X0.65S255
G1X1.27S0
G1X0.14S255
G1X-4.73Y0.1S0
G1X-0.16S255
G1X-3.88S0
G1X-0.3S255
G1X-1.84S0
G1X-0.16S255
G1X-3.66S0
G1X-0.16S255
G1X-3.47S0
G1X-0.15S255
G1X-1.61S0
G1X-0.16S255
G1X-0.83S0
G1X-0.15S255
G1X-0.15S0
G1X-1S255
G1X10.71Y4.3S0
G1X0.19S255
G1X0.36S0
G1X0.19S255
G1X0.37S0
G1X0.08S255
G1X0.37S0
G1X0.12S255
G1X2.82Y0.1S0
G1X-0.02S255
G1X-0.53S0
G1X-0.03S255
G1X-2.16S0
G1X-0.07S255
G1X-0.14S0
G1X-0.07S255
G1X-0.23S0
G1X-0.07S255
G1X-0.32S0
G1X-0.1S255
G1X-0.22S0
G1X-0.11S255
G1X-0.12S0
G1X-0.1S255
G1X-0.23S0
G1X-0.1S255
G1X0.37Y0.1S0
G1X0.09S255
G1X0.46S0
G1X0.09S255
G1X0.35S0
G1X0.08S255
G1X0.15S0
G1X0.07S255
G1X0.16S0
G1X0.07S255
G1X1.96S0
G1X0.11S255
G1X0.19S0
G1X0.12S255
G1X0.16S0
G1X0.1S255
G1X0.17S0
G1X0.1S255
G1X0.33S0
G1X0.08S255
G1X0.24S0
G1X0.07S255
G1X0.13S0
G1X0.07S255
G1X0.01Y0.1S0
G1X-0.07S255
G1X-0.16S0
G1X-0.07S255
G1X-0.16S0
G1X-0.07S255
G1X-0.36S0
G1X-0.09S255
G1X-0.27S0
G1X-0.09S255
G1X-0.09S0
G1X-0.09S255
G1X-2.33S0
G1X-0.07S255
G1X-0.14S0
G1X-0.07S255
G1X-0.1S0
G1X-0.07S255
G1X-0.08S0
G1X-0.22S255
G1X-0.14S0
G1X-0.1S255
G1X-0.45S0
G1X-0.1S255
G1X-0.33Y0.1S0
G1X0.09S255
G1X0.02S0
G1X0.24S255
G1X0.2S0
G1X0.09S255
G1X0.02S0
G1X0.24S255
G1X0.18S0
G1X0.07S255
G1X0.16S0
G1X0.07S255
G1X0.1S0
G1X0.08S255
G1X0.09S0
G1X0.17S255
G1X2.36S0
G1X0.1S255
G1X0.09S0
G1X0.09S255
G1X0.29S0
G1X0.09S255
G1X0.13S0
G1X0.2S255
G1X0.08S0
G1X0.08S255
G1X0.1S0
G1X0.07S255
G1X0.15S0
G1X0.07S255
G1X-0.05Y0.1S0
G1X-0.2S255
G1X-0.08S0
G1X-0.07S255
G1X-0.11S0
G1X-0.07S255
G1X-0.15S0
G1X-0.07S255
G1X-0.08S0
G1X-0.09S255
G1X-0.29S0
G1X-0.09S255
G1X-0.16S0
G1X-0.28S255
G1X-0.09
G1X-2.21S0
G1X-0.08S255
G1X-0.17S0
G1X-0.07S255
G1X-0.16S0
G1X-0.07S255
G1X-0.44S0
G1X-0.08S255
G1X-0.47S0
G1X-0.08S255
G1X0.01Y0.1S0
G1X0.08S255
G1X0.47S0
G1X0.08S255
G1X0.45S0
G1X0.07S255
G1X0.12S0
G1X0.07S255
G1X0.25S0
G1X0.08S255
G1X2.16S0
G1X0.08S255
G1X0.45S0
G1X0.09S255
G1X0.27S0
G1X0.09S255
G1X0.09S0
G1X0.07S255
G1X0.16S0
G1X0.07S255
G1X0.16S0
G1X0.08S255
G1X0.06Y0.1S0
G1X-0.07S255
G1X-0.25S0
G1X-0.07S255
G1X-0.13S0
G1X-0.07S255
G1X-0.14S0
G1X-0.1S255
G1X-0.17S0
G1X-0.1S255
G1X-0.48S0
G1X-0.08S255
G1X-7.57Y0.3S0
G1X0.13S255
G1X0.07S0
G1X0.14S255
G1X0.2S0
G1X0.13S255
G1X0.07S0
G1X0.13S255
G1X0.33S0
G1X0.08S255
G1X0.27S0
G1X0.07S255
G1X0.1S0
G1X0.08S255
G1X11.12Y0.1S0
G1X-0.06S255
G1X-0.87S0
G1X-0.14S255
G1X-10.03S0
G1X-0.07S255
G1X-0.16S0
G1X-0.07S255
G1X-0.18S0
G1X-0.07S255
G1X-0.35S0
G1X-0.09S255
G1X-0.25S0
G1X-0.09S255
G1X-0.11S0
G1X-0.09S255
G1X-0.25S0
G1X-0.09S255
G1X-0.02Y0.1S0
G1X0.1S255
G1X0.26S0
G1X0.09S255
G1X0.09S0
G1X0.09S255
G1X0.29S0
G1X0.09S255
G1X0.17S0
G1X0.12S255
G1X0.1S0
G1X0.08S255
G1X0.11S0
G1X0.07S255
G1X0.16S0
G1X0.07S255
G1X9.62S0
G1X0.09S255
G1X0.18S0
G1X0.11S255
G1X0.2S0
G1X0.11S255
G1X0.32S0
G1X0.07S255
G1X0.24S0
G1X0.07S255
G1X0.13S0
G1X0.07S255
G1X0.02Y0.1S0
G1X-0.07S255
G1X-0.17S0
G1X-0.07S255
G1X-0.15S0
G1X-0.08S255
G1X-0.35S0
G1X-0.09S255
G1X-0.45S0
G1X-0.5S255
G1X-9.33S0
G1X-0.08S255
G1X-0.07S0
G1X-0.09S255
G1X-0.07S0
G1X-0.08S255
G1X-0.09S0
G1X-0.07S255
G1X-0.14S0
G1X-0.07S255
G1X-0.09S0
G1X-0.09S255
G1X-0.29S0
G1X-0.09S255
G1X-0.13S0
G1X-0.13S255
G1X-0.1S0
G1X-0.08S255
G1X-0.01S0
G1X-0.09S255
G1X0.01Y0.1S0
G1X0.09S255
G1X0.45S0
G1X0.09S255
G1X0.28S0
G1X0.08S255
G1X0.09S0
G1X0.07S255
G1X0.16S0
G1X0.07S255
G1X0.15S0
G1X0.07S255
G1X9.64S0
G1X0.08S255
G1X0.18S0
G1X0.09S255
G1X0.52S0
G1X0.1S255
G1X0.14S0
G1X0.2S255
G1X0.09S0
G1X0.07S255
G1X0.1S0
G1X0.07S255
G1X0.15S0
G1X0.07S255
G1X-0.05Y0.1S0
G1X-0.19S255
G1X-0.08S0
G1X-0.08S255
G1X-0.1S0
G1X-0.07S255
G1X-0.16S0
G1X-0.07S255
G1X-0.17S0
G1X-0.26S255
G1X-0.09
G1X-0.19S0
G1X-0.09S255
G1X-0.12S0
G1X-0.08S255
G1X-9.63S0
G1X-0.08S255
G1X-0.22S0
G1X-0.07S255
G1X-0.14S0
G1X-0.07S255
G1X-0.13S0
G1X-0.09S255
G1X-0.21S0
G1X-0.09S255
G1X-0.15S0
G1X-0.09S255
G1X-0.2S0
G1X-0.09S255
G1X0.09Y0.1S0
G1X0.21S255
G1X0.32S0
G1X0.22S255
G1X0.27S0
G1X0.16S255
G1X0.35S0
G1X0.07S255
G1X9.64S0
G1X0.08S255
G1X0.05S0
G1X0.09S255
G1X0.19S0
G1X0.09S255
G1X0.43S0
G1X0.07S255
G1X0.16S0
G1X0.07S255
G1X0.17S0
G1X0.07S255
G1X0.07Y0.1S0
G1X-0.08S255
G1X-0.25S0
G1X-0.07S255
G1X-0.12S0
G1X-0.07S255
G1X-0.45S0
G1X-0.08S255
G1X-0.2S0
G1X-0.15S255
G1X-14.58Y1.4S0
G1X0.11S255
G1X0.15S0
G1X0.11S255
G1X0.14S0
G1X0.12S255
G1X0.17S0
G1X0.12S255
G1X0.31S0
G1X0.08S255
G1X0.24S0
G1X0.08S255
G1X0.12S0
G1X0.07S255
G1X0.02Y0.1S0
G1X-0.07S255
G1X-0.16S0
G1X-0.07S255
G1X-0.17S0
G1X-0.07S255
G1X-0.35S0
G1X-0.09S255
G1X-0.46S0
G1X-0.09S255
G1X-0.26S0
G1X-0.09S255
G1X-0.01Y0.1S0
G1X0.1S255
G1X0.25S0
G1X0.1S255
G1X0.45S0
G1X0.1S255
G1X0.14S0
G1X0.19S255
G1X0.08S0
G1X0.08S255
G1X0.1S0
G1X0.07S255
G1X0.15S0
G1X0.08S255
G1X-0.05Y0.1S0
G1X-0.21S255
G1X-0.08S0
G1X-0.07S255
G1X-0.1S0
G1X-0.07S255
G1X-0.15S0
G1X-0.07S255
G1X-0.16S0
G1X-0.37S255
G1X-0.17S0
G1X-0.28S255
G1X-0.03S0
G1X-0.08S255
G1X0.01Y0.1S0
G1X0.09S255
G1X0.47S0
G1X0.08S255
G1X0.43S0
G1X0.07S255
G1X0.17S0
G1X0.07S255
G1X0.15S0
G1X0.08S255
G1X16.26S0
G1X0.09S255
G1X0.21S0
G1X0.11S255
G1X0.15S0
G1X0.11S255
G1X0.33S0
G1X0.07S255
G1X0.25S0
G1X0.07S255
G1X0.12S0
G1X0.08S255
G1X0.01Y0.1S0
G1X-0.07S255
G1X-0.16S0
G1X-0.07S255
G1X-0.16S0
G1X-0.08S255
G1X-0.35S0
G1X-0.09S255
G1X-0.27S0
G1X-0.09S255
G1X-0.08S0
G1X-0.5S255
G1X-15.88S0
G1X-0.07S255
G1X-0.24S0
G1X-0.07S255
G1X-0.13S0
G1X-0.07S255
G1X-0.44S0
G1X-0.09S255
G1X-0.15S0
G1X-0.1S255
G1X-0.17S0
G1X-0.1S255
G1X0.13Y0.1S0
G1X0.12S255
G1X0.91S0
G1X0.05S255
G1X16.35S0
G1X0.08S255
G1X0.19S0
G1X0.09S255
G1X0.16S0
G1X0.09S255
G1X0.29S0
G1X0.09S255
G1X0.13S0
G1X0.19S255
G1X0.09S0
G1X0.07S255
G1X0.11S0
G1X0.07S255
G1X0.15S0
G1X0.07S255
G1X-0.04Y0.1S0
G1X-0.21S255
G1X-0.08S0
G1X-0.08S255
G1X-0.1S0
G1X-0.07S255
G1X-0.15S0
G1X-0.07S255
G1X-0.08S0
G1X-0.09S255
G1X-0.29S0
G1X-0.09S255
G1X-0.16S0
G1X-0.09S255
G1X-0.12S0
G1X-0.08S255
G1X0.06Y0.1S0
G1X0.08S255
G1X0.06S0
G1X0.09S255
G1X0.17S0
G1X0.09S255
G1X0.27S0
G1X0.09S255
G1X0.09S0
G1X0.07S255
G1X0.16S0
G1X0.07S255
G1X0.16S0
G1X0.08S255
G1X0.06Y0.1S0
G1X-0.07S255
G1X-0.24S0
G1X-0.07S255
G1X-0.14S0
G1X-0.07S255
G1X-0.14S0
G1X-0.09S255
G1X-0.18S0
G1X-0.1S255
G1X-0.21S0
G1X-0.16S255
G1X0.51Y0.1S0
G1X0.09S255
G1X-19.19Y2.3S0
G1X-0.13S255
G1X-0.37S0
G1X-0.07S255
G1X-0.37S0
G1X-0.18S255
G1X-0.47S0
G1X-0.09S255
G1X0.01Y0.1S0
G1X0.09S255
G1X0.36S0
G1X0.09S255
G1X0.2S0
G1X0.09S255
G1X0.33S0
G1X0.08S255
G1X0.22S0
G1X0.08S255
G1X0.14S0
G1X0.07S255
G1X0.01Y0.1S0
G1X-0.07S255
G1X-0.17S0
G1X-0.07S255
G1X-0.15S0
G1X-0.07S255
G1X-0.37S0
G1X-0.08S255
G1X-0.28S0
G1X-0.09S255
G1X-0.3S0
G1X-0.09S255
G1X0.04Y0.1S0
G1X0.08S255
G1X0.26S0
G1X0.09S255
G1X0.3S0
G1X0.08S255
G1X0.12S0
G1X0.22S255
G1X0.08S0
G1X0.08S255
G1X0.09S0
G1X0.07S255
G1X0.15S0
G1X0.07S255
G1X20.86S0
G1X0.38S255
G1X0.17S0
G1X0.37S255
G1X0.32S0
G1X0.07S255
G1X0.28S0
G1X0.08S255
G1X0.08S0
G1X0.08S255
G1X0.03Y0.1S0
G1X-0.07S255
G1X-0.16S0
G1X-0.07S255
G1X-0.18S0
G1X-0.08S255
G1X-0.33S0
G1X-0.09S255
G1X-0.29S0
G1X-0.02S255
G1X-0.15S0
G1X-0.09S255
G1X-0.28S0
G1X-0.09S255
G1X-20.88S0
G1X-0.17S255
G1X-0.08S0
G1X-0.08S255
G1X-0.11S0
G1X-0.07S255
G1X-0.16S0
G1X-0.07S255
G1X-0.08S0
G1X-0.08S255
G1X-0.3S0
G1X-0.08S255
G1X-0.22S0
G1X-0.08S255
G1X0.05Y0.1S0
G1X0.09S255
G1X0.17S0
G1X0.09S255
G1X0.26S0
G1X0.09S255
G1X0.09S0
G1X0.07S255
G1X0.16S0
G1X0.07S255
G1X0.18S0
G1X0.07S255
G1X21.42S0
G1X0.1S255
G1X0.47S0
G1X0.09S255
G1X0.19S0
G1X0.09S255
G1X0.12S0
G1X0.07S255
G1X0.12S0
G1X0.07S255
G1X0.16S0
G1X0.07S255
G1X-0.03Y0.1S0
G1X-0.08S255
G1X-0.09S0
G1X-0.08S255
G1X-0.07S0
G1X-0.08S255
G1X-0.09S0
G1X-0.07S255
G1X-0.13S0
G1X-0.07S255
G1X-0.14S0
G1X-0.16S255
G1X-0.07S0
G1X-0.17S255
G1X-0.23S0
G1X-0.18S255
G1X-21.16S0
G1X-0.08S255
G1X-0.26S0
G1X-0.07S255
G1X-0.11S0
G1X-0.08S255
G1X-0.16S0
G1X-0.11S255
G1X-0.12S0
G1X-0.12S255
G1X-0.15S0
G1X-0.08S255
G1X22.69Y0.1S0
G1X0.09S255
G1X0.13S0
G1X0.09S255
G1X0.43S0
G1X0.07S255
G1X0.17S0
G1X0.07S255
G1X0.14S0
G1X0.07S255
G1X0.07Y0.1S0
G1X-0.08S255
G1X-0.21S0
G1X-0.07S255
G1X-0.15S0
G1X-0.07S255
G1X-0.44S0
G1X-0.08S255
G1X-0.14S0
G1X-0.1S255
G1X-0.23S0
G1X-0.09S255
G1X0.08Y0.1S0
G1X0.26S255
G1X0.23S0
G1X0.39S255
G1X0.18S0
G1X0.17S255
G1X0.34S0
G1X0.07S255
G1X-23.86Y2.8S0
G1X-0.18S255
G1X-0.33S0
G1X-0.07S255
G1X-0.35S0
G1X-0.27S255
G1X-0.41S0
G1X-0.09S255
G1X0.01Y0.1S0
G1X0.09S255
G1X0.32S0
G1X0.1S255
G1X0.24S0
G1X0.1S255
G1X0.32S0
G1X0.08S255
G1X0.21S0
G1X0.07S255
G1X0.15S0
G1X0.07S255
G1X24.96Y0.1S0
G1X-0.08S255
G1X-0.08S0
G1X-0.08S255
G1X-0.27S0
G1X-0.08S255
G1X-0.33S0
G1X-0.33S255
G1X-0.2S0
G1X-0.37S255
G1X-23.13S0
G1X-0.07S255
G1X-0.17S0
G1X-0.07S255
G1X-0.14S0
G1X-0.07S255
G1X-0.37S0
G1X-0.09S255
G1X-0.67S0
G1X-0.08S255
G1X0.03Y0.1S0
G1X0.09S255
G1X0.27S0
G1X0.1S255
G1X0.22S0
G1X0.11S255
G1X0.13S0
G1X0.08S255
G1X0.08S0
G1X0.08S255
G1X0.08S0
G1X0.08S255
G1X0.08S0
G1X0.08S255
G1X0.13S0
G1X0.07S255
G1X23.1S0
G1X0.09S255
G1X0.28S0
G1X0.09S255
G1X0.11S0
G1X0.09S255
G1X0.25S0
G1X0.09S255
G1X0.35S0
G1X0.07S255
G1X0.18S0
G1X0.07S255
G1X0.16S0
G1X0.07S255
G1Y0.1S0
G1X-0.07S255
G1X-0.16S0
G1X-0.07S255
G1X-0.11S0
G1X-0.08S255
G1X-0.11S0
G1X-0.1S255
G1X-0.18S0
G1X-0.09S255
G1X-0.29S0
G1X-0.09S255
G1X-0.1S0
G1X-0.1S255
G1X-23.54S0
G1X-0.09S255
G1X-0.12S0
G1X-0.07S255
G1X-0.12S0
G1X-0.07S255
G1X-0.16S0
G1X-0.07S255
G1X-0.22S0
G1X-0.16S255
G1X-0.06S0
G1X-0.08S255
G1X-0.23S0
G1X-0.09S255
G1X0.06Y0.1S0
G1X0.09S255
G1X0.17S0
G1X0.09S255
G1X0.43S0
G1X0.07S255
G1X0.16S0
G1X0.07S255
G1X0.18S0
G1X0.08S255
G1X23.49S0
G1X0.19S255
G1X0.2S0
G1X0.09S255
G1X0.29S0
G1X0.09S255
G1X0.09S0
G1X0.07S255
G1X0.14S0
G1X0.07S255
G1X0.09S0
G1X0.07S255
G1X0.08S0
G1X0.08S255
G1X0.08S0
G1X0.08S255
G1X-0.25Y0.1S0
G1X-0.08S255
G1X-0.14S0
G1X-0.07S255
G1X-0.16S0
G1X-0.07S255
G1X-0.09S0
G1X-0.08S255
G1X-0.28S0
G1X-0.09S255
G1X-0.12S0
G1X-0.09S255
G1X-23.61S0
G1X-0.08S255
G1X-0.28S0
G1X-0.08S255
G1X-0.08S0
G1X-0.08S255
G1X-0.15S0
G1X-0.39S255
G1X-0.13S0
G1X-0.45S255
G1X25Y0.1S0
G1X0.1S255
G1X0.22S0
G1X0.1S255
G1X0.15S0
G1X0.09S255
G1X0.22S0
G1X0.09S255
G1X0.12S0
G1X0.07S255
G1X0.14S0
G1X0.07S255
G1X0.22S0
G1X0.07S255
G1X0.07Y0.1S0
G1X-0.08S255
G1X-0.33S0
G1X-0.18S255
G1X-0.26S0
G1X-0.23S255
G1X-0.31S0
G1X-0.25S255
G1X-14.18Y1S0
G1X0.37S255
G1X3S0
G1X0.37S255
G1X0.07Y0.1S0
G1X-0.11S255
G1X-0.28S0
G1X-0.12S255
G1X-2.86S0
G1X-0.11S255
G1X-0.28S0
G1X-0.12S255
G1X0.17Y0.1S0
G1X0.08S255
G1X0.17S0
G1X0.1S255
G1X0.68S0
G1X0.16S255
G1X0.23S0
G1X0.09S255
G1X1.86S0
G1X0.08S255
G1X0.17S0
G1X0.1S255
G1X0.61S0
G1X0.13S255
G1X0.32S0
G1X0.16S255
G1X0.45S0
G1X0.21S255
G1X0.38S0
G1X0.13S255
G1X-0.09Y0.1S0
G1X-0.12S255
G1X-0.16S0
G1X-0.12S255
G1X-0.25S0
G1X-0.13S255
G1X-0.15S0
G1X-0.13S255
G1X-0.21S0
G1X-0.14S255
G1X-0.24S0
G1X-0.12S255
G1X-0.52S0
G1X-0.11S255
G1X-0.01S0
G1X-0.09S255
G1X-0.16S0
G1X-0.14S255
G1X-0.18S0
G1X-0.11S255
G1X-0.3S0
G1X-0.11S255
G1X-0.17S0
G1X-0.11S255
G1X-0.29S0
G1X-0.1S255
G1X-0.1
G1X-0.3S0
G1X-0.11S255
G1X-0.02S0
G1X-0.08S255
G1X-0.19S0
G1X-0.13S255
G1X-0.28S0
G1X-0.11S255
G1X-0.17S0
G1X-0.11S255
G1X-0.01S0
G1X-0.09S255
G1X-0.16S0
G1X-0.14S255
G1X-0.18S0
G1X-0.11S255
G1X-0.3S0
G1X-0.11S255
G1X-0.69S0
G1X-0.12S255
G1Y0.1S0
G1X0.12S255
G1X0.69S0
G1X0.11S255
G1X0.3S0
G1X0.11S255
G1X0.15S0
G1X0.11S255
G1X0.3S0
G1X0.13S255
G1X0.17S0
G1X0.11S255
G1X0.27S0
G1X0.11S255
G1X0.3S0
G1X0.12S255
G1X0.27S0
G1X0.1S255
G1X0.08S0
G1X0.1S255
G1X0.25S0
G1X0.11S255
G1X0.17S0
G1X0.11S255
G1X0.3S0
G1X0.11S255
G1X0.14S0
G1X0.12S255
G1X0.3S0
G1X0.13S255
G1X0.52S0
G1X0.11S255
G1X0.21S0
G1X0.11S255
G1X0.97S0
G1X0.11S255
G1X0.14S0
G1X0.11S255
G1Y0.1S0
G1X-0.11S255
G1X-0.19S0
G1X-0.25S255
G1X-0.79S0
G1X-0.11S255
G1X-0.2S0
G1X-0.11S255
G1X-0.52S0
G1X-0.11S255
G1X-0.33S0
G1X-0.11S255
G1X-0.14S0
G1X-0.11S255
G1X-0.3S0
G1X-0.11S255
G1X-0.17S0
G1X-0.11S255
G1X-0.22S0
G1X-0.1S255
G1X-0.14S0
G1X-0.11S255
G1X-0.23S0
G1X-0.11S255
G1X-0.24S0
G1X-0.15S255
G1X-0.3S0
G1X-0.11S255
G1X-0.17S0
G1X-0.11S255
G1X-0.33S0
G1X-0.11S255
G1X-0.14S0
G1X-0.11S255
G1X-0.3S0
G1X-0.11S255
G1X-0.69S0
G1X-0.12S255
G1Y0.1S0
G1X0.61S255
G1X0.2S0
G1X0.11S255
G1X0.3S0
G1X0.11S255
G1X0.14S0
G1X0.11S255
G1X0.32S0
G1X0.12S255
G1X0.17S0
G1X0.11S255
G1X0.69S0
G1X0.11S255
G1X0.2S0
G1X0.11S255
G1X0.2S0
G1X0.11S255
G1X0.18S0
G1X0.11S255
G1X0.17S0
G1X0.11S255
G1X0.3S0
G1X0.11S255
G1X0.14S0
G1X0.11S255
G1X0.32S0
G1X0.12S255
G1X0.52S0
G1X0.11S255
G1X0.2S0
G1X0.11S255
G1X0.35S0
G1X0.11S255
G1X0.14S0
G1X0.19S255
G1X0.44S0
G1X0.11S255
G1Y0.1S0
G1X-0.11S255
G1X-0.19S0
G1X-0.06S255
G1X-0.3S0
G1X-0.1S255
G1X-0.15S0
G1X-0.11S255
G1X-0.3S0
G1X-0.11S255
G1X-0.22S0
G1X-0.11S255
G1X-0.52S0
G1X-0.15S255
G1X-0.27S0
G1X-0.11S255
G1X-0.16S0
G1X-0.12S255
G1X-0.26S0
G1X-0.14S255
G1X-0.17S0
G1X-0.11S255
G1X-0.14S0
G1X-0.11S255
G1X-0.28S0
G1X-0.11S255
G1X-0.16S0
G1X-0.11S255
G1X-0.28S0
G1X-0.11S255
G1X-0.27S0
G1X-0.14S255
G1X-0.17S0
G1X-0.15S255
G1X-0.27S0
G1X-0.11S255
G1X-0.16S0
G1X-0.12S255
G1X-0.26S0
G1X-0.14S255
G1X-0.69S0
G1X-0.12S255
G1Y0.1S0
G1X0.12S255
G1X0.69S0
G1X0.1S255
G1X0.05S0
G1X0.33S255
G1X0.25S0
G1X0.33S255
G1X0.04S0
G1X0.11S255
G1X0.16S0
G1X0.11S255
G1X0.04S0
G1X0.16S255
G1X0.16S0
G1X0.4S255
G1X0.18S0
G1X0.11S255
G1X0.34S0
G1X0.12S255
G1X0.1S0
G1X0.11S255
G1X0.17S0
G1X0.1S255
G1X0.05S0
G1X0.33S255
G1X0.25S0
G1X0.33S255
G1X0.04S0
G1X0.11S255
G1X0.44S0
G1X0.31S255
G1X0.17S0
G1X0.39S255
G1X0.26S0
G1X0.4S255
G1X0.12S0
G1X0.31S255
G1X-0.12Y0.1S0
G1X-0.1S255
G1X-1.55S0
G1X-0.1S255
G1X-5.8S0
G1X-0.12S255
G1Y0.1S0
G1X0.65S255
G1X3.25S0
G1X0.11S255
G1X1.93S0
G1X0.08S255
G1X1.58S0
G1X0.07S255
G1X9.89Y1.1S0
G1X-0.07S255
G1X-0.11S0
G1X-0.07S255
G1X-0.26S0
G1X-0.08S255
G1X-0.31S0
G1X-0.13S255
G1X-0.13S0
G1X-0.13S255
G1X-0.12S0
G1X-0.45S255
G1X-23.23S0
G1X-0.07S255
G1X-0.12S0
G1X-0.07S255
G1X-0.25S0
G1X-0.07S255
G1X-0.34S0
G1X-0.1S255
G1X-0.16S0
G1X-0.1S255
G1X-0.16S0
G1X-0.1S255
G1X-0.21S0
G1X-0.1S255
G1X-0.03Y0.1S0
G1X0.09S255
G1X0.29S0
G1X0.09S255
G1X0.09S0
G1X0.09S255
G1X0.27S0
G1X0.08S255
G1X0.36S0
G1X0.08S255
G1X0.16S0
G1X0.07S255
G1X0.16S0
G1X0.07S255
G1X23.27S0
G1X0.1S255
G1X0.75S0
G1X0.09S255
G1X0.34S0
G1X0.07S255
G1X0.18S0
G1X0.07S255
G1X0.16S0
G1X0.07S255
G1Y0.1S0
G1X-0.07S255
G1X-0.16S0
G1X-0.07S255
G1X-0.11S0
G1X-0.08S255
G1X-0.09S0
G1X-0.15S255
G1X-0.16S0
G1X-0.09S255
G1X-0.63S0
G1X-0.11S255
G1X-23.38S0
G1X-0.07S255
G1X-0.16S0
G1X-0.07S255
G1X-0.1S0
G1X-0.07S255
G1X-0.09S0
G1X-0.19S255
G1X-0.13S0
G1X-0.09S255
G1X-0.29S0
G1X-0.09S255
G1X-0.11S0
G1X-0.1S255
G1X-0.21S0
G1X-0.1S255
G1X0.04Y0.1S0
G1X0.32S255
G1X0.16S0
G1X0.09S255
G1X0.29S0
G1X0.09S255
G1X0.08S0
G1X0.07S255
G1X0.15S0
G1X0.07S255
G1X0.1S0
G1X0.08S255
G1X0.08S0
G1X0.2S255
G1X23.54S0
G1X0.1S255
G1X0.18S0
G1X0.39S255
G1X0.14S0
G1X0.07S255
G1X0.15S0
G1X0.07S255
G1X0.09S0
G1X0.07S255
G1X0.08S0
G1X0.1S255
G1X0.04S0
G1X0.09S255
G1X-0.24Y0.1S0
G1X-0.08S255
G1X-0.14S0
G1X-0.07S255
G1X-0.17S0
G1X-0.07S255
G1X-0.43S0
G1X-0.08S255
G1X-0.14S0
G1X-0.09S255
G1X-23.82S0
G1X-0.07S255
G1X-0.16S0
G1X-0.07S255
G1X-0.16S0
G1X-0.07S255
G1X-0.09S0
G1X-0.09S255
G1X-0.27S0
G1X-0.09S255
G1X-0.11S0
G1X-0.09S255
G1X-0.25S0
G1X-0.09S255
G1X0.01Y0.1S0
G1X0.1S255
G1X0.2S0
G1X0.1S255
G1X0.17S0
G1X0.1S255
G1X0.17S0
G1X0.1S255
G1X0.14S0
G1X0.07S255
G1X0.13S0
G1X0.07S255
G1X0.24S0
G1X0.08S255
G1X23.43S0
G1X0.09S255
G1X0.22S0
G1X0.1S255
G1X0.14S0
G1X0.09S255
G1X0.43S0
G1X0.07S255
G1X0.15S0
G1X0.07S255
G1X0.22S0
G1X0.08S255
G1X0.06Y0.1S0
G1X-0.07S255
G1X-0.36S0
G1X-0.14S255
G1X-0.2S0
G1X-0.39S255
G1X-0.25S0
G1X-0.21S255
G1X-24.42S0
G1X-0.05S255
G1X-0.5S0
G1X-0.06S255
G1X1.15Y3.2S0
G1X0.14S255
G1X0.11S0
G1X0.13S255
G1X0.17S0
G1X0.18S255
G1X0.01S0
G1X0.18S255
G1X0.32S0
G1X0.07S255
G1X0.28S0
G1X0.08S255
G1X0.08S0
G1X0.08S255
G1X20.7S0
G1X0.09S255
G1X0.51S0
G1X0.11S255
G1X0.13S0
G1X0.11S255
G1X0.33S0
G1X0.07S255
G1X0.26S0
G1X0.07S255
G1X0.11S0
G1X0.08S255
G1X0.02Y0.1S0
G1X-0.07S255
G1X-0.16S0
G1X-0.07S255
G1X-0.17S0
G1X-0.08S255
G1X-0.35S0
G1X-0.09S255
G1X-0.26S0
G1X-0.09S255
G1X-0.38S0
G1X-0.1S255
G1X-20.74S0
G1X-0.07S255
G1X-0.16S0
G1X-0.07S255
G1X-0.18S0
G1X-0.08S255
G1X-0.33S0
G1X-0.09S255
G1X-0.46S0
G1X-0.09S255
G1X-0.28S0
G1X-0.09S255
G1X0.01Y0.1S0
G1X0.1S255
G1X0.25S0
G1X0.09S255
G1X0.47S0
G1X0.09S255
G1X0.19S0
G1X0.1S255
G1X0.11S0
G1X0.07S255
G1X0.12S0
G1X0.07S255
G1X0.16S0
G1X0.07S255
G1X20.84S0
G1X0.12S255
G1X0.25S0
G1X0.09S255
G1X0.29S0
G1X0.09S255
G1X0.14S0
G1X0.17S255
G1X0.09S0
G1X0.07S255
G1X0.11S0
G1X0.07S255
G1X0.16S0
G1X0.07S255
G1X-0.04Y0.1S0
G1X-0.22S255
G1X-0.08S0
G1X-0.08S255
G1X-0.09S0
G1X-0.07S255
G1X-0.15S0
G1X-0.07S255
G1X-0.08S0
G1X-0.09S255
G1X-0.29S0
G1X-0.09S255
G1X-0.15S0
G1X-0.1S255
G1X-20.99S0
G1X-0.08S255
G1X-0.08S0
G1X-0.08S255
G1X-0.08S0
G1X-0.08S255
G1X-0.08S0
G1X-0.08S255
G1X-0.13S0
G1X-0.07S255
G1X-0.14S0
G1X-0.17S255
G1X-0.05S0
G1X-0.18S255
G1X-0.23S0
G1X-0.22S255
G1X-0.1Y0.1S0
G1X0.09S255
G1X0.24S0
G1X0.09S255
G1X0.14S0
G1X0.08S255
G1X0.43S0
G1X0.07S255
G1X0.17S0
G1X0.07S255
G1X0.14S0
G1X0.08S255
G1X21.29S0
G1X0.09S255
G1X0.12S0
G1X0.08S255
G1X0.28S0
G1X0.09S255
G1X0.08S0
G1X0.07S255
G1X0.17S0
G1X0.07S255
G1X0.15S0
G1X0.08S255
G1X0.06Y0.1S0
G1X-0.07S255
G1X-0.23S0
G1X-0.07S255
G1X-0.14S0
G1X-0.08S255
G1X-0.12S0
G1X-0.1S255
G1X-0.2S0
G1X-0.09S255
G1X-0.16S0
G1X-0.09S255
G1X-0.21S0
G1X-0.1S255
G1X-20.91S0
G1X-0.07S255
G1X-0.22S0
G1X-0.07S255
G1X-0.15S0
G1X-0.07S255
G1X-0.43S0
G1X-0.09S255
G1X-0.14S0
G1X-0.09S255
G1X-0.24S0
G1X-0.09S255
G1X0.08Y0.1S0
G1X0.26S255
G1X0.23S0
G1X0.39S255
G1X0.18S0
G1X0.17S255
G1X0.34S0
G1X0.08S255
G1X20.95S0
G1X0.19S255
G1X0.37S0
G1X0.17S255
G1X0.32S0
G1X0.12S255
G1X0.37S0
G1X0.08S255
G1X-2.44Y2.4S0
G1X-0.09S255
G1X-0.04S0
G1X-0.1S255
G1X-0.28S0
G1X-0.08S255
G1X-0.32S0
G1X-0.35S255
G1X-0.14S0
G1X-0.43S255
G1X0.18Y0.1S0
G1X0.08S255
G1X0.26S0
G1X0.09S255
G1X0.27S0
G1X0.1S255
G1X0.33S0
G1X0.07S255
G1X0.19S0
G1X0.07S255
G1X0.16S0
G1X0.07S255
G1Y0.1S0
G1X-0.07S255
G1X-0.16S0
G1X-0.07S255
G1X-0.12S0
G1X-0.08S255
G1X-0.39S0
G1X-0.09S255
G1X-0.63S0
G1X-0.08S255
G1X-17.65Y0.1S0
G1X0.1S255
G1X0.16S0
G1X0.1S255
G1X0.21S0
G1X0.1S255
G1X0.15S0
G1X0.11S255
G1X0.33S0
G1X0.07S255
G1X0.25S0
G1X0.07S255
G1X0.12S0
G1X0.08S255
G1X15.8S0
G1X0.08S255
G1X0.28S0
G1X0.14S255
G1X0.14S0
G1X0.13S255
G1X0.13S0
G1X0.07S255
G1X0.13S0
G1X0.07S255
G1X0.09S0
G1X0.07S255
G1X0.08S0
G1X0.08S255
G1X0.1S0
G1X0.08S255
G1X-0.27Y0.1S0
G1X-0.08S255
G1X-0.13S0
G1X-0.07S255
G1X-0.16S0
G1X-0.08S255
G1X-0.43S0
G1X-0.08S255
G1X-0.29S0
G1X-0.08S255
G1X-15.78S0
G1X-0.08S255
G1X-0.16S0
G1X-0.07S255
G1X-0.16S0
G1X-0.08S255
G1X-0.35S0
G1X-0.09S255
G1X-0.27S0
G1X-0.08S255
G1X-0.13S0
G1X-0.08S255
G1X-0.29Y0.1S0
G1X0.28S255
G1X0.03S0
G1X0.08S255
G1X0.09S0
G1X0.09S255
G1X0.29S0
G1X0.09S255
G1X0.13S0
G1X0.19S255
G1X0.09S0
G1X0.08S255
G1X0.1S0
G1X0.07S255
G1X0.15S0
G1X0.07S255
G1X15.63S0
G1X0.09S255
G1X0.07S0
G1X0.08S255
G1X0.29S0
G1X0.09S255
G1X0.43S0
G1X0.07S255
G1X0.15S0
G1X0.07S255
G1X0.21S0
G1X0.07S255
G1X0.07Y0.1S0
G1X-0.08S255
G1X-0.31S0
G1X-0.2S255
G1X-0.17S0
G1X-0.39S255
G1X-0.3S0
G1X-0.12S255
G1X-15.79S0
G1X-0.21S255
G1X-0.08S0
G1X-0.07S255
G1X-0.11S0
G1X-0.07S255
G1X-0.15S0
G1X-0.07S255
G1X-0.08S0
G1X-0.09S255
G1X-0.29S0
G1X-0.09S255
G1X-0.09S0
G1X-0.1S255
G1X-0.25S0
G1X-0.09S255
G1X-0.01Y0.1S0
G1X0.09S255
G1X0.26S0
G1X0.09S255
G1X0.11S0
G1X0.09S255
G1X0.27S0
G1X0.09S255
G1X0.09S0
G1X0.07S255
G1X0.16S0
G1X0.07S255
G1X0.16S0
G1X0.08S255
G1X0.06Y0.1S0
G1X-0.07S255
G1X-0.24S0
G1X-0.07S255
G1X-0.14S0
G1X-0.07S255
G1X-0.14S0
G1X-0.09S255
G1X-0.18S0
G1X-0.1S255
G1X-0.19S0
G1X-0.09S255
G1X-0.18S0
G1X-0.1S255
G1X0.15Y0.1S0
G1X0.06S255
G1X0.5S0
G1X0.08S255
G1X15.43Y1.2S0
G1X-0.15S255
G1X-0.35S0
G1X-0.07S255
G1X-0.37S0
G1X-0.2S255
G1X-0.22S0
G1X-0.43S255
G1X-11.07Y0.1S0
G1X0.18S255
G1X0.37S0
G1X0.21S255
G1X0.36S0
G1X0.07S255
G1X0.37S0
G1X0.13S255
G1X9.56S0
G1X0.08S255
G1X0.3S0
G1X0.09S255
G1X0.2S0
G1X0.1S255
G1X0.33S0
G1X0.08S255
G1X0.22S0
G1X0.07S255
G1X0.14S0
G1X0.07S255
G1X0.01Y0.1S0
G1X-0.07S255
G1X-0.16S0
G1X-0.07S255
G1X-0.15S0
G1X-0.07S255
G1X-0.37S0
G1X-0.09S255
G1X-0.28S0
G1X-0.08S255
G1X-0.27S0
G1X-0.08S255
G1X-9.48S0
G1X-0.07S255
G1X-0.14S0
G1X-0.07S255
G1X-0.23S0
G1X-0.07S255
G1X-0.32S0
G1X-0.1S255
G1X-0.23S0
G1X-0.1S255
G1X-0.15S0
G1X-0.1S255
G1X-0.19S0
G1X-0.1S255
G1X0.34Y0.1S0
G1X0.08S255
G1X0.48S0
G1X0.09S255
G1X0.36S0
G1X0.08S255
G1X0.14S0
G1X0.07S255
G1X0.17S0
G1X0.07S255
G1X9.47S0
G1X0.08S255
G1X0.26S0
G1X0.09S255
G1X0.29S0
G1X0.09S255
G1X0.11S0
G1X0.09S255
G1X0.05S0
G1X0.09S255
G1X0.08S0
G1X0.08S255
G1X0.09S0
G1X0.07S255
G1X0.14S0
G1X0.07S255
G1X24.38S0
G1X0.12S255
G1X4.17Y0.1S0
G1X-0.4S255
G1X-0.65S0
G1X-0.14S255
G1X-0.43S0
G1X-0.64S255
G1X-0.83S0
G1X-0.13S255
G1X-0.73S0
G1X-0.56S255
G1X-0.22S0
G1X-0.68S255
G1X-0.76S0
G1X-0.41S255
G1X-0.34S0
G1X-0.16S255
G1X-0.44S0
G1X-0.16S255
G1X-0.65S0
G1X-0.16S255
G1X-0.2S0
G1X-0.15S255
G1X-0.17S0
G1X-0.35S255
G1X-0.49S0
G1X-0.37S255
G1X-18.52S0
G1X-0.14S255
G1X-0.1S0
G1X-0.07S255
G1X-0.11S0
G1X-0.07S255
G1X-0.16S0
G1X-0.07S255
G1X-0.08S0
G1X-0.09S255
G1X-0.29S0
G1X-0.09S255
G1X-0.26S0
G1X-0.08S255
G1X-9.48S0
G1X-0.07S255
G1X-0.15S0
G1X-0.07S255
G1X-0.09S0
G1X-0.07S255
G1X-0.08S0
G1X-0.23S255
G1X-0.13S0
G1X-0.1S255
G1X-0.44S0
G1X-0.09S255
G1X-0.01S0
G1X-0.1S255
G1X-0.08S0
G1X-0.13S255
G1X-0.04Y0.1S0
G1X0.09S255
G1X0.26S0
G1X0.09S255
G1X0.12S0
G1X0.08S255
G1X0.03S0
G1X0.23S255
G1X0.19S0
G1X0.07S255
G1X0.15S0
G1X0.07S255
G1X0.11S0
G1X0.08S255
G1X0.09S0
G1X0.16S255
G1X9.38S0
G1X0.04S255
G1X0.12S0
G1X0.08S255
G1X0.28S0
G1X0.08S255
G1X0.26S0
G1X0.09S255
G1X0.1S0
G1X0.07S255
G1X0.16S0
G1X0.07S255
G1X0.17S0
G1X0.08S255
G1X18.59S0
G1X0.57S255
G1X0.28S0
G1X0.21S255
G1X0.22S0
G1X0.32S255
G1X0.23S0
G1X0.16S255
G1X0.61S0
G1X0.24S255
G1X0.4S0
G1X0.16S255
G1X0.22S0
G1X0.23S255
G1X0.2S0
G1X0.2S255
G1X0.71S0
G1X0.17S255
G1X1.16S0
G1X0.15S255
G1X0.66S0
G1X0.13S255
G1X0.83S0
G1X0.14S255
G1X0.43S0
G1X0.18S255
G1X0.32S0
G1X0.14S255
G1X0.79S0
G1X0.13S255
G1Y0.1S0
G1X-0.13S255
G1X-0.79S0
G1X-0.14S255
G1X-0.26S0
G1X-0.15S255
G1X-0.52S0
G1X-0.14S255
G1X-0.83S0
G1X-0.13S255
G1X-0.64S0
G1X-0.14S255
G1X-1.08S0
G1X-0.17S255
G1X-0.78S0
G1X-0.15S255
G1X-0.41S0
G1X-0.16S255
G1X-0.17S0
G1X-0.16S255
G1X-0.37S0
G1X-0.14S255
G1X-0.02S0
G1X-0.15S255
G1X-0.57S0
G1X-0.16S255
G1X-0.23S0
G1X-0.2S255
G1X-0.41S0
G1X-0.17S255
G1X-0.21S0
G1X-0.17S255
G1X-0.31S0
G1X-0.17S255
G1X-18.48S0
G1X-0.08S255
G1X-0.27S0
G1X-0.07S255
G1X-0.1S0
G1X-0.08S255
G1X-0.17S0
G1X-0.12S255
G1X-0.09S0
G1X-0.13S255
G1X-0.32S0
G1X-0.17S255
G1X-9.64S0
G1X-0.07S255
G1X-0.17S0
G1X-0.07S255
G1X-0.17S0
G1X-0.07S255
G1X-0.43S0
G1X-0.08S255
G1X-0.14S0
G1X-0.09S255
G1X-0.26S0
G1X-0.09S255
G1X0.04Y0.1S0
G1X0.12S255
G1X0.12S0
G1X0.12S255
G1X0.18S0
G1X0.09S255
G1X0.44S0
G1X0.08S255
G1X0.11S0
G1X0.07S255
G1X0.26S0
G1X0.08S255
G1X29.64S0
G1X0.15S255
G1X0.36S0
G1X0.16S255
G1X0.22S0
G1X0.18S255
G1X0.42S0
G1X0.16S255
G1X0.23S0
G1X0.16S255
G1X0.54S0
G1X0.14S255
G1X0.1S0
G1X0.14S255
G1X0.33S0
G1X0.16S255
G1X0.7S0
G1X0.19S255
G1X0.89S0
G1X0.17S255
G1X0.97S0
G1X0.14S255
G1X0.15S0
G1X0.77S255
G1X0.68S0
G1X0.14S255
G1X0.56S0
G1X0.14S255
G1X0.23S0
G1X0.37S255
G1X0.56S0
G1X0.13S255
G1Y0.1S0
G1X-0.13S255
G1X-0.36S0
G1X-0.57S255
G1X-0.22S0
G1X-0.14S255
G1X-0.57S0
G1X-0.14S255
G1X-0.83S0
G1X-0.13S255
G1X-0.32S0
G1X-0.13S255
G1X-0.23S0
G1X-0.19S255
G1X-0.79S0
G1X-0.16S255
G1X-1.05S0
G1X-0.44S255
G1X-0.39S0
G1X-0.16S255
G1X-0.29S0
G1X-0.15S255
G1X-0.16S0
G1X-0.15S255
G1X-0.5S0
G1X-0.16S255
G1X-0.23S0
G1X-0.16S255
G1X-0.09S0
G1X-0.44S255
G1X-0.28S0
G1X-0.17S255
G1Y0.1S0
G1X0.17S255
G1X0.58S0
G1X0.39S255
G1X0.23S0
G1X0.16S255
G1X0.46S0
G1X0.16S255
G1X0.23S0
G1X0.15S255
G1X0.25S0
G1X0.16S255
G1X0.24S0
G1X0.36S255
G1X1.36S0
G1X0.15S255
G1X0.34S0
G1X0.47S255
G1X0.42S0
G1X0.13S255
G1X0.23S0
G1X0.13S255
G1X0.83S0
G1X0.14S255
G1X0.57S0
G1X0.14S255
G1X0.22S0
G1X0.14S255
G1X0.35S0
G1X0.15S255
G1X0.29S0
G1X0.13S255
G1Y0.1S0
G1X-0.13S255
G1X-0.27S0
G1X-0.14S255
G1X-0.38S0
G1X-0.14S255
G1X-0.24S0
G1X-0.15S255
G1X-0.54S0
G1X-0.14S255
G1X-0.83S0
G1X-0.13S255
G1X-0.14S0
G1X-0.14S255
G1X-0.84S0
G1X-0.13S255
G1X-0.31S0
G1X-0.14S255
G1X-1.65S0
G1X-0.16S255
G1X-0.19S0
G1X-0.16S255
G1X-0.21S0
G1X-0.16S255
G1X-0.3S0
G1X-0.16S255
G1X-0.4S0
G1X-0.18S255
G1X-0.24S0
G1X-0.15S255
G1X-0.44S0
G1X-0.05S255
G1X-0.32S0
G1X-0.17S255
G1X-22.61S0
G1X-0.22S255
G1X-0.3S0
G1X-0.08S255
G1X-0.32S0
G1X-0.34S255
G1X-4.66Y0.1S0
G1X0.42S255
G1X0.19S0
G1X0.27S255
G1X0.28S0
G1X0.27S255
G1X0.34S0
G1X0.08S255
G1X0.31S0
G1X0.2S255
G1X2.25S0
G1X0.09S255
G1X0.27S0
G1X0.09S255
G1X0.33S0
G1X0.08S255
G1X0.19S0
G1X0.07S255
G1X0.16S0
G1X0.07S255
G1X22.57S0
G1X0.17S255
G1X0.25S0
G1X0.17S255
G1X0.35S0
G1X0.18S255
G1X0.25S0
G1X0.23S255
G1X0.31S0
G1X0.16S255
G1X0.38S0
G1X0.15S255
G1X0.18S0
G1X0.16S255
G1X0.2S0
G1X0.16S255
G1X0.32S0
G1X0.17S255
G1X1.15S0
G1X0.14S255
G1X0.31S0
G1X0.13S255
G1X0.93S0
G1X0.13S255
G1X0.06S0
G1X0.13S255
G1X0.83S0
G1X0.14S255
G1X0.48S0
G1X0.16S255
G1X0.29S0
G1X0.14S255
G1X0.37S0
G1X0.14S255
G1X0.28S0
G1X0.13S255
G1Y0.1S0
G1X-0.13S255
G1X-0.33S0
G1X-0.23S255
G1X-0.23S0
G1X-0.14S255
G1X-0.38S0
G1X-0.3S255
G1X-0.25S0
G1X-0.14S255
G1X-0.83S0
G1X-0.23S255
G1X-1.02S0
G1X-0.13S255
G1X-0.34S0
G1X-0.18S255
G1X-0.27S0
G1X-0.13S255
G1X-0.74S0
G1X-0.53S255
G1X-0.26S0
G1X-0.16S255
G1X-0.14S0
G1X-0.15S255
G1X-0.46S0
G1X-0.15S255
G1X-0.04S0
G1X-0.29S255
G1X-0.04S0
G1X-0.14S255
G1X-0.3S0
G1X-0.58S255
G1X-0.32S0
G1X-0.17S255
G1X-22.57S0
G1X-0.07S255
G1X-0.16S0
G1X-0.07S255
G1X-0.13S0
G1X-0.07S255
G1X-0.39S0
G1X-0.09S255
G1X-2.57S0
G1X-0.07S255
G1X-0.15S0
G1X-0.07S255
G1X-0.21S0
G1X-0.07S255
G1X-0.34S0
G1X-0.09S255
G1X-0.23S0
G1X-0.09S255
G1X-0.14S0
G1X-0.09S255
G1X-0.23S0
G1X-0.09S255
G1X-0.28S0
G1X-0.09S255
G1Y0.1S0
G1X0.09S255
G1X0.26S0
G1X0.08S255
G1X0.29S0
G1X0.09S255
G1X0.09S0
G1X0.08S255
G1X0.29S0
G1X0.09S255
G1X0.38S0
G1X0.07S255
G1X0.13S0
G1X0.07S255
G1X0.16S0
G1X0.08S255
G1X2.21S0
G1X0.12S255
G1X0.17S0
G1X0.12S255
G1X0.13S0
G1X0.07S255
G1X0.13S0
G1X0.07S255
G1X0.08S0
G1X0.08S255
G1X0.08S0
G1X0.07S255
G1X0.11S0
G1X0.08S255
G1X22.59S0
G1X0.17S255
G1X4.35S0
G1X0.43S255
G1X0.44S0
G1X0.61S255
G1X0.62S0
G1X0.15S255
G1X0.83S0
G1X0.5S255
G1X0.57S0
G1X0.46S255
G1X0.33S0
G1X0.4S255
G1X-9.69Y0.1S0
G1X-0.17S255
G1X-22.87S0
G1X-0.07S255
G1X-0.13S0
G1X-0.07S255
G1X-0.17S0
G1X-0.07S255
G1X-0.43S0
G1X-0.09S255
G1X-2.23S0
G1X-0.07S255
G1X-0.13S0
G1X-0.07S255
G1X-0.08S0
G1X-0.08S255
G1X-0.08S0
G1X-0.08S255
G1X-0.1S0
G1X-0.08S255
G1X-0.1S0
G1X-0.09S255
G1X-0.29S0
G1X-0.09S255
G1X-0.08S0
G1X-0.09S255
G1X-0.29S0
G1X-0.09S255
G1X-0.25S0
G1X-0.09S255
G1Y0.1S0
G1X0.09S255
G1X0.25S0
G1X0.09S255
G1X0.29S0
G1X0.09S255
G1X0.08S0
G1X0.09S255
G1X0.29S0
G1X0.09S255
G1X0.08S0
G1X0.07S255
G1X0.16S0
G1X0.07S255
G1X0.13S0
G1X0.07S255
G1X2.53S0
G1X0.08S255
G1X0.44S0
G1X0.07S255
G1X0.15S0
G1X0.07S255
G1X0.2S0
G1X0.08S255
G1X22.8S0
G1X0.17S255
G1X2.61S0
G1X0.16S255
G1Y0.1S0
G1X-0.16S255
G1X-2.61S0
G1X-0.17S255
G1X-22.74S0
G1X-0.07S255
G1X-0.31S0
G1X-0.21S255
G1X-0.17S0
G1X-0.38S255
G1X-2.47S0
G1X-0.08S255
G1X-0.19S0
G1X-0.07S255
G1X-0.16S0
G1X-0.07S255
G1X-0.1S0
G1X-0.09S255
G1X-0.25S0
G1X-0.08S255
G1X-0.13S0
G1X-0.09S255
G1X-0.25S0
G1X-0.08S255
G1X-0.28S0
G1X-0.09S255
G1X-0.09S0
G1X-0.06S255
G1X0.09Y0.1S0
G1X0.15S255
G1X0.33S0
G1X0.31S255
G1X0.24S0
G1X0.31S255
G1X0.2S0
G1X0.11S255
G1X0.11
G1X0.3S0
G1X0.07S255
G1X33.76Y0.4S0
G1X-0.24S255
G1X-4.63S0
G1X-0.23S255
G1X-4.2S0
G1X-0.24S255
G1X-0.11Y0.1S0
G1X0.57S255
G1X3.87S0
G1X0.56S255
G1X4.3S0
G1X0.57S255
G1X0.06Y0.1S0
G1X-0.15S255
G1X-4.72S0
G1X-0.15S255
G1X-4.29S0
G1X-0.14S255
G1X-1.2Y0.1S0
G1X0.15S255
G1X1.08S0
G1X0.13S255
G1X0.56S0
G1X0.15S255
G1X3.6S0
G1X0.13S255
G1X1.07S0
G1X0.19S255
G1X3.48S0
G1X0.13S255
G1X1.95S0
G1X0.18S255
G1X0.56S0
G1X0.21S255
G1X0.69S0
G1X0.14S255
G1X0.09Y0.1S0
G1X-0.4S255
G1X-0.32S0
G1X-0.59S255
G1X-0.18S0
G1X-0.63S255
G1X-0.44S0
G1X-0.15S255
G1X-1.1S0
G1X-0.14S255
G1X-0.04S0
G1X-0.44S255
G1X-0.34S0
G1X-0.15S255
G1X-0.42S0
G1X-0.14S255
G1X-0.29S0
G1X-0.14S255
G1X-0.5S0
G1X-0.21S255
G1X-0.48S0
G1X-0.66S255
G1X-0.49S0
G1X-0.14S255
G1X-0.29S0
G1X-0.14S255
G1X-0.03S0
G1X-0.44S255
G1X-0.35S0
G1X-0.14S255
G1X-0.43S0
G1X-0.14S255
G1X-0.23S0
G1X-0.75S255
G1X-0.89S0
G1X-0.56S255
G1X-0.33S0
G1X-0.14S255
G1X-0.04S0
G1X-0.44S255
G1X-0.41S0
G1X-0.55S255
G1X-0.2S0
G1X-0.71S255
G1Y0.1S0
G1X0.15S255
G1X0.7S0
G1X0.15S255
G1X0.37S0
G1X0.15S255
G1X0.27S0
G1X0.18S255
G1X0.31S0
G1X0.21S255
G1X0.27S0
G1X0.16S255
G1X0.37S0
G1X0.15S255
G1X0.83S0
G1X0.16S255
G1X0.82S0
G1X0.14S255
G1X0.43S0
G1X0.14S255
G1X0.27S0
G1X0.18S255
G1X0.3S0
G1X0.21S255
G1X0.29S0
G1X0.14S255
G1X0.44S0
G1X0.15S255
G1X0.39S0
G1X0.17S255
G1X0.44S0
G1X0.14S255
G1X0.02S0
G1X0.14S255
G1X0.45S0
G1X0.14S255
G1X0.29S0
G1X0.14S255
G1X0.42S0
G1X0.15S255
G1X0.27S0
G1X0.18S255
G1X0.3S0
G1X0.21S255
G1X1.1S0
G1X0.15S255
G1X0.37S0
G1X0.17S255
G1X0.5S0
G1X0.03S255
G1X0.18S0
G1X0.04S255
G1X0.47S0
G1X0.14S255
G1X0.23S0
G1X0.15S255
G1X-0.02Y0.1S0
G1X-0.14S255
G1X-0.22S0
G1X-0.16S255
G1X-1.26S0
G1X-0.15S255
G1X-0.33S0
G1X-0.15S255
G1X-1.1S0
G1X-0.14S255
G1X-0.44S0
G1X-0.15S255
G1X-0.23S0
G1X-0.15S255
G1X-0.42S0
G1X-0.14S255
G1X-0.29S0
G1X-0.14S255
G1X-0.41S0
G1X-0.14S255
G1X-0.09S0
G1X-0.15S255
G1X-0.4S0
G1X-0.14S255
G1X-0.43S0
G1X-0.14S255
G1X-0.44S0
G1X-0.14S255
G1X-0.29S0
G1X-0.14S255
G1X-0.44S0
G1X-0.15S255
G1X-0.23S0
G1X-0.14S255
G1X-0.43S0
G1X-0.14S255
G1X-0.82S0
G1X-0.16S255
G1X-0.8S0
G1X-0.14S255
G1X-0.46S0
G1X-0.14S255
G1X-0.24S0
G1X-0.14S255
G1X-0.44S0
G1X-0.15S255
G1X-0.2S0
G1X-0.15S255
G1X-0.45S0
G1X-0.15S255
G1X-0.66S0
G1X-0.15S255
G1Y0.1S0
G1X0.15S255
G1X0.65S0
G1X0.14S255
G1X0.49S0
G1X0.14S255
G1X0.18S0
G1X0.14S255
G1X0.46S0
G1X0.14S255
G1X0.22S0
G1X0.15S255
G1X0.48S0
G1X0.15S255
G1X0.78S0
G1X0.16S255
G1X0.82S0
G1X0.14S255
G1X0.43S0
G1X0.14S255
G1X0.22S0
G1X0.15S255
G1X0.45S0
G1X0.14S255
G1X0.29S0
G1X0.14S255
G1X0.47S0
G1X0.19S255
G1X0.35S0
G1X0.14S255
G1X0.36S0
G1X0.15S255
G1X0.16S0
G1X0.15S255
G1X0.37S0
G1X0.14S255
G1X0.29S0
G1X0.14S255
G1X0.42S0
G1X0.15S255
G1X0.22S0
G1X0.15S255
G1X0.45S0
G1X0.14S255
G1X1.1S0
G1X0.15S255
G1X0.32S0
G1X0.14S255
G1X0.97S0
G1X0.43S255
G1X0.26S0
G1X0.14S255
G1Y0.1S0
G1X-0.14S255
G1X-0.51S0
G1X-0.33S255
G1X-0.19S0
G1X-0.76S255
G1X-0.33S0
G1X-0.15S255
G1X-1.1S0
G1X-0.14S255
G1X-0.45S0
G1X-0.15S255
G1X-0.22S0
G1X-0.15S255
G1X-0.42S0
G1X-0.14S255
G1X-0.29S0
G1X-0.14S255
G1X-0.33S0
G1X-0.15S255
G1X-0.24S0
G1X-0.15S255
G1X-0.32S0
G1X-0.57S255
G1X-0.58S0
G1X-0.14S255
G1X-0.29S0
G1X-0.14S255
G1X-0.45S0
G1X-0.15S255
G1X-0.22S0
G1X-0.14S255
G1X-0.43S0
G1X-0.14S255
G1X-0.82S0
G1X-0.16S255
G1X-0.79S0
G1X-0.14S255
G1X-0.48S0
G1X-0.14S255
G1X-0.23S0
G1X-0.14S255
G1X-0.46S0
G1X-0.15S255
G1X-0.17S0
G1X-0.15S255
G1X-0.47S0
G1X-0.15S255
G1X-0.65S0
G1X-0.15S255
G1Y0.1S0
G1X0.15S255
G1X0.67S0
G1X0.15S255
G1X0.43S0
G1X0.15S255
G1X0.21S0
G1X0.16S255
G1X0.43S0
G1X0.14S255
G1X0.24S0
G1X0.15S255
G1X0.44S0
G1X0.15S255
G1X0.8S0
G1X0.75S255
G1X0.23S0
G1X0.14S255
G1X0.42S0
G1X0.14S255
G1X0.25S0
G1X0.15S255
G1X0.43S0
G1X0.14S255
G1X0.29S0
G1X0.14S255
G1X1.01S0
G1X0.14S255
G1X0.28S0
G1X0.15S255
G1X0.32S0
G1X0.15S255
G1X0.29S0
G1X0.14S255
G1X0.29S0
G1X0.14S255
G1X0.42S0
G1X0.14S255
G1X0.25S0
G1X0.15S255
G1X0.43S0
G1X0.14S255
G1X1.1S0
G1X0.15S255
G1X0.34S0
G1X0.14S255
G1X0.46S0
G1X0.13S255
G1X0.18S0
G1X0.15S255
G1X0.72S0
G1X0.14S255
G1Y0.1S0
G1X-0.14S255
G1X-0.24S0
G1X-0.07S255
G1X-0.39S0
G1X-0.16S255
G1X-0.22S0
G1X-0.15S255
G1X-0.35S0
G1X-0.15S255
G1X-0.39S0
G1X-0.15S255
G1X-1.1S0
G1X-0.14S255
G1X-0.36S0
G1X-0.18S255
G1X-0.3S0
G1X-0.17S255
G1X-0.29S0
G1X-0.23S255
G1X-0.29S0
G1X-0.14S255
G1X-0.25S0
G1X-0.15S255
G1X-0.4S0
G1X-0.15S255
G1X-0.25S0
G1X-0.17S255
G1X-0.44S0
G1X-0.02S255
G1X-0.36S0
G1X-0.29S255
G1X-0.29S0
G1X-0.14S255
G1X-0.35S0
G1X-0.19S255
G1X-0.3S0
G1X-0.17S255
G1X-0.29S0
G1X-0.23S255
G1X-0.82S0
G1X-0.16S255
G1X-0.85S0
G1X-0.17S255
G1X-0.3S0
G1X-0.17S255
G1X-0.29S0
G1X-0.14S255
G1X-0.36S0
G1X-0.19S255
G1X-0.29S0
G1X-0.17S255
G1X-0.31S0
G1X-0.17S255
G1X-0.71S0
G1X-0.15S255
G1Y0.1S0
G1X0.15S255
G1X0.8S0
G1X0.47S255
G1X0.47S0
G1X0.6S255
G1X0.38S0
G1X0.47S255
G1X0.93S0
G1X0.16S255
G1X0.82S0
G1X0.14S255
G1X0.05S0
G1X0.45S255
G1X0.44S0
G1X0.59S255
G1X0.29S0
G1X0.14S255
G1X0.09S0
G1X0.3S255
G1X0.12S0
G1X0.56S255
G1X0.28S0
G1X0.15S255
G1X0.48S0
G1X0.15S255
G1X0.21S0
G1X0.14S255
G1X0.29S0
G1X0.14S255
G1X0.05S0
G1X0.44S255
G1X0.45S0
G1X0.59S255
G1X1.1S0
G1X0.15S255
G1X0.48S0
G1X0.49S255
G1X0.36S0
G1X0.55S255
G1X0.14S0
G1X0.54S255
G1X-0.3Y0.1S0
G1X-0.14S255
G1X-2.12S0
G1X-0.15S255
G1X-8.46S0
G1X-0.16S255
G1X-4.12S0
G1X-0.15S255
G1Y0.1S0
G1X0.15S255
G1X4.12S0
G1X0.16S255
G1X8.46S0
G1X0.15S255
G1X2.12S0
G1X0.14S255
G1Y0.1S0
G1X-0.14S255
G1X-1.72S0
G1X-0.96S255
G1X-2.64S0
G1X-0.16S255
G1X-4.66S0
G1X-0.75S255
G1X-4.12S0
G1X-0.15S255
G1X-34.03Y2.8S0
G1X0.47S255
G1X6.13S0
G1X0.47S255
G1Y0.1S0
G1X-0.47S255
G1X-6.13S0
G1X-0.47S255
G1Y0.1S0
G1X0.21S255
G1X6.65S0
G1X0.21S255
G1Y0.1S0
G1X-0.21S255
G1X-6.65S0
G1X-0.21S255
G1Y0.1S0
G1X0.21S255
G1X6.65S0
G1X0.21S255
G1Y0.1S0
G1X-0.21S255
G1X-0.63S0
G1X-0.59S255
G1X-0.82S0
G1X-0.17S255
G1X-0.18S0
G1X-0.22S255
G1X-0.54S0
G1X-0.22S255
G1X-0.54S0
G1X-0.22S255
G1X-0.32S0
G1X-0.21S255
G1X-0.55S0
G1X-0.21S255
G1X-0.55S0
G1X-0.21S255
G1X-0.47S0
G1X-0.21S255
G1Y0.1S0
G1X0.21S255
G1X0.47S0
G1X0.21S255
G1X0.55S0
G1X0.21S255
G1X0.55S0
G1X0.21S255
G1X0.32S0
G1X0.22S255
G1X0.54S0
G1X0.22S255
G1X0.54S0
G1X0.22S255
G1X0.2S0
G1X0.18S255
G1X0.66S0
G1X0.85S255
G1X0.5S0
G1X0.21S255
G1Y0.1S0
G1X-0.21S255
G1X-0.44S0
G1X-0.24S255
G1X-0.49S0
G1X-0.25S255
G1X-0.56S0
G1X-0.18S255
G1X-0.23S0
G1X-0.22S255
G1X-0.54S0
G1X-0.22S255
G1X-0.54S0
G1X-0.22S255
G1X-0.32S0
G1X-0.21S255
G1X-0.55S0
G1X-0.21S255
G1X-0.55S0
G1X-0.21S255
G1X-0.47S0
G1X-0.21S255
G1Y0.1S0
G1X0.21S255
G1X0.47S0
G1X0.21S255
G1X0.55S0
G1X0.21S255
G1X0.55S0
G1X0.21S255
G1X0.32S0
G1X0.22S255
G1X0.54S0
G1X0.22S255
G1X0.54S0
G1X0.22S255
G1X0.26S0
G1X0.18S255
G1X0.5S0
G1X0.22S255
G1X0.6S0
G1X0.22S255
G1X0.41S0
G1X0.21S255
G1Y0.1S0
G1X-0.21S255
G1X-0.41S0
G1X-0.25S255
G1X-1.27S0
G1X-0.17S255
G1X-0.29S0
G1X-0.22S255
G1X-0.54S0
G1X-0.22S255
G1X-0.54S0
G1X-0.22S255
G1X-0.32S0
G1X-0.21S255
G1X-0.55S0
G1X-0.21S255
G1X-0.55S0
G1X-0.21S255
G1X-0.47S0
G1X-0.21S255
G1Y0.1S0
G1X0.21S255
G1X0.47S0
G1X0.21S255
G1X0.55S0
G1X0.21S255
G1X0.55S0
G1X0.21S255
G1X0.32S0
G1X0.22S255
G1X0.54S0
G1X0.22S255
G1X0.54S0
G1X0.22S255
G1X0.32S0
G1X0.17S255
G1X1.01S0
G1X0.44S255
G1X0.45S0
G1X0.21S255
G1Y0.1S0
G1X-0.21S255
G1X-0.53S0
G1X-0.69S255
G1X-0.65S0
G1X-0.18S255
G1X-0.34S0
G1X-0.22S255
G1X-0.54S0
G1X-0.22S255
G1X-0.54S0
G1X-0.22S255
G1X-0.32S0
G1X-0.21S255
G1X-0.55S0
G1X-0.21S255
G1X-0.55S0
G1X-0.21S255
G1X-0.47S0
G1X-0.21S255
G1Y0.1S0
G1X0.21S255
G1X0.47S0
G1X0.22S255
G1X0.54S0
G1X0.21S255
G1X0.55S0
G1X0.21S255
G1X0.32S0
G1X0.22S255
G1X0.54S0
G1X0.22S255
G1X0.54S0
G1X0.22S255
G1X0.37S0
G1X0.18S255
G1X0.48S0
G1X0.58S255
G1X0.78S0
G1X0.21S255
G1Y0.1S0
G1X-0.21S255
G1X-1.12S0
G1X-0.3S255
G1X-0.39S0
G1X-0.18S255
G1X-0.4S0
G1X-0.22S255
G1X-0.53S0
G1X-0.23S255
G1X-0.53S0
G1X-0.23S255
G1X-0.32S0
G1X-0.22S255
G1X-0.52S0
G1X-0.23S255
G1X-0.53S0
G1X-0.23S255
G1X-0.47S0
G1X-0.21S255
G1Y0.1S0
G1X0.21S255
G1X0.47S0
G1X0.25S255
G1X0.5S0
G1X0.26S255
G1X0.5S0
G1X0.21S255
G1X0.33S0
G1X0.26S255
G1X0.49S0
G1X0.27S255
G1X0.49S0
G1X0.22S255
G1X0.44S0
G1X0.17S255
G1X0.36S0
G1X0.21S255
G1X0.55S0
G1X0.1S255
G1X0.57S0
G1X0.21S255
G1Y0.1S0
G1X-0.21S255
G1X-0.48S0
G1X-0.24S255
G1X-0.48S0
G1X-0.22S255
G1X-0.34S0
G1X-0.17S255
G1X-0.48S0
G1X-0.24S255
G1X-0.4S0
G1X-0.36S255
G1X-0.39S0
G1X-0.33S255
G1X-0.34S0
G1X-0.24S255
G1X-0.4S0
G1X-0.36S255
G1X-0.39S0
G1X-0.32S255
G1X-0.47S0
G1X-0.21S255
G1Y0.1S0
G1X0.21S255
G1X0.47S0
G1X0.19S255
G1X0.03S0
G1X0.69S255
G1X0.07S0
G1X0.69S255
G1X0.38S0
G1X0.2S255
G1X0.03S0
G1X0.69S255
G1X0.07S0
G1X0.69S255
G1X0.54S0
G1X0.18S255
G1X0.36S0
G1X0.85S255
G1X0.52S0
G1X0.21S255
G1Y0.1S0
G1X-0.21S255
G1X-0.64S0
G1X-0.62S255
G1X-0.44S0
G1X-0.18S255
G1X-0.66S0
G1X-0.49S255
G1X-0.26S0
G1X-0.5S255
G1X-0.14S0
G1X-0.2S255
G1X-0.47S0
G1X-0.49S255
G1X-0.26S0
G1X-0.5S255
G1X-0.14S0
G1X-0.19S255
G1X-0.47S0
G1X-0.21S255
G1Y0.1S0
G1X0.21S255
G1X4.8S0
G1X0.17S255
G1X1.68S0
G1X0.21S255
G1Y0.1S0
G1X-0.21S255
G1X-1.65S0
G1X-0.17S255
G1X-4.83S0
G1X-0.21S255
G1Y0.1S0
G1X0.21S255
G1X4.86S0
G1X0.17S255
G1X1.62S0
G1X0.21S255
G1X39.2S0
G1X1.92S255
G1X3.31Y0.1S0
G1X-1.89S255
G1X-1.42S0
G1X-1.92S255
G1X-39.2S0
G1X-0.47S255
G1X-1.33S0
G1X-0.17S255
G1X-4.63S0
G1X-0.47S255
G1Y0.1S0
G1X0.47S255
G1X4.65S0
G1X0.18S255
G1X1.3S0
G1X0.47S255
G1X39.2S0
G1X1.92S255
G1X0.43S0
G1X0.37S255
G1X0.64S0
G1X1.87S255
G1Y0.1S0
G1X-1.84S255
G1X-0.67S0
G1X-0.37S255
G1X-0.43S0
G1X-1.92S255
G1Y0.1S0
G1X0.48S255
G1X1.87S0
G1X0.37S255
G1X0.72S0
G1X0.42S255
G1X0.08Y0.1S0
G1X-0.44S255
G1X-0.78S0
G1X-0.37S255
G1X-1.75S0
G1X-0.48S255
G1X0.11Y0.1S0
G1X0.48S255
G1X2.87S0
G1X0.44S255
G1X0.12Y0.1S0
G1X-0.48S255
G1X-2.83S0
G1X-0.48S255
G1X-23.19S0
G1X-0.32S255
G1X-3.16Y0.1S0
G1X1.92S255
G1X0.76S0
G1X1.19S255
G1X22.92S0
G1X0.47S255
G1X2.82S0
G1X0.49S255
G1X0.12Y0.1S0
G1X-0.51S255
G1X-2.81S0
G1X-0.47S255
G1X-21.57S0
G1X-0.37S255
G1X-0.93S0
G1X-1.49S255
G1X-0.62S0
G1X-1.92S255
G1Y0.1S0
G1X1.92S255
G1X0.62S0
G1X1.6S255
G1X0.82S0
G1X0.37S255
G1X1.7S0
G1X0.36S255
G1X19.62S0
G1X0.47S255
G1X2.81S0
G1X0.51S255
G1X0.12Y0.1S0
G1X-0.51S255
G1X-2.83S0
G1X-0.47S255
G1X-19.72S0
G1X-0.36S255
G1X-1.7S0
G1X-0.37S255
G1X-0.74S0
G1X-0.52S255
G1X-0.8S0
G1X-0.36S255
G1X-2.11S0
G1X-0.43S255
G1X-19.57Y0.1S0
G1X0.28S255
G1X19.35S0
G1X0.48S255
G1X2S0
G1X0.13S255
G1X1.17S0
G1X0.44S255
G1X0.68S0
G1X0.37S255
G1X1.7S0
G1X0.36S255
G1X19.82S0
G1X0.47S255
G1X2.85S0
G1X0.49S255
G1X0.1Y0.1S0
G1X-0.48S255
G1X-2.87S0
G1X-0.46S255
G1X-19.92S0
G1X-0.36S255
G1X-1.7S0
G1X-0.37S255
G1X-0.64S0
G1X-0.41S255
G1X-3.25S0
G1X-0.48S255
G1X-19.47S0
G1X-0.28S255
G1Y0.1S0
G1X0.28S255
G1X19.59S0
G1X0.48S255
G1X3.18S0
G1X0.39S255
G1X2.68S0
G1X0.36S255
G1X20.01S0
G1X0.45S255
G1X2.9S0
G1X0.47S255
G1X0.09Y0.1S0
G1X-0.46S255
G1X-2.93S0
G1X-0.43S255
G1X-20.1S0
G1X-0.36S255
G1X-2.66S0
G1X-0.39S255
G1X-3.09S0
G1X-0.48S255
G1X-19.7S0
G1X-0.28S255
G1Y0.1S0
G1X0.28S255
G1X19.82S0
G1X0.47S255
G1X2.99S0
G1X0.39S255
G1X2.65S0
G1X0.36S255
G1X20.17S0
G1X0.43S255
G1X2.96S0
G1X0.43S255
G1X0.06Y0.1S0
G1X-0.42S255
G1X-2.98S0
G1X-0.42S255
G1X-20.23S0
G1X-0.36S255
G1X-2.65S0
G1X-0.39S255
G1X-2.88S0
G1X-0.47S255
G1X-19.93S0
G1X-0.28S255
G1X-1.56Y0.1S0
G1X0.63S255
G1X0.93S0
G1X0.28S255
G1X0.24S0
G1X0.41S255
G1X1.26S0
G1X0.54S255
G1X1.23S0
G1X0.54S255
G1X1.19S0
G1X0.42S255
G1X0.26S0
G1X0.26S255
G1X13.68S0
G1X0.47S255
G1X2.77S0
G1X0.39S255
G1X1.3S0
G1X2.15S255
G1X19.85S0
G1X0.4S255
G1X3.01S0
G1X0.41S255
G1X0.03Y0.1S0
G1X-0.38S255
G1X-3.04S0
G1X-0.4S255
G1X-19.88S0
G1X-2.15S255
G1X-1.31S0
G1X-0.41S255
G1X-2.64S0
G1X-0.46S255
G1X-13.79S0
G1X-0.26S255
G1X-0.09S0
G1X-0.77S255
G1X-0.82S0
G1X-0.94S255
G1X-0.82S0
G1X-0.95S255
G1X-0.87S0
G1X-0.76S255
G1X-0.07S0
G1X-0.28S255
G1X-0.69S0
G1X-1.13S255
G1X-0.13Y0.1S0
G1X1.39S255
G1X0.56S0
G1X0.61S255
G1X0.17S0
G1X0.45S255
G1X0.64S0
G1X0.49S255
G1X0.17S0
G1X0.5S255
G1X0.61S0
G1X0.49S255
G1X0.16S0
G1X0.51S255
G1X0.6S0
G1X0.45S255
G1X0.17S0
G1X0.34S255
G1X0.27
G1X13.89S0
G1X0.46S255
G1X2.47S0
G1X0.44S255
G1X1.35S0
G1X2.15S255
G1X19.9S0
G1X0.39S255
G1X3.06S0
G1X0.36S255
G1X0.01Y0.1S0
G1X-0.36S255
G1X-1.09S0
G1X-0.37S255
G1X-1.6S0
G1X-0.39S255
G1X-20.34S0
G1X-0.36S255
G1X-1.09S0
G1X-0.27S255
G1X-1.39S0
G1X-0.54S255
G1X-2.24S0
G1X-0.46S255
G1X-13.98S0
G1X-0.43S255
G1X-0.53S0
G1X-0.34S255
G1X-0.46S0
G1X-0.36S255
G1X-0.59S0
G1X-0.36S255
G1X-0.46S0
G1X-0.35S255
G1X-0.59S0
G1X-0.36S255
G1X-0.51S0
G1X-0.33S255
G1X-0.53S0
G1X-0.43S255
G1X-0.48S0
G1X-0.41S255
G1X-0.69S0
G1X-0.46S255
G1X-0.06Y0.1S0
G1X0.36S255
G1X0.99S0
G1X0.32S255
G1X0.43S0
G1X0.35S255
G1X0.7S0
G1X0.3S255
G1X0.4S0
G1X0.32S255
G1X0.76S0
G1X0.32S255
G1X0.37S0
G1X0.31S255
G1X0.77S0
G1X0.32S255
G1X0.36S0
G1X0.3S255
G1X0.7S0
G1X0.35S255
G1X14.07S0
G1X0.44S255
G1X1.09S0
G1X1.55S255
G1X1.46S0
G1X0.35S255
G1X1.01S0
G1X0.36S255
G1X20.33S0
G1X0.39S255
G1X1.63S0
G1X0.36S255
G1X1.07S0
G1X0.36S255
G1X-0.02Y0.1S0
G1X-0.37S255
G1X-1.01S0
G1X-0.37S255
G1X-1.66S0
G1X-0.41S255
G1X-20.3S0
G1X-0.36S255
G1X-0.92S0
G1X-0.37S255
G1X-1.63S0
G1X-1.45S255
G1X-1.02S0
G1X-0.43S255
G1X-14.15S0
G1X-0.3S255
G1X-0.8S0
G1X-0.28S255
G1X-0.36S0
G1X-0.24S255
G1X-0.87S0
G1X-0.3S255
G1X-0.36S0
G1X-0.24S255
G1X-0.87S0
G1X-0.29S255
G1X-0.34S0
G1X-0.29S255
G1X-0.79S0
G1X-0.3S255
G1X-0.39S0
G1X-0.3S255
G1X-1.13S0
G1X-0.32S255
G1X-0.02Y0.1S0
G1X0.29S255
G1X1.2S0
G1X0.29S255
G1X0.38S0
G1X0.27S255
G1X0.85S0
G1X0.29S255
G1X0.28S0
G1X0.29S255
G1X1.48S0
G1X0.29S255
G1X1.47S0
G1X0.29S255
G1X0.84S0
G1X0.28S255
G1X14.22S0
G1X0.42S255
G1X0.96S0
G1X1.29S255
G1X1.87S0
G1X0.38S255
G1X0.83S0
G1X0.36S255
G1X19S0
G1X0.16S255
G1X1.07S0
G1X0.45S255
G1X1.73S0
G1X0.4S255
G1X0.88S0
G1X0.4S255
G1X-0.05Y0.1S0
G1X-0.46S255
G1X-0.67S0
G1X-0.45S255
G1X-1.83S0
G1X-0.53S255
G1X-0.7S0
G1X-0.4S255
G1X-19S0
G1X-0.36S255
G1X-0.75S0
G1X-0.37S255
G1X-2.32S0
G1X-0.93S255
G1X-0.92S0
G1X-0.41S255
G1X-14.27S0
G1X-0.26S255
G1X-0.88S0
G1X-0.28S255
G1X-1.48S0
G1X-0.28S255
G1X-1.48S0
G1X-0.29S255
G1X-0.26S0
G1X-0.28S255
G1X-0.88S0
G1X-0.26S255
G1X-0.38S0
G1X-0.3S255
G1X-1.21S0
G1X-0.29S255
G1X1.45Y0.1S0
G1X0.33S255
G1X0.4S0
G1X0.25S255
G1X0.89S0
G1X0.29S255
G1X0.24S0
G1X1.52S255
G1X0.25S0
G1X1.52S255
G1X0.24S0
G1X0.29S255
G1X0.88S0
G1X0.26S255
G1X14.32S0
G1X0.39S255
G1X0.89S0
G1X0.37S255
G1X2.96S0
G1X0.38S255
G1X0.66S0
G1X0.36S255
G1X19S0
G1X1.56S255
G1X1.97S0
G1X0.71S255
G1X0.07S0
G1X0.66S255
G1X-0.11Y0.1S0
G1X-1.23S255
G1X-2.17S0
G1X-1.46S255
G1X-19S0
G1X-0.36S255
G1X-0.58S0
G1X-0.37S255
G1X-3.05S0
G1X-0.37S255
G1X-0.87S0
G1X-0.4S255
G1X-14.33S0
G1X-0.26S255
G1X-0.88S0
G1X-0.29S255
G1X-0.25S0
G1X-1.5S255
G1X-0.26S0
G1X-1.51S255
G1X-0.26S0
G1X-0.28S255
G1X-0.88S0
G1X-0.26S255
G1X-0.44S0
G1X-0.42S255
G1X-0.29Y0.1S0
G1X0.65S255
G1X0.5S0
G1X0.27S255
G1X0.86S0
G1X0.29S255
G1X0.27S0
G1X0.29S255
G1X0.91S0
G1X0.29S255
G1X0.27S0
G1X0.3S255
G1X0.91S0
G1X0.29S255
G1X0.26S0
G1X0.29S255
G1X0.86S0
G1X0.27S255
G1X14.35S0
G1X0.39S255
G1X0.86S0
G1X0.37S255
G1X3.13S0
G1X0.38S255
G1X0.49S0
G1X0.36S255
G1X19.21S0
G1X1.08S255
G1X2.51S0
G1X0.91S255
G1X-23.71Y0.1S0
G1X-0.36S255
G1X-0.41S0
G1X-0.37S255
G1X-3.22S0
G1X-0.37S255
G1X-0.86S0
G1X-0.39S255
G1X-14.35S0
G1X-0.29S255
G1X-0.82S0
G1X-0.29S255
G1X-0.3S0
G1X-0.29S255
G1X-0.87S0
G1X-0.29S255
G1X-0.32S0
G1X-0.29S255
G1X-0.87S0
G1X-0.29S255
G1X-0.31S0
G1X-0.29S255
G1X-0.82S0
G1X-0.29S255
G1X-0.6S0
G1X-0.93S255
G1X-0.26Y0.1S0
G1X1.02S255
G1X0.77S0
G1X0.33S255
G1X0.75S0
G1X0.29S255
G1X0.37S0
G1X0.3S255
G1X0.8S0
G1X0.29S255
G1X0.37S0
G1X0.3S255
G1X0.81S0
G1X0.29S255
G1X0.36S0
G1X0.29S255
G1X0.75S0
G1X0.33S255
G1X14.33S0
G1X0.4S255
G1X0.87S0
G1X0.37S255
G1X3.31S0
G1X0.37S255
G1X0.32S0
G1X0.36S255
G1Y0.1S0
G1X-0.36S255
G1X-0.23S0
G1X-0.38S255
G1X-3.39S0
G1X-0.37S255
G1X-0.89S0
G1X-0.42S255
G1X-1.21S0
G1X-0.07S255
G1X-13.01S0
G1X-0.4S255
G1X-0.62S0
G1X-0.31S255
G1X-0.45S0
G1X-0.3S255
G1X-0.68S0
G1X-0.32S255
G1X-0.46S0
G1X-0.31S255
G1X-0.67S0
G1X-0.33S255
G1X-0.45S0
G1X-0.31S255
G1X-0.63S0
G1X-0.39S255
G1X-1.1S0
G1X-0.83S255
G1X-0.09Y0.1S0
G1X0.53S255
G1X1.49S0
G1X0.51S255
G1X0.4S0
G1X0.36S255
G1X0.58S0
G1X0.39S255
G1X0.42S0
G1X0.36S255
G1X0.59S0
G1X0.39S255
G1X0.42S0
G1X0.37S255
G1X0.57S0
G1X0.37S255
G1X0.38S0
G1X0.52S255
G1X13.01S0
G1X0.27S255
G1X0.92S0
G1X0.48S255
G1X0.92S0
G1X0.37S255
G1X3.48S0
G1X0.37S255
G1X0.15S0
G1X0.36S255
G1Y0.1S0
G1X-0.36S255
G1X-0.06S0
G1X-0.38S255
G1X-2.22S0
G1X-1.71S255
G1X-0.98S0
G1X-0.65S255
G1X-0.36S0
G1X-0.6S255
G1X-13.01S0
G1X-0.28S255
G1X-0.04S0
G1X-0.87S255
G1X-0.74S0
G1X-0.99S255
G1X-0.78S0
G1X-0.99S255
G1X-0.76S0
G1X-0.86S255
G1X-0.06S0
G1X-0.26S255
G1X-1.71S0
G1X-0.35S255
G1X-0.03Y0.1S0
G1X0.3S255
G1X1.79S0
G1X0.26S255
G1X0.17S0
G1X0.62S255
G1X1.04S0
G1X0.7S255
G1X1.06S0
G1X0.71S255
G1X1.02S0
G1X0.61S255
G1X0.16S0
G1X0.28S255
G1X13.01S0
G1X1.52S255
G1X1.07S0
G1X1.71S255
G1X2.31S0
G1X0.71S255
G1Y0.1S0
G1X-0.62S255
G1X-2.4S0
G1X-1.71S255
G1X-1.2S0
G1X-1.31S255
G1X-13.09S0
G1X-0.28S255
G1X-6.8S0
G1X-0.31S255
G1X-1.05S0
G1X-0.28S255
G1X0.01Y0.1S0
G1X0.3S255
G1X1S0
G1X0.31S255
G1X6.82S0
G1X0.28S255
G1X13.41S0
G1X0.77S255
G1X5.61S0
G1X0.54S255
G1Y0.1S0
G1X-0.45S255
G1X-19.88S0
G1X-0.28S255
G1X-6.86S0
G1X-0.35S255
G1X-0.86S0
G1X-0.33S255
G1X0.05Y0.1S0
G1X0.44S255
G1X0.54S0
G1X0.46S255
G1X6.91S0
G1X0.28S255
G1X19.96S0
G1X0.37S255
G1X-20.33Y0.1S0
G1X-0.28S255
G1X-7.01S0
G1X-1.25S255
G1X0.14Y0.1S0
G1X0.97S255
G1X7.15S0
G1X0.28S255
G1X-7.81Y0.1S0
G1X-0.23S255
G1X4.67Y1.8S0
G1X0.47S255
G1X2.29S0
G1X0.48S255
G1Y0.1S0
G1X-0.22S255
G1X-2.81S0
G1X-0.21S255
G1Y0.1S0
G1X0.21S255
G1X2.81S0
G1X0.22S255
G1X13.01Y0.1S0
G1X-0.56S255
G1X-12.45S0
G1X-0.22S255
G1X-2.81S0
G1X-0.21S255
G1Y0.1S0
G1X0.21S255
G1X0.86S0
G1X0.18S255
G1X0.74S0
G1X0.37S255
G1X0.66S0
G1X0.22S255
G1X12.31S0
G1X0.86S255
G1X0.07Y0.1S0
G1X-0.26S255
G1X-0.49S0
G1X-0.24S255
G1X-12.25S0
G1X-0.22S255
G1X-0.55S0
G1X-0.26S255
G1X-0.07S0
G1X-0.25S255
G1X-0.59S0
G1X-0.18S255
G1X-0.91S0
G1X-0.21S255
G1Y0.1S0
G1X0.21S255
G1X0.96S0
G1X0.18S255
G1X0.48S0
G1X0.2S255
G1X0.3S0
G1X0.19S255
G1X0.5S0
G1X0.22S255
G1X12.23S0
G1X0.21S255
G1X0.61S0
G1X0.23S255
G1X0.02Y0.1S0
G1X-0.22S255
G1X-13.08S0
G1X-0.22S255
G1X-0.48S0
G1X-0.18S255
G1X-0.36S0
G1X-0.18S255
G1X-0.42S0
G1X-0.18S255
G1X-1.01S0
G1X-0.21S255
G1Y0.1S0
G1X0.21S255
G1X1.06S0
G1X0.18S255
G1X0.35S0
G1X0.19S255
G1X0.38S0
G1X0.19S255
G1X0.46S0
G1X0.22S255
G1X8.15S0
G1X0.24S255
G1X0.39S0
G1X0.22S255
G1X0.54S0
G1X0.22S255
G1X0.55S0
G1X0.21S255
G1X0.45S0
G1X0.54S255
G1X0.23S0
G1X0.23S255
G1X0.57S0
G1X0.34S255
G1X0.21S0
G1X0.22S255
G1X0.57S0
G1X0.57S255
G1X0.63S0
G1X0.25S255
G1Y0.1S0
G1X-0.25S255
G1X-0.49S0
G1X-0.85S255
G1X-0.43S0
G1X-0.22S255
G1X-0.04S0
G1X-0.67S255
G1X-0.44S0
G1X-0.23S255
G1X-0.04S0
G1X-0.81S255
G1X-0.34S0
G1X-0.21S255
G1X-0.55S0
G1X-0.22S255
G1X-0.54S0
G1X-0.22S255
G1X-0.39S0
G1X-0.24S255
G1X-8.15S0
G1X-0.22S255
G1X-0.47S0
G1X-0.19S255
G1X-0.36S0
G1X-0.19S255
G1X-0.31S0
G1X-0.17S255
G1X-1.12S0
G1X-0.21S255
G1Y0.1S0
G1X0.21S255
G1X1.17S0
G1X0.18S255
G1X0.27S0
G1X0.19S255
G1X0.32S0
G1X0.19S255
G1X0.49S0
G1X0.22S255
G1X8.15S0
G1X0.24S255
G1X0.39S0
G1X0.22S255
G1X0.54S0
G1X0.22S255
G1X0.55S0
G1X0.21S255
G1X0.29S0
G1X0.25S255
G1X0.49S0
G1X0.37S255
G1X0.38S0
G1X0.28S255
G1X0.35S0
G1X0.38S255
G1X0.34S0
G1X0.29S255
G1X0.45S0
G1X0.28S255
G1X0.41S0
G1X0.25S255
G1X2.37S0
G1X0.44S255
G1X1.38S0
G1X0.18S255
G1X0.77S0
G1X0.37S255
G1X3.19S0
G1X0.29S255
G1X1.09S0
G1X0.29S255
G1X2.69Y0.1S0
G1X-0.46S255
G1X-0.73S0
G1X-0.18S255
G1X-1.12S0
G1X-0.67S255
G1X-0.71S0
G1X-0.68S255
G1X-0.81S0
G1X-0.22S255
G1X-1.85S0
G1X-0.61S255
G1X-0.6S0
G1X-0.18S255
G1X-1.28S0
G1X-0.74S255
G1X-2.84S0
G1X-0.24S255
G1X-0.61S0
G1X-0.25S255
G1X-0.3S0
G1X-0.29S255
G1X-0.54S0
G1X-0.24S255
G1X-0.33S0
G1X-0.27S255
G1X-0.61S0
G1X-0.23S255
G1X-0.28S0
G1X-0.21S255
G1X-0.55S0
G1X-0.22S255
G1X-0.54S0
G1X-0.22S255
G1X-0.39S0
G1X-0.24S255
G1X-8.15S0
G1X-0.22S255
G1X-0.54S0
G1X-0.22S255
G1X-0.17S0
G1X-0.22S255
G1X-0.26S0
G1X-0.18S255
G1X-1.22S0
G1X-0.21S255
G1Y0.1S0
G1X0.21S255
G1X1.27S0
G1X0.18S255
G1X0.29S0
G1X0.44S255
G1X0.63S0
G1X0.22S255
G1X8.15S0
G1X0.24S255
G1X0.39S0
G1X0.22S255
G1X0.54S0
G1X0.22S255
G1X0.55S0
G1X0.21S255
G1X0.29S0
G1X0.24S255
G1X0.63S0
G1X0.23S255
G1X0.3S0
G1X0.22S255
G1X0.64S0
G1X0.24S255
G1X0.27S0
G1X0.23S255
G1X3.66S0
G1X0.26S255
G1X0.38S0
G1X0.25S255
G1X1.27S0
G1X0.17S255
G1X0.5S0
G1X0.2S255
G1X0.32S0
G1X0.19S255
G1X1.8S0
G1X0.22S255
G1X0.72S0
G1X0.28S255
G1X0.28S0
G1X0.3S255
G1X0.54S0
G1X0.27S255
G1X0.29S0
G1X0.28S255
G1X1.08S0
G1X0.18S255
G1X0.58S0
G1X0.23S255
G1X0.21S0
G1X0.22S255
G1X25.08Y0.1S0
G1X-0.56S255
G1X-1.09S0
G1X-0.26S255
G1X-1.66S0
G1X-0.67S255
G1X-1.35S0
G1X-0.67S255
G1X-1.01S0
G1X-1.25S255
G1X-16.51S0
G1X-0.2S255
G1X-0.36S0
G1X-0.2S255
G1X-0.48S0
G1X-0.18S255
G1X-1.07S0
G1X-0.23S255
G1X-0.5S0
G1X-0.23S255
G1X-0.43S0
G1X-0.23S255
G1X-0.51S0
G1X-0.23S255
G1X-0.66S0
G1X-0.22S255
G1X-1.77S0
G1X-0.19S255
G1X-0.38S0
G1X-0.19S255
G1X-0.42S0
G1X-0.18S255
G1X-1.27S0
G1X-0.22S255
G1X-0.54S0
G1X-0.23S255
G1X-3.63S0
G1X-0.23S255
G1X-0.25S0
G1X-0.21S255
G1X-0.69S0
G1X-0.23S255
G1X-0.27S0
G1X-0.22S255
G1X-0.52S0
G1X-0.31S255
G1X-0.34S0
G1X-0.21S255
G1X-0.55S0
G1X-0.22S255
G1X-0.54S0
G1X-0.22S255
G1X-0.39S0
G1X-0.24S255
G1X-8.15S0
G1X-0.22S255
G1X-1.31S0
G1X-0.18S255
G1X-0.35S0
G1X-0.29S255
G1X-0.68S0
G1X-0.21S255
G1Y0.1S0
G1X0.21S255
G1X0.55S0
G1X0.55S255
G1X0.28S0
G1X0.17S255
G1X1.26S0
G1X0.22S255
G1X8.15S0
G1X0.24S255
G1X0.39S0
G1X0.22S255
G1X0.54S0
G1X0.22S255
G1X0.55S0
G1X0.21S255
G1X0.43S0
G1X0.69S255
G1X0.05S0
G1X0.22S255
G1X0.27S0
G1X0.22S255
G1X0.7S0
G1X0.21S255
G1X0.24S0
G1X1.19S255
G1X2.66S0
G1X0.21S255
G1X0.61S0
G1X0.22S255
G1X1.29S0
G1X0.18S255
G1X0.36S0
G1X0.19S255
G1X0.4S0
G1X0.19S255
G1X1.76S0
G1X0.22S255
G1X0.64S0
G1X0.2S255
G1X0.6S0
G1X0.22S255
G1X0.36S0
G1X0.22S255
G1X0.59S0
G1X0.23S255
G1X1.08S0
G1X0.19S255
G1X0.41S0
G1X0.19S255
G1X0.4S0
G1X0.19S255
G1X3.1S0
G1X1.24S255
G1X0.98S0
G1X0.75S255
G1X1.27S0
G1X0.75S255
G1X1.63S0
G1X0.25S255
G1X1.05S0
G1X0.63S255
G1X4.85S0
G1X1.25S255
G1X0.85S0
G1X0.99S255
G1X1.03S0
G1X0.99S255
G1X1.55S0
G1X0.26S255
G1X0.9S0
G1X0.84S255
G1X0.07Y0.1S0
G1X-0.32S255
G1X-0.34S0
G1X-0.32S255
G1X-0.78S0
G1X-0.25S255
G1X-1.52S0
G1X-0.49S255
G1X-0.18S0
G1X-0.5S255
G1X-0.85S0
G1X-0.49S255
G1X-0.18S0
G1X-0.49S255
G1X-0.77S0
G1X-1.25S255
G1X-4.73S0
G1X-0.87S255
G1X-0.88S0
G1X-0.25S255
G1X-1.55S0
G1X-1.02S255
G1X-1S0
G1X-1.02S255
G1X-0.84S0
G1X-1.24S255
G1X-3.09S0
G1X-0.19S255
G1X-0.42S0
G1X-0.19S255
G1X-0.35S0
G1X-0.18S255
G1X-1.12S0
G1X-0.23S255
G1X-0.63S0
G1X-0.22S255
G1X-0.32S0
G1X-0.22S255
G1X-0.63S0
G1X-0.22S255
G1X-0.61S0
G1X-0.22S255
G1X-1.76S0
G1X-0.19S255
G1X-0.4S0
G1X-0.19S255
G1X-0.31S0
G1X-0.18S255
G1X-1.32S0
G1X-0.22S255
G1X-0.65S0
G1X-0.21S255
G1X-2.64S0
G1X-1.18S255
G1X-0.25S0
G1X-0.2S255
G1X-0.71S0
G1X-0.22S255
G1X-0.27S0
G1X-0.67S255
G1X-0.72S0
G1X-0.21S255
G1X-0.55S0
G1X-0.22S255
G1X-0.54S0
G1X-0.22S255
G1X-0.39S0
G1X-0.24S255
G1X-8.15S0
G1X-0.22S255
G1X-1.21S0
G1X-0.17S255
G1X-0.28S0
G1X-0.19S255
G1X-0.27S0
G1X-0.2S255
G1X-0.49S0
G1X-0.21S255
G1Y0.1S0
G1X0.21S255
G1X0.47S0
G1X0.18S255
G1X0.35S0
G1X0.18S255
G1X0.3S0
G1X0.18S255
G1X1.15S0
G1X0.22S255
G1X8.15S0
G1X0.24S255
G1X0.39S0
G1X0.23S255
G1X0.53S0
G1X0.23S255
G1X0.54S0
G1X0.21S255
G1X1.17S0
G1X0.22S255
G1X0.28S0
G1X0.23S255
G1X0.67S0
G1X0.22S255
G1X0.26S0
G1X0.23S255
G1X0.7S0
G1X0.23S255
G1X2.63S0
G1X0.22S255
G1X0.67S0
G1X0.22S255
G1X1.36S0
G1X0.18S255
G1X0.27S0
G1X0.19S255
G1X0.38S0
G1X0.19S255
G1X1.77S0
G1X0.22S255
G1X0.59S0
G1X0.22S255
G1X0.67S0
G1X0.23S255
G1X0.27S0
G1X0.22S255
G1X0.67S0
G1X0.23S255
G1X1.15S0
G1X0.18S255
G1X0.31S0
G1X0.19S255
G1X0.4S0
G1X0.2S255
G1X3.57S0
G1X0.29S255
G1X1.22S0
G1X0.44S255
G1X0.33S0
G1X0.43S255
G1X0.82S0
G1X0.43S255
G1X0.34S0
G1X0.43S255
G1X1.51S0
G1X0.26S255
G1X0.76S0
G1X0.3S255
G1X0.39S0
G1X0.3S255
G1X5.15S0
G1X0.3S255
G1X1.18S0
G1X0.34S255
G1X0.6S0
G1X0.34S255
G1X0.73S0
G1X0.35S255
G1X0.6S0
G1X0.34S255
G1X1.51S0
G1X0.25S255
G1X0.7S0
G1X0.28S255
G1X0.48S0
G1X0.29S255
G1X0.02Y0.1S0
G1X-0.27S255
G1X-0.56S0
G1X-0.27S255
G1X-0.61S0
G1X-0.26S255
G1X-1.51S0
G1X-0.32S255
G1X-0.74S0
G1X-0.33S255
G1X-0.63S0
G1X-0.32S255
G1X-0.74S0
G1X-0.32S255
G1X-1.13S0
G1X-0.3S255
G1X-5.11S0
G1X-0.28S255
G1X-0.5S0
G1X-0.29S255
G1X-0.67S0
G1X-0.26S255
G1X-1.51S0
G1X-0.33S255
G1X-0.64S0
G1X-0.33S255
G1X-0.71S0
G1X-0.34S255
G1X-0.63S0
G1X-0.34S255
G1X-1.17S0
G1X-0.29S255
G1X-3.59S0
G1X-0.19S255
G1X-0.38S0
G1X-0.19S255
G1X-0.27S0
G1X-0.18S255
G1X-1.19S0
G1X-0.23S255
G1X-0.69S0
G1X-0.22S255
G1X-0.26S0
G1X-0.22S255
G1X-0.69S0
G1X-0.22S255
G1X-0.58S0
G1X-0.22S255
G1X-0.87S0
G1X-0.68S255
G1X-0.25S0
G1X-0.19S255
G1X-0.32S0
G1X-0.19S255
G1X-0.25S0
G1X-0.18S255
G1X-0.42S0
G1X-0.12S255
G1X-0.86S0
G1X-0.22S255
G1X-0.68S0
G1X-0.22S255
G1X-2.66S0
G1X-0.23S255
G1X-0.64S0
G1X-0.23S255
G1X-0.29S0
G1X-0.26S255
G1X-0.6S0
G1X-0.23S255
G1X-0.31S0
G1X-0.22S255
G1X-0.63S0
G1X-0.22S255
G1X-0.32S0
G1X-0.22S255
G1X-0.5S0
G1X-0.26S255
G1X-0.51S0
G1X-0.25S255
G1X-0.39S0
G1X-0.24S255
G1X-8.15S0
G1X-0.22S255
G1X-1.1S0
G1X-0.18S255
G1X-0.33S0
G1X-0.19S255
G1X-0.37S0
G1X-0.19S255
G1X-0.45S0
G1X-0.21S255
G1Y0.1S0
G1X0.21S255
G1X0.45S0
G1X0.19S255
G1X0.37S0
G1X0.18S255
G1X0.39S0
G1X0.18S255
G1X1.05S0
G1X0.22S255
G1X8.15S0
G1X0.24S255
G1X0.39S0
G1X0.31S255
G1X0.41S0
G1X0.35S255
G1X0.42S0
G1X0.24S255
G1X0.36S0
G1X0.24S255
G1X0.54S0
G1X0.25S255
G1X0.36S0
G1X0.26S255
G1X0.46S0
G1X0.33S255
G1X0.34S0
G1X0.25S255
G1X0.51S0
G1X0.24S255
G1X2.7S0
G1X0.22S255
G1X0.69S0
G1X0.22S255
G1X0.64S0
G1X0.56S255
G1X0.25S0
G1X0.18S255
G1X0.25S0
G1X0.6S255
G1X0.3S0
G1X0.68S255
G1X0.87S0
G1X0.22S255
G1X0.57S0
G1X0.22S255
G1X0.71S0
G1X0.22S255
G1X0.24S0
G1X0.22S255
G1X0.71S0
G1X0.22S255
G1X0.54S0
G1X0.38S255
G1X0.32S0
G1X0.19S255
G1X0.25S0
G1X0.21S255
G1X0.27S0
G1X0.2S255
G1X3.63S0
G1X0.29S255
G1X1.13S0
G1X0.31S255
G1X0.77S0
G1X0.31S255
G1X0.62S0
G1X0.32S255
G1X0.76S0
G1X0.32S255
G1X1.51S0
G1X0.26S255
G1X0.6S0
G1X0.28S255
G1X0.55S0
G1X0.28S255
G1X5.09S0
G1X0.3S255
G1X1.1S0
G1X0.3S255
G1X0.83S0
G1X0.31S255
G1X0.58S0
G1X0.3S255
G1X0.83S0
G1X0.31S255
G1X1.53S0
G1X0.26S255
G1X0.55S0
G1X0.28S255
G1X0.57S0
G1X0.27S255
G1X0.01Y0.1S0
G1X-0.28S255
G1X-0.58S0
G1X-0.28S255
G1X-0.49S0
G1X-0.25S255
G1X-1.56S0
G1X-0.31S255
G1X-0.89S0
G1X-0.3S255
G1X-0.52S0
G1X-0.31S255
G1X-0.89S0
G1X-0.3S255
G1X-1.07S0
G1X-0.3S255
G1X-5.08S0
G1X-0.28S255
G1X-0.57S0
G1X-0.28S255
G1X-0.54S0
G1X-0.25S255
G1X-1.54S0
G1X-0.31S255
G1X-0.84S0
G1X-0.3S255
G1X-0.57S0
G1X-0.31S255
G1X-0.84S0
G1X-0.3S255
G1X-1.1S0
G1X-0.29S255
G1X-3.7S0
G1X-0.54S255
G1X-0.27S0
G1X-0.18S255
G1X-0.26S0
G1X-0.62S255
G1X-0.41S0
G1X-0.23S255
G1X-0.71S0
G1X-0.22S255
G1X-0.24S0
G1X-0.22S255
G1X-0.71S0
G1X-0.22S255
G1X-0.57S0
G1X-0.22S255
G1X-1.98S0
G1X-0.34S255
G1X-0.33S0
G1X-0.17S255
G1X-0.25S0
G1X-0.2S255
G1X-0.29S0
G1X-0.19S255
G1X-0.58S0
G1X-0.22S255
G1X-0.68S0
G1X-0.23S255
G1X-2.02S0
G1X-0.25S255
G1X-0.5S0
G1X-0.36S255
G1X-0.13S0
G1X-0.37S255
G1X-0.41S0
G1X-0.52S255
G1X-0.06S0
G1X-0.4S255
G1X-0.47S0
G1X-0.42S255
G1X-0.09S0
G1X-0.42S255
G1X-0.46S0
G1X-0.71S255
G1X-0.05S0
G1X-0.72S255
G1X-0.02S0
G1X-0.19S255
G1X-0.39S0
G1X-0.24S255
G1X-8.15S0
G1X-0.22S255
G1X-1S0
G1X-0.18S255
G1X-0.45S0
G1X-0.18S255
G1X-0.34S0
G1X-0.19S255
G1X-0.47S0
G1X-0.21S255
G1Y0.1S0
G1X0.47S255
G1X0.25S0
G1X0.2S255
G1X0.23S0
G1X0.2S255
G1X0.55S0
G1X0.17S255
G1X0.69S0
G1X0.48S255
G1X8.15S0
G1X0.24S255
G1X0.39S0
G1X0.19S255
G1X0.13S0
G1X0.54S255
G1X0.23S0
G1X0.52S255
G1X0.65S0
G1X0.74S255
G1X0.65S0
G1X0.56S255
G1X0.12S0
G1X0.2S255
G1X0.53S0
G1X0.61S255
G1X0.63S0
G1X0.25S255
G1X2.03S0
G1X0.22S255
G1X0.68S0
G1X0.22S255
G1X0.54S0
G1X0.19S255
G1X0.37S0
G1X0.19S255
G1X0.27S0
G1X0.17S255
G1X2.6S0
G1X0.22S255
G1X0.57S0
G1X0.23S255
G1X0.69S0
G1X0.23S255
G1X0.25S0
G1X0.22S255
G1X0.7S0
G1X0.22S255
G1X0.37S0
G1X0.19S255
G1X0.34S0
G1X0.2S255
G1X0.25S0
G1X0.18S255
G1X4.46S0
G1X0.29S255
G1X1.07S0
G1X0.31S255
G1X0.89S0
G1X0.31S255
G1X0.51S0
G1X0.3S255
G1X0.9S0
G1X0.3S255
G1X1.57S0
G1X0.26S255
G1X0.48S0
G1X0.27S255
G1X0.59S0
G1X0.28S255
G1X5.07S0
G1X0.3S255
G1X1.05S0
G1X0.31S255
G1X0.92S0
G1X0.3S255
G1X0.49S0
G1X0.31S255
G1X0.92S0
G1X0.3S255
G1X1.6S0
G1X0.25S255
G1X0.45S0
G1X0.27S255
G1X0.58S0
G1X0.28S255
G1X-0.01Y0.1S0
G1X-0.28S255
G1X-0.56S0
G1X-0.28S255
G1X-0.39S0
G1X-0.26S255
G1X-1.63S0
G1X-0.31S255
G1X-0.94S0
G1X-0.31S255
G1X-0.46S0
G1X-0.31S255
G1X-0.94S0
G1X-0.31S255
G1X-1.04S0
G1X-0.3S255
G1X-5.08S0
G1X-0.28S255
G1X-0.57S0
G1X-0.28S255
G1X-0.43S0
G1X-0.26S255
G1X-1.6S0
G1X-0.31S255
G1X-0.92S0
G1X-0.31S255
G1X-0.48S0
G1X-0.3S255
G1X-0.93S0
G1X-0.3S255
G1X-1.06S0
G1X-0.29S255
G1X-4.41S0
G1X-0.18S255
G1X-0.28S0
G1X-0.19S255
G1X-0.4S0
G1X-0.19S255
G1X-0.35S0
G1X-0.22S255
G1X-0.69S0
G1X-0.22S255
G1X-0.25S0
G1X-0.23S255
G1X-0.69S0
G1X-0.22S255
G1X-0.58S0
G1X-0.22S255
G1X-2.54S0
G1X-0.18S255
G1X-0.31S0
G1X-0.18S255
G1X-0.4S0
G1X-0.19S255
G1X-0.55S0
G1X-0.21S255
G1X-0.66S0
G1X-0.22S255
G1X-8.98S0
G1X-0.24S255
G1X-8.15S0
G1X-0.48S255
G1X-0.64S0
G1X-0.17S255
G1X-0.67S0
G1X-0.5S255
G1X-0.31S0
G1X-0.47S255
G1X0.98Y0.1S0
G1X0.07S255
G1X0.95S0
G1X0.18S255
G1X9.21S0
G1X0.24S255
G1X9S0
G1X0.21S255
G1X0.63S0
G1X0.22S255
G1X0.55S0
G1X0.2S255
G1X0.4S0
G1X0.19S255
G1X0.35S0
G1X0.18S255
G1X2.05S0
G1X0.13S255
G1X0.31S0
G1X0.22S255
G1X0.59S0
G1X0.23S255
G1X0.66S0
G1X0.22S255
G1X0.28S0
G1X0.23S255
G1X0.66S0
G1X0.22S255
G1X0.35S0
G1X0.2S255
G1X0.41S0
G1X0.19S255
G1X0.32S0
G1X0.19S255
G1X4.35S0
G1X0.29S255
G1X1.04S0
G1X0.31S255
G1X0.94S0
G1X0.32S255
G1X0.45S0
G1X0.31S255
G1X0.94S0
G1X0.31S255
G1X1.64S0
G1X0.26S255
G1X0.39S0
G1X0.28S255
G1X0.55S0
G1X0.28S255
G1X5.09S0
G1X0.3S255
G1X1.03S0
G1X0.31S255
G1X0.96S0
G1X0.31S255
G1X0.44S0
G1X0.31S255
G1X0.95S0
G1X0.32S255
G1X1.67S0
G1X0.26S255
G1X0.36S0
G1X0.28S255
G1X0.52S0
G1X0.28S255
G1X-0.03Y0.1S0
G1X-0.29S255
G1X-0.44S0
G1X-0.28S255
G1X-0.35S0
G1X-0.26S255
G1X-0.49S0
G1X-0.44S255
G1X-0.79S0
G1X-0.31S255
G1X-0.96S0
G1X-0.32S255
G1X-0.43S0
G1X-0.31S255
G1X-0.96S0
G1X-0.31S255
G1X-1.03S0
G1X-0.3S255
G1X-5.11S0
G1X-0.28S255
G1X-0.51S0
G1X-0.28S255
G1X-0.36S0
G1X-0.25S255
G1X-1.69S0
G1X-0.31S255
G1X-0.96S0
G1X-0.31S255
G1X-0.44S0
G1X-0.31S255
G1X-0.96S0
G1X-0.31S255
G1X-1.03S0
G1X-0.29S255
G1X-4.3S0
G1X-0.18S255
G1X-0.38S0
G1X-0.19S255
G1X-0.41S0
G1X-0.2S255
G1X-0.37S0
G1X-0.21S255
G1X-0.63S0
G1X-0.24S255
G1X-0.31S0
G1X-0.22S255
G1X-0.62S0
G1X-0.23S255
G1X-0.61S0
G1X-0.22S255
G1X-0.14S0
G1X-0.3S255
G1X-2S0
G1X-0.18S255
G1X-0.41S0
G1X-0.19S255
G1X-0.39S0
G1X-0.18S255
G1X-0.6S0
G1X-0.22S255
G1X-0.56S0
G1X-0.22S255
G1X-9.03S0
G1X-0.24S255
G1Y0.1S0
G1X0.24S255
G1X9.07S0
G1X0.24S255
G1X0.44S0
G1X0.24S255
G1X0.65S0
G1X0.2S255
G1X0.34S0
G1X0.19S255
G1X0.48S0
G1X0.18S255
G1X2.05S0
G1X0.56S255
G1X0.63S0
G1X0.23S255
G1X0.57S0
G1X0.22S255
G1X0.38S0
G1X0.22S255
G1X0.57S0
G1X0.22S255
G1X0.42S0
G1X0.18S255
G1X0.4S0
G1X0.19S255
G1X0.44S0
G1X0.18S255
G1X4.25S0
G1X0.29S255
G1X1.03S0
G1X0.31S255
G1X0.96S0
G1X0.32S255
G1X0.43S0
G1X0.31S255
G1X0.96S0
G1X0.32S255
G1X0.74S0
G1X0.53S255
G1X0.46S0
G1X0.26S255
G1X0.34S0
G1X0.3S255
G1X0.39S0
G1X0.3S255
G1X1.66S0
G1X0.95S255
G1X2.54S0
G1X0.3S255
G1X1.02S0
G1X0.32S255
G1X0.96S0
G1X0.32S255
G1X0.42S0
G1X0.31S255
G1X0.97S0
G1X0.31S255
G1X0.63S0
G1X0.77S255
G1X0.38S0
G1X0.25S255
G1X0.35S0
G1X0.9S255
G1X-0.09Y0.1S0
G1X-0.71S255
G1X-0.39S0
G1X-0.26S255
G1X-0.35S0
G1X-0.33S255
G1X-0.27S0
G1X-0.33S255
G1X-0.55S0
G1X-0.31S255
G1X-0.96S0
G1X-0.32S255
G1X-0.43S0
G1X-0.31S255
G1X-0.96S0
G1X-0.32S255
G1X-1.02S0
G1X-0.3S255
G1X-2.54S0
G1X-0.95S255
G1X-1.72S0
G1X-0.87S255
G1X-0.35S0
G1X-0.26S255
G1X-0.36S0
G1X-0.82S255
G1X-0.6S0
G1X-0.31S255
G1X-0.97S0
G1X-0.32S255
G1X-0.42S0
G1X-0.31S255
G1X-0.97S0
G1X-0.31S255
G1X-1.03S0
G1X-0.29S255
G1X-4.2S0
G1X-0.18S255
G1X-0.52S0
G1X-0.2S255
G1X-0.32S0
G1X-0.19S255
G1X-0.48S0
G1X-0.25S255
G1X-0.46S0
G1X-0.23S255
G1X-0.46S0
G1X-0.24S255
G1X-0.46S0
G1X-0.24S255
G1X-0.67S0
G1X-0.41S255
G1X-2.15S0
G1X-0.18S255
G1X-0.58S0
G1X-0.23S255
G1X-0.16S0
G1X-0.24S255
G1X-0.77S0
G1X-0.79S255
G1X-9.13S0
G1X-0.24S255
G1X9.49Y0.1S0
G1X0.55S255
G1X0.99S0
G1X0.43S255
G1X0.73S0
G1X0.18S255
G1X2.21S0
G1X0.3S255
G1X0.74S0
G1X0.33S255
G1X0.16S0
G1X0.32S255
G1X0.59S0
G1X0.32S255
G1X0.16S0
G1X0.33S255
G1X0.59S0
G1X0.61S255
G1X0.62S0
G1X0.18S255
G1X4.15S0
G1X0.29S255
G1X1.03S0
G1X0.31S255
G1X0.97S0
G1X0.31S255
G1X0.43S0
G1X0.31S255
G1X0.96S0
G1X0.32S255
G1X0.53S0
G1X0.32S255
G1X0.32S0
G1X0.32S255
G1X0.34S0
G1X0.26S255
G1X0.41S0
G1X0.66S255
G1X5.31S0
G1X0.3S255
G1X1.03S0
G1X0.31S255
G1X0.96S0
G1X0.31S255
G1X0.44S0
G1X0.31S255
G1X0.96S0
G1X0.31S255
G1X0.5S0
G1X0.28S255
G1X0.47S0
G1X0.28S255
G1X0.35S0
G1X0.26S255
G1X0.62S0
G1X0.14S255
G1X-0.71Y0.1S0
G1X-0.26S255
G1X-0.37S0
G1X-0.28S255
G1X-0.53S0
G1X-0.28S255
G1X-0.48S0
G1X-0.31S255
G1X-0.95S0
G1X-0.31S255
G1X-0.44S0
G1X-0.32S255
G1X-0.95S0
G1X-0.31S255
G1X-1.03S0
G1X-0.3S255
G1X-6.33S0
G1X-0.25S255
G1X-0.36S0
G1X-0.28S255
G1X-0.48S0
G1X-0.28S255
G1X-0.5S0
G1X-0.31S255
G1X-0.96S0
G1X-0.31S255
G1X-0.44S0
G1X-0.31S255
G1X-0.96S0
G1X-0.31S255
G1X-1.03S0
G1X-0.29S255
G1X-5.09S0
G1X-0.34S255
G1X-0.83S0
G1X-0.61S255
G1X-0.78S0
G1X-0.61S255
G1X-0.84S0
G1X-0.21S255
G1X9.31Y0.1S0
G1X0.29S255
G1X1.04S0
G1X0.31S255
G1X0.95S0
G1X0.31S255
G1X0.45S0
G1X0.31S255
G1X0.95S0
G1X0.31S255
G1X0.47S0
G1X0.27S255
G1X0.56S0
G1X0.27S255
G1X0.38S0
G1X0.25S255
G1X6.28S0
G1X0.3S255
G1X1.04S0
G1X0.31S255
G1X0.94S0
G1X0.3S255
G1X0.47S0
G1X0.31S255
G1X0.93S0
G1X0.31S255
G1X0.47S0
G1X0.28S255
G1X0.57S0
G1X0.28S255
G1X0.41S0
G1X0.25S255
G1X0.06Y0.1S0
G1X-0.26S255
G1X-0.46S0
G1X-0.27S255
G1X-0.58S0
G1X-0.28S255
G1X-0.48S0
G1X-0.31S255
G1X-0.91S0
G1X-0.3S255
G1X-0.5S0
G1X-0.31S255
G1X-0.91S0
G1X-0.3S255
G1X-1.06S0
G1X-0.3S255
G1X-6.22S0
G1X-0.26S255
G1X-0.42S0
G1X-0.28S255
G1X-0.56S0
G1X-0.28S255
G1X-0.48S0
G1X-0.3S255
G1X-0.93S0
G1X-0.31S255
G1X-0.47S0
G1X-0.31S255
G1X-0.93S0
G1X-0.31S255
G1X-1.05S0
G1X-0.29S255
G1Y0.1S0
G1X0.29S255
G1X1.07S0
G1X0.3S255
G1X0.9S0
G1X0.31S255
G1X0.5S0
G1X0.31S255
G1X0.9S0
G1X0.31S255
G1X0.48S0
G1X0.28S255
G1X0.58S0
G1X0.28S255
G1X0.46S0
G1X0.26S255
G1X6.17S0
G1X0.3S255
G1X1.08S0
G1X0.3S255
G1X0.88S0
G1X0.3S255
G1X0.54S0
G1X0.3S255
G1X0.87S0
G1X0.31S255
G1X0.5S0
G1X0.28S255
G1X0.58S0
G1X0.27S255
G1X0.51S0
G1X0.26S255
G1X0.05Y0.1S0
G1X-0.26S255
G1X-0.56S0
G1X-0.28S255
G1X-0.57S0
G1X-0.28S255
G1X-0.53S0
G1X-0.31S255
G1X-0.81S0
G1X-0.3S255
G1X-0.6S0
G1X-0.31S255
G1X-0.81S0
G1X-0.3S255
G1X-1.11S0
G1X-0.78S255
G1X-5.64S0
G1X-0.25S255
G1X-0.52S0
G1X-0.28S255
G1X-0.58S0
G1X-0.28S255
G1X-0.5S0
G1X-0.31S255
G1X-0.86S0
G1X-0.3S255
G1X-0.55S0
G1X-0.3S255
G1X-0.87S0
G1X-0.3S255
G1X-1.09S0
G1X-0.29S255
G1X-0.48Y0.1S0
G1X0.77S255
G1X1.12S0
G1X0.3S255
G1X0.8S0
G1X0.31S255
G1X0.61S0
G1X0.3S255
G1X0.8S0
G1X0.31S255
G1X0.54S0
G1X0.28S255
G1X0.56S0
G1X0.28S255
G1X0.58S0
G1X0.25S255
G1X5.59S0
G1X0.78S255
G1X1.14S0
G1X0.32S255
G1X0.71S0
G1X0.32S255
G1X0.67S0
G1X0.32S255
G1X0.71S0
G1X0.32S255
G1X0.59S0
G1X0.28S255
G1X0.53S0
G1X0.28S255
G1X0.64S0
G1X0.25S255
G1X0.05Y0.1S0
G1X-0.25S255
G1X-0.72S0
G1X-0.28S255
G1X-0.47S0
G1X-0.28S255
G1X-0.67S0
G1X-0.36S255
G1X-0.53S0
G1X-0.36S255
G1X-0.77S0
G1X-0.36S255
G1X-0.53S0
G1X-0.36S255
G1X-1.19S0
G1X-0.53S255
G1X-5.78S0
G1X-0.26S255
G1X-0.65S0
G1X-0.28S255
G1X-0.52S0
G1X-0.28S255
G1X-0.6S0
G1X-0.33S255
G1X-0.68S0
G1X-0.33S255
G1X-0.68S0
G1X-0.32S255
G1X-0.69S0
G1X-0.32S255
G1X-1.16S0
G1X-0.77S255
G1X0.32Y0.1S0
G1X0.45S255
G1X1.21S0
G1X0.37S255
G1X0.49S0
G1X0.37S255
G1X0.79S0
G1X0.37S255
G1X0.49S0
G1X0.37S255
G1X0.68S0
G1X0.28S255
G1X0.46S0
G1X0.28S255
G1X0.73S0
G1X0.26S255
G1X5.94S0
G1X0.32S255
G1X1.26S0
G1X1.11S255
G1X0.91S0
G1X1.11S255
G1X0.79S0
G1X0.33S255
G1X0.27S0
G1X0.33S255
G1X0.82S0
G1X0.26S255
G1X0.05Y0.1S0
G1X-0.26S255
G1X-0.95S0
G1X-0.77S255
G1X-0.97S0
G1X-0.9S255
G1X-1.12S0
G1X-0.9S255
G1X-1.37S0
G1X-0.26S255
G1X-5.95S0
G1X-0.25S255
G1X-0.84S0
G1X-0.41S255
G1X-0.1S0
G1X-0.4S255
G1X-0.82S0
G1X-1.08S255
G1X-0.94S0
G1X-1.08S255
G1X-1.28S0
G1X-0.3S255
G1X0.05Y0.1S0
G1X0.25S255
G1X1.4S0
G1X0.85S255
G1X1.17S0
G1X0.85S255
G1X1.02S0
G1X0.73S255
G1X0.98S0
G1X0.25S255
G1X7.73S0
G1X0.5S255
G1X1.52S0
G1X0.49S255
G1X1.35S0
G1X0.43S255
G1X-13.47Y0.1S0
G1X-0.3S255
G1X-1.46S0
G1X-0.39S255
G1X-1.63S0
G1X-0.39S255
G1X-42.65Y0.1S0
G1X0.3S255
G1X2.06S0
G1X0.78S255
G1X0.99S0
G1X0.33S255
G1X0.63S0
G1X0.32S255
G1X1.02S0
G1X0.81S255
G1X0.66S0
G1X0.28S255
G1Y0.1S0
G1X-0.28S255
G1X-0.53S0
G1X-1.08S255
G1X-0.85S0
G1X-0.38S255
G1X-0.57S0
G1X-0.39S255
G1X-0.82S0
G1X-1.06S255
G1X-1.92S0
G1X-0.3S255
G1Y0.1S0
G1X0.3S255
G1X1.83S0
G1X0.38S255
G1X0.48S0
G1X0.37S255
G1X0.71S0
G1X0.44S255
G1X0.52S0
G1X0.44S255
G1X0.73S0
G1X0.39S255
G1X0.48S0
G1X0.38S255
G1X0.45S0
G1X0.28S255
G1Y0.1S0
G1X-0.28S255
G1X-0.39S0
G1X-0.33S255
G1X-0.71S0
G1X-0.33S255
G1X-0.63S0
G1X-0.5S255
G1X-0.47S0
G1X-0.24S255
G1X-0.26
G1X-0.61S0
G1X-0.33S255
G1X-0.7S0
G1X-0.32S255
G1X-1.78S0
G1X-0.3S255
G1Y0.1S0
G1X0.3S255
G1X1.73S0
G1X0.31S255
G1X0.83S0
G1X0.29S255
G1X0.55S0
G1X0.25S255
G1X0.07S0
G1X0.24S255
G1X0.41S0
G1X0.26S255
G1X0.04S0
G1X0.26S255
G1X0.56S0
G1X0.31S255
G1X0.82S0
G1X0.32S255
G1X0.35S0
G1X0.28S255
G1X6.44S0
G1X1.1S255
G1X0.27S0
G1X0.22S255
G1X0.32S0
G1X0.22S255
G1X0.62S0
G1X0.21S255
G1X0.55S0
G1X0.67S255
G1X1.39S0
G1X0.66S255
G1X0.32S0
G1X0.22S255
G1X1.03S0
G1X0.23S255
G1X1.24S0
G1X0.22S255
G1X0.33S0
G1X0.21S255
G1X0.33S0
G1X0.22S255
G1X0.39S0
G1X0.25S255
G1X4.39Y0.1S0
G1X-0.37S255
G1X-0.77S0
G1X-0.18S255
G1X-1.38S0
G1X-0.45S255
G1X-1.24S0
G1X-0.25S255
G1X-0.39S0
G1X-0.22S255
G1X-0.33S0
G1X-0.21S255
G1X-0.33S0
G1X-0.22S255
G1X-1.24S0
G1X-0.23S255
G1X-1.01S0
G1X-0.34S255
G1X-0.09S0
G1X-0.9S255
G1X-1.16S0
G1X-0.36S255
G1X-0.18S0
G1X-0.37S255
G1X-0.43S0
G1X-0.21S255
G1X-0.62S0
G1X-0.22S255
G1X-0.32S0
G1X-0.22S255
G1X-0.27S0
G1X-1.1S255
G1X-6.44S0
G1X-0.28S255
G1X-1.53S0
G1X-0.29S255
G1X-0.51S0
G1X-0.26S255
G1X-0.1S0
G1X-0.26S255
G1X-0.36S0
G1X-0.24S255
G1X-0.11S0
G1X-0.26S255
G1X-0.48S0
G1X-0.3S255
G1X-0.9S0
G1X-0.29S255
G1X-1.71S0
G1X-0.3S255
G1Y0.1S0
G1X0.3S255
G1X1.69S0
G1X0.29S255
G1X0.94S0
G1X0.29S255
G1X0.44S0
G1X0.26S255
G1X0.17S0
G1X0.24S255
G1X0.31S0
G1X0.26S255
G1X0.15S0
G1X0.26S255
G1X0.46S0
G1X0.29S255
G1X1.55S0
G1X0.28S255
G1X6.44S0
G1X0.23S255
G1X1.14S0
G1X0.22S255
G1X0.32S0
G1X0.22S255
G1X0.62S0
G1X0.21S255
G1X0.36S0
G1X0.26S255
G1X0.52S0
G1X0.26S255
G1X1.04S0
G1X0.28S255
G1X0.49S0
G1X0.51S255
G1X1.12S0
G1X0.23S255
G1X1.24S0
G1X0.22S255
G1X0.33S0
G1X0.21S255
G1X0.33S0
G1X0.22S255
G1X1.73S0
G1X0.74S255
G1X1.29S0
G1X0.18S255
G1X0.6S0
G1X0.61S255
G1X1.51S0
G1X0.22S255
G1X0.88S0
G1X0.54S255
G1X0.85S0
G1X0.53S255
G1X1.52S0
G1X0.18S255
G1X0.73S0
G1X0.47S255
G1X0.09Y0.1S0
G1X-0.22S255
G1X-0.21S0
G1X-0.22S255
G1X-0.58S0
G1X-0.18S255
G1X-1.45S0
G1X-0.77S255
G1X-0.62S0
G1X-0.78S255
G1X-0.76S0
G1X-0.22S255
G1X-1.46S0
G1X-0.19S255
G1X-0.33S0
G1X-0.19S255
G1X-0.5S0
G1X-0.18S255
G1X-1.26S0
G1X-0.26S255
G1X-0.38S0
G1X-0.25S255
G1X-1.66S0
G1X-0.22S255
G1X-0.33S0
G1X-0.21S255
G1X-0.33S0
G1X-0.22S255
G1X-1.24S0
G1X-0.23S255
G1X-1.21S0
G1X-0.33S255
G1X-0.65S0
G1X-0.25S255
G1X-0.96S0
G1X-0.23S255
G1X-0.65S0
G1X-0.24S255
G1X-0.32S0
G1X-0.21S255
G1X-0.62S0
G1X-0.22S255
G1X-0.32S0
G1X-0.22S255
G1X-1.14S0
G1X-0.23S255
G1X-6.44S0
G1X-0.28S255
G1X-0.33S0
G1X-1.52S255
G1X-0.42S0
G1X-0.26S255
G1X-0.21S0
G1X-0.26S255
G1X-0.26S0
G1X-0.24S255
G1X-0.22S0
G1X-0.26S255
G1X-0.41S0
G1X-0.28S255
G1X-0.96S0
G1X-0.29S255
G1X-1.68S0
G1X-0.3S255
G1Y0.1S0
G1X0.3S255
G1X1.68S0
G1X0.29S255
G1X0.96S0
G1X0.29S255
G1X0.37S0
G1X0.26S255
G1X0.28S0
G1X0.24S255
G1X0.2S0
G1X0.26S255
G1X0.27S0
G1X0.26S255
G1X0.39S0
G1X1.51S255
G1X0.34S0
G1X0.28S255
G1X6.44S0
G1X0.23S255
G1X1.14S0
G1X0.22S255
G1X0.32S0
G1X0.22S255
G1X0.62S0
G1X0.21S255
G1X0.29S0
G1X0.23S255
G1X1.86S0
G1X0.24S255
G1X0.63S0
G1X0.37S255
G1X1.22S0
G1X0.23S255
G1X1.24S0
G1X0.22S255
G1X0.33S0
G1X0.21S255
G1X0.33S0
G1X0.22S255
G1X1.61S0
G1X0.22S255
G1X0.54S0
G1X0.23S255
G1X1.26S0
G1X0.18S255
G1X0.42S0
G1X0.19S255
G1X0.39S0
G1X0.18S255
G1X1.44S0
G1X0.22S255
G1X0.7S0
G1X0.24S255
G1X0.41S0
G1X0.26S255
G1X0.47S0
G1X0.25S255
G1X0.42S0
G1X0.25S255
G1X1.43S0
G1X0.18S255
G1X0.48S0
G1X0.2S255
G1X0.35S0
G1X0.2S255
G1X0.02Y0.1S0
G1X-0.19S255
G1X-0.4S0
G1X-0.2S255
G1X-0.41S0
G1X-0.18S255
G1X-1.44S0
G1X-0.22S255
G1X-0.56S0
G1X-0.22S255
G1X-0.39S0
G1X-0.22S255
G1X-0.56S0
G1X-0.22S255
G1X-0.65S0
G1X-0.22S255
G1X-1.42S0
G1X-0.19S255
G1X-0.41S0
G1X-0.19S255
G1X-0.36S0
G1X-0.18S255
G1X-1.29S0
G1X-0.21S255
G1X-0.62S0
G1X-0.21S255
G1X-1.58S0
G1X-0.22S255
