; LightBurn 0.9.09
; GRBL device profile, current position
G00 G17 G40 G21 G54
G91
M4
; Image @ 4000 mm/min, 100% power
M8
G0X0.1Y0.1
G1X94.9F4000S0
G1Y0.1S0
G1X-94.9
G1Y0.1S0
G1X94.9
G1Y0.1S0
G1X-13.9
G1X-0.5S4
G1X-40.3S0
G1X-0.3S4
G1X-39.9S0
G1Y0.1S0
G1X39.9
G1X0.3S4
G1X40.3S0
G1X0.5S4
G1X13.9S0
G1Y0.1S0
G1X-13.9
G1X-0.5S4
G1X-40.3S0
G1X-0.5S4
G1X-39.7S0
G1Y0.1S0
G1X39.7
G1X0.5S4
G1X40.3S0
G1X0.5S4
G1X13.9S0
G1Y0.1S0
G1X-13.9
G1X-0.5S4
G1X-42.1S0
G1X-0.5S4
G1X-37.9S0
G1Y0.1S0
G1X37.9
G1X0.5S4
G1X42.1S0
G1X0.5S4
G1X13.9S0
G1Y0.1S0
G1X-14.1
G1X-0.3S4
G1X-39.9S0
G1X-0.4S4
G1X-1.8S0
G1X-0.3S4
G1X-38.1S0
G1Y0.1S0
G1X40.2
G1X0.1S4
G1X0.2S8
G1X0.1S4
G1X1S0
G1X0.4S4
G1X34.8S0
G1X0.5S4
G1X3.9S0
G1X0.5S4
G1X13.2S0
G1Y0.1S0
G1X-13.2
G1X-0.5S4
G1X-3.9S0
G1X-0.5S4
G1X-34.8S0
G1X-0.1S4
G1X-0.2S8
G1X-0.1S4
G1X-0.9S0
G1X-0.1S4
G1X-0.1S8
G1X-0.2S12
G1X-0.1S8
G1X-0.1S4
G1X-40.1S0
G1Y0.1S0
G1X40.1
G1X0.1S4
G1X0.1S8
G1X0.2S12
G1X0.1S8
G1X0.1S4
G1X0.2S0
G1X0.4S4
G1X0.3S0
G1X0.1S4
G1X0.2S8
G1X0.1S4
G1X34.9S0
G1X0.4S4
G1X3.9S0
G1X0.3S4
G1X13.4S0
G1Y0.1S0
G1X-13.4
G1X-0.3S4
G1X-3.9S0
G1X-0.4S4
G1X-34.9S0
G1X-0.1S4
G1X-0.2S8
G1X-0.1S4
G1X-0.3S0
G1X-0.4S4
G1X-0.3S0
G1X-0.1S4
G1X-0.2S8
G1X-0.1S4
G1X-2.1S0
G1X-0.5S4
G1X-37.6S0
G1Y0.1S0
G1X37.6
G1X0.1S4
G1X0.3S8
G1X0.2S4
G1X2S0
G1X0.4S4
G1X0.3S0
G1X0.4S4
G1X0.3S0
G1X0.4S4
G1X37.9S0
G1X0.6S4
G1X14.4S0
G1Y0.1S0
G1X-14.4
G1X-0.6S4
G1X-37.9S0
G1X-0.4S4
G1X-0.3S0
G1X-0.4S4
G1X-2.7S0
G1X-0.1S4
G1X-0.1S8
G1X-0.2S12
G1X-0.1S8
G1X-0.1S4
G1X-37.6S0
G1Y0.1S0
G1X37.7
G1X0.1S4
G1X0.2S8
G1X0.2S4
G1X2.5S0
G1X0.7S4
G1X38.7S0
G1X0.6S4
G1X14.2S0
G1Y0.1S0
G1X-15.1
G1X-0.4S4
G1X-0.3S0
G1X-0.4S4
G1X-0.9S0
G1X-0.5S4
G1X-0.4S0
G1X-0.5S4
G1X-34.1S0
G1X-0.5S4
G1X-1.6S0
G1X-0.5S4
G1X-0.4S0
G1X-0.5S4
G1X-0.7S0
G1X-0.4S4
G1X-37.7S0
G1Y0.1S0
G1X38.8
G1X0.5S4
G1X0.4S0
G1X0.2S4
G1X0.3S8
G1X0.1S4
G1X1.5S0
G1X0.5S4
G1X34.1S0
G1X0.5S4
G1X0.4S0
G1X0.5S4
G1X0.9S0
G1X0.4S4
G1X0.3S0
G1X0.4S4
G1X15.1S0
G1Y0.1S0
G1X-14.1
G1X-0.3S4
G1X-0.6S0
G1X-0.5S4
G1X-0.3S0
G1X-0.6S4
G1X-0.9S0
G1X-1.2S4
G1X-34.1S0
G1X-0.3S4
G1X-1.6S0
G1X-0.2S4
G1X-0.3S8
G1X-0.2S4
G1X-0.4S0
G1X-0.5S4
G1X-38.8S0
G1Y0.1S0
G1X38.8
G1X0.5S4
G1X0.4S0
G1X0.7S4
G1X1.6S0
G1X0.3S4
G1X34.1S0
G1X1.2S4
G1X0.6S0
G1X0.9S4
G1X0.3S0
G1X0.5S4
G1X0.6S0
G1X0.3S4
G1X14.1S0
G1Y0.1S0
G1X-13.2
G1X-0.5S4
G1X-0.4S0
G1X-0.3S4
G1X-0.4S0
G1X-0.5S4
G1X-0.7S0
G1X-0.2S4
G1X-0.3S8
G1X-0.2S4
G1X-35.9S0
G1X-0.3S4
G1X-42S0
G1Y0.1S0
G1X42
G1X0.3S4
G1X35.9S0
G1X0.2S4
G1X0.3S8
G1X0.2S4
G1X0.7S0
G1X0.5S4
G1X0.4S0
G1X0.3S4
G1X0.4S0
G1X0.5S4
G1X13.2S0
G1Y0.1S0
G1X-13.4
G1X-0.5S4
G1X-0.1S8
G1X-0.1S24
G1X-0.1S39
G1X-0.2S55
G1X-0.2S59
G1X-0.2S63
G1X-0.6S67
G1X-0.1S75
G1X-0.1S83
G1X-0.1S91
G1X-0.1S102
G1X-0.1S110
G1X-0.1S122
G1X-0.2S126
G1X-0.2S122
G1X-0.1S106
G1X-0.1S91
G1X-0.1S75
G1X-1.1S63
G1X-0.1S55
G1X-0.1S43
G1X-0.1S28
G1X-0.1S16
G1X-0.1S12
G1X-0.1S8
G1X-0.1S4
G1X-34.6S0
G1X-0.1S4
G1X-0.1S8
G1X-0.1S12
G1X-0.1S16
G1X-0.1S31
G1X-0.1S43
G1X-0.1S59
G1X-1.1S63
G1X-0.1S79
G1X-0.1S98
G1X-0.1S114
G1X-0.1S126
G1X-0.1S122
G1X-0.1S118
G1X-0.1S114
G1X-0.1S102
G1X-0.1S87
G1X-0.1S75
G1X-1.1S63
G1X-0.1S55
G1X-0.1S35
G1X-0.1S20
G1X-0.2S4
G1X-37.4S0
G1Y0.1S0
G1X37.3
G1X0.1S4
G1X0.2S8
G1X0.1S39
G1X0.1S75
G1X0.1S110
G1X0.4S134
G1X0.7S138
G1X0.1S157
G1X0.1S185
G1X0.1S217
G1X0.1S240
G1X0.1S252
G1X0.1S260
G1X0.1S272
G1X0.1S248
G1X0.1S213
G1X0.1S177
G1X0.4S142
G1X0.3S138
G1X0.4S134
G1X0.1S122
G1X0.1S94
G1X0.1S67
G1X0.1S35
G1X0.1S28
G1X0.1S16
G1X0.1S8
G1X34.6S0
G1X0.1S4
G1X0.1S16
G1X0.1S28
G1X0.1S35
G1X0.1S59
G1X0.1S87
G1X0.1S118
G1X1.1S134
G1X0.1S157
G1X0.1S189
G1X0.1S217
G1X0.1S244
G1X0.1S252
G1X0.1S260
G1X0.1S272
G1X0.1S260
G1X0.1S240
G1X0.1S220
G1X0.1S201
G1X0.1S181
G1X0.1S161
G1X0.1S142
G1X0.7S138
G1X0.1S130
G1X0.1S122
G1X0.1S114
G1X0.1S106
G1X0.1S75
G1X0.1S47
G1X0.1S20
G1X0.4S4
G1X13.5S0
G1Y0.1S0
G1X-13.5
G1X-0.4S4
G1X-0.1S28
G1X-0.1S71
G1X-0.1S114
G1X-0.1S157
G1X-0.1S169
G1X-0.1S185
G1X-0.1S201
G1X-0.7S209
G1X-0.1S220
G1X-0.1S252
G1X-0.1S280
G1X-0.1S307
G1X-0.1S335
G1X-0.1S366
G1X-0.1S398
G1X-0.1S409
G1X-0.1S398
G1X-0.1S382
G1X-0.1S366
G1X-0.1S331
G1X-0.1S283
G1X-0.1S240
G1X-1.1S209
G1X-0.1S177
G1X-0.1S134
G1X-0.1S91
G1X-0.1S51
G1X-0.1S35
G1X-0.1S24
G1X-0.1S8
G1X-34.6S0
G1X-0.1S12
G1X-0.1S28
G1X-0.1S43
G1X-0.1S55
G1X-0.1S98
G1X-0.1S142
G1X-0.1S185
G1X-0.7S209
G1X-0.2S213
G1X-0.2S217
G1X-0.1S268
G1X-0.1S323
G1X-0.1S378
G1X-0.1S409
G1X-0.1S398
G1X-0.1S382
G1X-0.1S366
G1X-0.1S331
G1X-0.1S287
G1X-0.1S240
G1X-0.6S213
G1X-0.5S209
G1X-0.1S173
G1X-0.1S118
G1X-0.1S63
G1X-0.1S16
G1X-0.1S12
G1X-0.1S4
G1X-37.3S0
G1Y0.1S0
G1X35.5
G1X0.1S4
G1X0.1S12
G1X0.1S20
G1X0.1S24
G1X0.1S31
G1X0.1S35
G1X0.1S39
G1X0.1S47
G1X0.1S51
G1X0.1S59
G1X0.1S63
G1X0.1S71
G1X0.1S75
G1X0.1S79
G1X0.1S87
G1X0.1S91
G1X0.1S98
G1X0.1S102
G1X0.1S110
G1X0.1S118
G1X0.1S122
G1X0.1S173
G1X0.1S236
G1X0.1S295
G1X0.5S335
G1X0.6S339
G1X0.1S370
G1X0.1S417
G1X0.1S465
G1X0.1S504
G1X0.1S524
G1X0.1S539
G1X0.1S555
G1X0.1S520
G1X0.1S461
G1X0.1S398
G1X0.2S343
G1X0.2S339
G1X0.3S335
G1X0.4S331
G1X0.1S307
G1X0.1S260
G1X0.1S213
G1X0.1S165
G1X0.1S150
G1X0.1S134
G1X0.1S118
G1X0.1S106
G1X0.1S98
G1X0.1S94
G1X0.1S91
G1X0.1S83
G1X0.1S79
G1X0.1S75
G1X0.1S71
G1X0.1S67
G1X0.1S59
G1X0.1S55
G1X0.1S47
G1X0.1S39
G1X0.1S35
G1X0.1S28
G1X0.1S20
G1X0.1S12
G1X0.1S4
G1X30.9S0
G1X0.1S4
G1X0.1S8
G1X0.1S12
G1X0.1S20
G1X0.1S28
G1X0.1S31
G1X0.1S39
G1X0.1S47
G1X0.1S51
G1X0.1S59
G1X0.1S63
G1X0.1S71
G1X0.1S75
G1X0.1S79
G1X0.1S83
G1X0.1S87
G1X0.1S94
G1X0.1S98
G1X0.1S102
G1X0.1S110
G1X0.1S130
G1X0.1S146
G1X0.1S165
G1X0.1S209
G1X0.1S252
G1X0.1S299
G1X1.1S335
G1X0.1S370
G1X0.1S417
G1X0.1S465
G1X0.1S504
G1X0.1S524
G1X0.1S539
G1X0.1S555
G1X0.1S539
G1X0.1S504
G1X0.1S472
G1X0.1S441
G1X0.1S409
G1X0.1S378
G1X0.1S346
G1X0.7S335
G1X0.1S323
G1X0.1S307
G1X0.1S291
G1X0.1S276
G1X0.1S228
G1X0.1S181
G1X0.1S138
G1X0.1S110
G1X0.1S106
G1X0.2S102
G1X0.1S94
G1X0.1S91
G1X0.1S83
G1X0.1S79
G1X0.1S75
G1X0.1S67
G1X0.1S63
G1X0.1S55
G1X0.1S51
G1X0.1S43
G1X0.1S39
G1X0.1S31
G1X0.1S24
G1X0.1S16
G1X0.1S12
G1X0.1S4
G1X11.9S0
G1Y0.1S0
G1X-11.8
G1X-0.1S8
G1X-0.1S24
G1X-0.1S39
G1X-0.1S59
G1X-0.1S87
G1X-0.1S110
G1X-0.1S138
G1X-0.1S161
G1X-0.1S181
G1X-0.1S205
G1X-0.1S224
G1X-0.1S248
G1X-0.1S268
G1X-0.1S287
G1X-0.1S311
G1X-0.1S331
G1X-0.1S354
G1X-0.1S374
G1X-0.1S378
G1X-0.1S386
G1X-0.1S394
G1X-0.1S413
G1X-0.1S445
G1X-0.1S476
G1X-0.1S508
G1X-0.1S516
G1X-0.1S528
G1X-0.1S539
G1X-0.7S547
G1X-0.1S555
G1X-0.1S579
G1X-0.1S598
G1X-0.1S622
G1X-0.1S642
G1X-0.1S665
G1X-0.1S689
G1X-0.1S697
G1X-0.1S685
G1X-0.1S673
G1X-0.1S661
G1X-0.1S634
G1X-0.1S602
G1X-0.1S571
G1X-1.1S547
G1X-0.1S524
G1X-0.1S492
G1X-0.1S457
G1X-0.1S429
G1X-0.1S417
G1X-0.1S406
G1X-0.1S398
G1X-0.1S378
G1X-0.1S362
G1X-0.1S343
G1X-0.1S323
G1X-0.1S307
G1X-0.1S291
G1X-0.1S276
G1X-0.1S260
G1X-0.1S236
G1X-0.1S217
G1X-0.1S197
G1X-0.1S169
G1X-0.1S146
G1X-0.1S118
G1X-0.1S94
G1X-0.1S71
G1X-0.1S51
G1X-0.1S31
G1X-0.1S20
G1X-0.1S12
G1X-0.1S4
G1X-30.4S0
G1X-0.3S4
G1X-0.1S12
G1X-0.1S39
G1X-0.1S67
G1X-0.1S94
G1X-0.1S122
G1X-0.1S150
G1X-0.1S177
G1X-0.1S201
G1X-0.1S224
G1X-0.1S244
G1X-0.1S264
G1X-0.1S283
G1X-0.1S295
G1X-0.1S307
G1X-0.1S323
G1X-0.1S343
G1X-0.1S362
G1X-0.1S382
G1X-0.1S398
G1X-0.1S409
G1X-0.1S421
G1X-0.1S433
G1X-0.1S465
G1X-0.1S496
G1X-0.1S528
G1X-0.4S543
G1X-0.3S547
G1X-0.2S551
G1X-0.2S555
G1X-0.1S591
G1X-0.1S634
G1X-0.1S673
G1X-0.1S697
G1X-0.1S685
G1X-0.1S677
G1X-0.1S665
G1X-0.1S638
G1X-0.1S606
G1X-0.1S571
G1X-0.6S551
G1X-0.5S547
G1X-0.1S520
G1X-0.1S476
G1X-0.1S437
G1X-0.1S398
G1X-0.1S390
G1X-0.1S382
G1X-0.1S374
G1X-0.1S358
G1X-0.1S339
G1X-0.1S315
G1X-0.1S295
G1X-0.1S276
G1X-0.1S256
G1X-0.1S236
G1X-0.1S213
G1X-0.1S193
G1X-0.1S169
G1X-0.1S146
G1X-0.1S126
G1X-0.1S106
G1X-0.1S87
G1X-0.1S67
G1X-0.1S43
G1X-0.1S20
G1X-35.5S0
G1Y0.1S0
G1X35.5
G1X0.1S35
G1X0.1S75
G1X0.1S114
G1X0.1S150
G1X0.1S181
G1X0.1S217
G1X0.1S248
G1X0.1S287
G1X0.1S327
G1X0.1S366
G1X0.1S402
G1X0.1S437
G1X0.1S472
G1X0.1S508
G1X0.1S543
G1X0.1S579
G1X0.1S618
G1X0.1S642
G1X0.1S654
G1X0.1S665
G1X0.1S673
G1X0.1S697
G1X0.1S717
G1X0.1S740
G1X0.4S756
G1X0.7S760
G1X0.1S772
G1X0.1S787
G1X0.1S807
G1X0.1S823
G1X0.1S827
G1X0.1S831
G1X0.1S835
G1X0.1S823
G1X0.1S803
G1X0.1S780
G1X0.4S760
G1X0.7S756
G1X0.1S748
G1X0.1S732
G1X0.1S717
G1X0.1S697
G1X0.1S693
G1X0.1S685
G1X0.1S677
G1X0.1S657
G1X0.1S622
G1X0.1S591
G1X0.1S555
G1X0.1S531
G1X0.1S508
G1X0.1S484
G1X0.1S457
G1X0.1S417
G1X0.1S382
G1X0.1S346
G1X0.1S299
G1X0.1S256
G1X0.1S209
G1X0.1S161
G1X0.1S114
G1X0.1S67
G1X0.1S20
G1X0.1S8
G1X0.2S4
G1X10.1S0
G1X0.3S4
G1X15.2S0
G1X0.4S4
G1X4.4S0
G1X0.1S8
G1X0.1S20
G1X0.1S35
G1X0.1S51
G1X0.1S87
G1X0.1S122
G1X0.1S161
G1X0.1S201
G1X0.1S248
G1X0.1S295
G1X0.1S343
G1X0.1S378
G1X0.1S409
G1X0.1S445
G1X0.1S472
G1X0.1S500
G1X0.1S528
G1X0.1S555
G1X0.1S587
G1X0.1S622
G1X0.1S654
G1X0.1S677
G1X0.1S681
G1X0.1S689
G1X0.1S693
G1X0.1S709
G1X0.1S728
G1X0.1S744
G1X1.1S756
G1X0.1S772
G1X0.1S787
G1X0.1S807
G1X0.1S823
G1X0.1S827
G1X0.1S835
G1X0.1S839
G1X0.1S831
G1X0.1S819
G1X0.1S807
G1X0.1S795
G1X0.1S783
G1X0.1S772
G1X0.1S760
G1X0.8S756
G1X0.1S748
G1X0.1S744
G1X0.1S740
G1X0.1S720
G1X0.1S701
G1X0.1S681
G1X0.1S669
G1X0.1S661
G1X0.1S654
G1X0.1S646
G1X0.1S610
G1X0.1S571
G1X0.1S531
G1X0.1S496
G1X0.1S461
G1X0.1S425
G1X0.1S390
G1X0.1S354
G1X0.1S319
G1X0.1S280
G1X0.1S244
G1X0.1S197
G1X0.1S150
G1X0.1S102
G1X0.1S71
G1X0.1S43
G1X0.1S16
G1X0.2S0
G1X0.4S4
G1X11.2S0
G1Y0.1S0
G1X-11.2
G1X-0.4S4
G1X-0.2S0
G1X-0.1S28
G1X-0.1S63
G1X-0.1S102
G1X-0.1S146
G1X-0.1S213
G1X-0.1S276
G1X-0.1S343
G1X-0.1S398
G1X-0.1S449
G1X-0.1S500
G1X-0.1S551
G1X-0.1S602
G1X-0.1S654
G1X-0.1S705
G1X-0.1S760
G1X-0.1S811
G1X-0.1S866
G1X-0.1S917
G1X-0.1S929
G1X-0.1S937
G1X-0.1S949
G1X-0.1S957
G1X-0.1S961
G1X-0.1S965
G1X-1.2S969
G1X-0.1S972
G1X-0.2S976
G1X-0.7S980
G1X-0.1S976
G1X-0.2S972
G1X-1.3S969
G1X-0.1S965
G1X-0.4S961
G1X-0.1S933
G1X-0.1S882
G1X-0.1S835
G1X-0.1S787
G1X-0.1S748
G1X-0.1S713
G1X-0.1S673
G1X-0.1S634
G1X-0.1S583
G1X-0.1S535
G1X-0.1S488
G1X-0.1S421
G1X-0.1S354
G1X-0.1S287
G1X-0.1S228
G1X-0.1S173
G1X-0.1S122
G1X-0.1S71
G1X-0.1S51
G1X-0.1S28
G1X-0.1S8
G1X-4.4S0
G1X-0.4S4
G1X-15.2S0
G1X-0.3S4
G1X-10.1S0
G1X-0.1S4
G1X-0.1S8
G1X-0.1S12
G1X-0.1S28
G1X-0.1S94
G1X-0.1S165
G1X-0.1S232
G1X-0.1S299
G1X-0.1S366
G1X-0.1S429
G1X-0.1S492
G1X-0.1S547
G1X-0.1S598
G1X-0.1S650
G1X-0.1S693
G1X-0.1S724
G1X-0.1S760
G1X-0.1S791
G1X-0.1S839
G1X-0.1S890
G1X-0.1S937
G1X-0.4S961
G1X-0.1S965
G1X-1.3S969
G1X-0.1S972
G1X-0.7S976
G1X-0.2S972
G1X-1.2S969
G1X-0.1S965
G1X-0.1S957
G1X-0.1S953
G1X-0.1S941
G1X-0.1S929
G1X-0.1S917
G1X-0.1S878
G1X-0.1S827
G1X-0.1S776
G1X-0.1S720
G1X-0.1S673
G1X-0.1S622
G1X-0.1S571
G1X-0.1S520
G1X-0.1S465
G1X-0.1S409
G1X-0.1S354
G1X-0.1S307
G1X-0.1S260
G1X-0.1S213
G1X-0.1S161
G1X-0.1S106
G1X-0.1S55
G1X-35.5S0
G1Y0.1S0
G1X5.1
G1X0.1S16
G1X0.1S31
G1X0.1S51
G1X0.1S67
G1X0.1S87
G1X0.1S102
G1X0.1S118
G1X26.1S122
G1X0.1S118
G1X0.1S102
G1X0.1S83
G1X0.1S67
G1X0.1S51
G1X0.1S35
G1X0.1S20
G1X0.4S4
G1X1.1S0
G1X0.1S12
G1X0.1S24
G1X0.1S31
G1X0.1S47
G1X0.1S63
G1X0.1S83
G1X0.1S98
G1X0.1S122
G1X0.1S142
G1X0.1S165
G1X0.1S185
G1X0.1S201
G1X0.1S217
G1X0.1S236
G1X0.1S280
G1X0.1S327
G1X0.1S370
G1X0.1S409
G1X0.1S449
G1X0.1S488
G1X0.1S524
G1X0.1S567
G1X0.1S610
G1X0.1S654
G1X0.1S697
G1X0.1S736
G1X0.1S776
G1X0.1S819
G1X0.1S858
G1X0.1S898
G1X0.1S941
G1X0.1S969
G1X0.1S980
G1X0.1S988
G1X0.1S996
G1X0.1S984
G1X0.1S969
G1X0.1S953
G1X1.1S941
G1X0.1S933
G1X0.1S921
G1X0.1S906
G1X0.1S894
G1X0.1S890
G1X0.1S886
G1X0.1S882
G1X0.1S890
G1X0.1S909
G1X0.1S929
G1X1.1S941
G1X0.1S949
G1X0.1S965
G1X0.1S976
G1X0.1S988
G1X0.1S992
G1X0.2S996
G1X0.1S980
G1X0.1S945
G1X0.1S906
G1X0.1S870
G1X0.1S843
G1X0.1S815
G1X0.1S791
G1X0.1S756
G1X0.1S717
G1X0.1S673
G1X0.1S634
G1X0.1S583
G1X0.1S531
G1X0.1S480
G1X0.1S429
G1X0.1S374
G1X0.1S319
G1X0.1S264
G1X0.1S240
G1X0.1S220
G1X0.1S201
G1X0.1S181
G1X0.1S161
G1X0.1S138
G1X0.1S118
G1X0.1S94
G1X0.1S75
G1X0.1S51
G1X0.1S31
G1X0.1S20
G1X0.1S12
G1X8.9S0
G1X0.5S4
G1X1.3S0
G1X0.1S4
G1X0.1S8
G1X0.1S12
G1X0.1S20
G1X0.1S39
G1X0.1S55
G1X0.1S71
G1X0.1S87
G1X0.1S98
G1X0.1S114
G1X6S122
G1X0.1S118
G1X0.1S102
G1X0.1S87
G1X0.1S71
G1X0.1S55
G1X0.1S35
G1X0.1S20
G1X6.2S0
G1X0.4S4
G1X3.3S0
G1X0.1S4
G1X0.1S24
G1X0.1S39
G1X0.1S59
G1X0.1S79
G1X0.1S98
G1X0.1S122
G1X0.1S142
G1X0.1S157
G1X0.1S173
G1X0.1S193
G1X0.1S217
G1X0.1S244
G1X0.1S272
G1X0.1S299
G1X0.1S339
G1X0.1S382
G1X0.1S421
G1X0.1S469
G1X0.1S524
G1X0.1S575
G1X0.1S630
G1X0.1S669
G1X0.1S705
G1X0.1S744
G1X0.1S780
G1X0.1S807
G1X0.1S835
G1X0.1S866
G1X0.1S902
G1X0.1S941
G1X0.1S976
G1X0.1S1000
G1X0.1S996
G1X0.2S992
G1X0.1S980
G1X0.1S965
G1X0.1S953
G1X1.1S941
G1X0.1S933
G1X0.1S921
G1X0.1S906
G1X0.1S894
G1X0.2S890
G1X0.1S886
G1X0.1S890
G1X0.1S898
G1X0.1S906
G1X0.1S913
G1X0.1S921
G1X0.1S929
G1X0.8S941
G1X0.1S945
G1X0.1S949
G1X0.1S953
G1X0.1S957
G1X0.1S969
G1X0.1S980
G1X0.2S992
G1X0.1S984
G1X0.1S976
G1X0.1S969
G1X0.1S929
G1X0.1S886
G1X0.1S846
G1X0.1S803
G1X0.1S764
G1X0.1S720
G1X0.1S681
G1X0.1S642
G1X0.1S602
G1X0.1S559
G1X0.1S516
G1X0.1S465
G1X0.1S409
G1X0.1S358
G1X0.1S319
G1X0.1S280
G1X0.1S244
G1X0.1S209
G1X0.1S193
G1X0.1S177
G1X0.1S165
G1X0.1S142
G1X0.1S122
G1X0.1S98
G1X0.1S75
G1X0.1S51
G1X0.1S28
G1X0.1S4
G1X10.7S0
G1Y0.1S0
G1X-4.7
G1X-0.7S4
G1X-3.4S0
G1X-0.3S4
G1X-1.6S0
G1X-0.1S16
G1X-0.1S63
G1X-0.1S114
G1X-0.1S165
G1X-0.1S213
G1X-0.1S260
G1X-0.1S307
G1X-0.1S350
G1X-0.1S386
G1X-0.1S417
G1X-0.1S453
G1X-0.1S492
G1X-0.1S528
G1X-0.1S567
G1X-0.1S602
G1X-0.1S634
G1X-0.1S665
G1X-0.1S697
G1X-0.1S724
G1X-0.1S748
G1X-0.1S776
G1X-0.1S799
G1X-0.1S827
G1X-0.1S850
G1X-0.1S878
G1X-0.1S906
G1X-0.1S929
G1X-0.1S957
G1X-0.1S984
G1X-0.1S988
G1X-0.1S992
G1X-0.1S1000
G1X-0.1S988
G1X-0.1S961
G1X-0.1S933
G1X-0.1S902
G1X-0.1S894
G1X-0.1S886
G1X-0.1S878
G1X-0.7S870
G1X-0.1S862
G1X-0.1S843
G1X-0.1S823
G1X-0.1S803
G1X-0.1S787
G1X-0.1S772
G1X-0.1S752
G1X-0.1S744
G1X-0.1S752
G1X-0.1S760
G1X-0.1S768
G1X-0.1S791
G1X-0.1S823
G1X-0.1S850
G1X-1.1S870
G1X-0.1S894
G1X-0.1S921
G1X-0.1S949
G1X-0.1S976
G1X-0.1S984
G1X-0.1S992
G1X-0.1S1000
G1X-0.1S988
G1X-0.1S965
G1X-0.1S941
G1X-0.1S917
G1X-0.1S898
G1X-0.1S882
G1X-0.1S862
G1X-0.1S843
G1X-0.1S819
G1X-0.1S795
G1X-0.1S768
G1X-0.1S736
G1X-0.1S701
G1X-0.1S669
G1X-0.1S638
G1X-0.1S614
G1X-0.1S587
G1X-0.1S563
G1X-0.1S528
G1X-0.1S492
G1X-0.1S457
G1X-0.1S417
G1X-0.1S382
G1X-0.1S346
G1X-0.1S311
G1X-0.1S268
G1X-0.1S220
G1X-0.1S173
G1X-0.1S130
G1X-0.1S87
G1X-0.1S47
G1X-0.1S8
G1X-1.9S0
G1X-0.4S4
G1X-7.2S0
G1X-0.2S4
G1X-0.2S8
G1X-0.1S47
G1X-0.1S83
G1X-0.1S122
G1X-0.1S157
G1X-0.1S193
G1X-0.1S228
G1X-0.1S264
G1X-6S268
G1X-0.1S244
G1X-0.1S217
G1X-0.1S189
G1X-0.1S157
G1X-0.1S122
G1X-0.1S87
G1X-0.1S47
G1X-0.1S31
G1X-0.1S20
G1X-0.1S8
G1X-9.4S0
G1X-0.3S4
G1X-0.9S0
G1X-0.1S4
G1X-0.1S28
G1X-0.1S47
G1X-0.1S67
G1X-0.1S110
G1X-0.1S157
G1X-0.1S205
G1X-0.1S252
G1X-0.1S299
G1X-0.1S346
G1X-0.1S394
G1X-0.1S433
G1X-0.1S469
G1X-0.1S504
G1X-0.1S539
G1X-0.1S575
G1X-0.1S610
G1X-0.1S642
G1X-0.1S677
G1X-0.1S709
G1X-0.1S740
G1X-0.1S772
G1X-0.1S799
G1X-0.1S823
G1X-0.1S846
G1X-0.1S866
G1X-0.1S886
G1X-0.1S902
G1X-0.1S921
G1X-0.1S945
G1X-0.1S965
G1X-0.1S988
G1X-0.1S992
G1X-0.1S984
G1X-0.1S976
G1X-0.1S969
G1X-0.1S941
G1X-0.1S913
G1X-0.1S886
G1X-0.4S870
G1X-0.3S866
G1X-0.4S870
G1X-0.1S839
G1X-0.1S799
G1X-0.1S764
G1X-0.1S740
G1X-0.1S752
G1X-0.1S760
G1X-0.1S768
G1X-0.1S791
G1X-0.1S823
G1X-0.1S850
G1X-0.4S870
G1X-0.3S866
G1X-0.2S870
G1X-0.2S874
G1X-0.1S902
G1X-0.1S937
G1X-0.1S972
G1X-0.1S1000
G1X-0.1S996
G1X-0.1S988
G1X-0.1S980
G1X-0.1S961
G1X-0.1S937
G1X-0.1S909
G1X-0.1S886
G1X-0.1S858
G1X-0.1S835
G1X-0.1S807
G1X-0.1S783
G1X-0.1S756
G1X-0.1S732
G1X-0.1S705
G1X-0.1S681
G1X-0.1S657
G1X-0.1S634
G1X-0.1S602
G1X-0.1S571
G1X-0.1S539
G1X-0.1S508
G1X-0.1S469
G1X-0.1S433
G1X-0.1S394
G1X-0.1S350
G1X-0.1S303
G1X-0.1S260
G1X-0.1S213
G1X-0.1S173
G1X-0.1S138
G1X-0.1S98
G1X-0.1S67
G1X-0.1S47
G1X-0.1S24
G1X-0.2S0
G1X-0.9S4
G1X-0.4S8
G1X-0.1S35
G1X-0.1S71
G1X-0.1S110
G1X-0.1S146
G1X-0.1S181
G1X-0.1S220
G1X-0.1S256
G1X-26.1S268
G1X-0.1S260
G1X-0.1S220
G1X-0.1S185
G1X-0.1S150
G1X-0.1S110
G1X-0.1S71
G1X-0.1S31
G1X-0.7S0
G1X-1.3S4
G1X-3.1S0
G1Y0.1S0
G1X3.1
G1X0.1S4
G1X0.3S8
G1X0.9S4
G1X0.7S0
G1X0.1S47
G1X0.1S106
G1X0.1S169
G1X0.1S228
G1X0.1S283
G1X0.1S339
G1X0.1S394
G1X25.4S409
G1X0.7S413
G1X0.1S394
G1X0.1S339
G1X0.1S283
G1X0.1S228
G1X0.1S169
G1X0.1S110
G1X0.1S51
G1X0.4S8
G1X0.5S4
G1X0.3S8
G1X0.1S4
G1X0.1S0
G1X0.1S4
G1X0.1S35
G1X0.1S71
G1X0.1S102
G1X0.1S154
G1X0.1S209
G1X0.1S268
G1X0.1S327
G1X0.1S398
G1X0.1S469
G1X0.1S543
G1X0.1S606
G1X0.1S665
G1X0.1S724
G1X0.1S783
G1X0.1S799
G1X0.1S819
G1X0.1S835
G1X0.1S850
G1X0.1S862
G1X0.1S874
G1X0.1S882
G1X0.1S894
G1X0.1S906
G1X0.1S913
G1X0.1S925
G1X0.1S937
G1X0.1S945
G1X0.1S957
G1X0.1S969
G1X0.1S976
G1X0.1S988
G1X0.2S996
G1X0.2S1000
G1X0.1S957
G1X0.1S898
G1X0.1S843
G1X0.2S803
G1X0.2S799
G1X0.7S795
G1X0.1S768
G1X0.1S720
G1X0.1S677
G1X0.1S642
G1X0.1S626
G1X0.1S614
G1X0.1S602
G1X0.1S634
G1X0.1S689
G1X0.1S748
G1X1.1S795
G1X0.1S819
G1X0.1S862
G1X0.1S906
G1X0.1S949
G1X0.1S965
G1X0.1S976
G1X0.1S992
G1X0.1S996
G1X0.1S988
G1X0.1S980
G1X0.1S972
G1X0.1S961
G1X0.1S953
G1X0.1S945
G1X0.1S937
G1X0.1S929
G1X0.1S921
G1X0.1S913
G1X0.1S902
G1X0.1S886
G1X0.1S874
G1X0.1S858
G1X0.1S846
G1X0.1S835
G1X0.1S819
G1X0.1S772
G1X0.1S717
G1X0.1S661
G1X0.1S606
G1X0.1S535
G1X0.1S465
G1X0.1S394
G1X0.1S323
G1X0.1S248
G1X0.1S173
G1X0.1S110
G1X0.1S75
G1X0.1S43
G1X0.1S8
G1X0.9S0
G1X0.3S4
G1X9.4S0
G1X0.1S12
G1X0.1S31
G1X0.1S51
G1X0.1S75
G1X0.1S130
G1X0.1S189
G1X0.1S244
G1X0.1S291
G1X0.1S331
G1X0.1S374
G1X6S409
G1X0.1S402
G1X0.1S350
G1X0.1S299
G1X0.1S244
G1X0.1S189
G1X0.1S130
G1X0.1S71
G1X0.2S12
G1X0.1S8
G1X0.1S4
G1X7.2S0
G1X0.4S4
G1X1.9S0
G1X0.1S12
G1X0.1S75
G1X0.1S138
G1X0.1S201
G1X0.1S268
G1X0.1S339
G1X0.1S409
G1X0.1S480
G1X0.1S535
G1X0.1S591
G1X0.1S646
G1X0.1S697
G1X0.1S740
G1X0.1S783
G1X0.1S827
G1X0.1S835
G1X0.1S846
G1X0.1S854
G1X0.1S866
G1X0.1S882
G1X0.1S894
G1X0.1S906
G1X0.1S917
G1X0.1S925
G1X0.1S937
G1X0.1S945
G1X0.1S953
G1X0.1S961
G1X0.1S969
G1X0.1S980
G1X0.1S988
G1X0.2S996
G1X0.1S984
G1X0.1S969
G1X0.1S957
G1X0.1S917
G1X0.1S874
G1X0.1S827
G1X1.1S799
G1X0.1S768
G1X0.1S724
G1X0.1S681
G1X0.1S642
G1X0.1S626
G1X0.1S614
G1X0.1S602
G1X0.1S614
G1X0.1S642
G1X0.1S669
G1X0.1S697
G1X0.1S728
G1X0.1S760
G1X0.1S791
G1X0.2S803
G1X0.5S799
G1X0.1S807
G1X0.1S823
G1X0.1S835
G1X0.1S846
G1X0.1S890
G1X0.1S933
G1X0.1S980
G1X0.2S1000
G1X0.2S996
G1X0.1S984
G1X0.1S976
G1X0.1S965
G1X0.1S953
G1X0.1S945
G1X0.1S933
G1X0.1S921
G1X0.1S909
G1X0.1S902
G1X0.1S890
G1X0.1S878
G1X0.1S866
G1X0.1S854
G1X0.1S843
G1X0.1S811
G1X0.1S776
G1X0.1S740
G1X0.1S701
G1X0.1S646
G1X0.1S587
G1X0.1S531
G1X0.1S465
G1X0.1S394
G1X0.1S327
G1X0.1S252
G1X0.1S177
G1X0.1S98
G1X0.1S24
G1X1.6S0
G1X0.3S4
G1X3.4S0
G1X0.2S4
G1X0.3S8
G1X0.2S4
G1X4.7S0
G1Y0.1S0
G1X-4.7
G1X-0.2S4
G1X-0.3S8
G1X-0.1S4
G1X-3.5S0
G1X-0.5S4
G1X-0.4S0
G1X-0.1S8
G1X-0.1S12
G1X-0.1S20
G1X-0.1S28
G1X-0.1S35
G1X-0.1S47
G1X-0.1S59
G1X-0.1S67
G1X-0.1S75
G1X-0.1S83
G1X-0.1S118
G1X-0.1S205
G1X-0.1S291
G1X-0.1S378
G1X-0.1S457
G1X-0.1S535
G1X-0.1S614
G1X-0.1S689
G1X-0.1S748
G1X-0.1S811
G1X-0.1S874
G1X-0.1S913
G1X-0.1S941
G1X-0.1S969
G1X-0.1S988
G1X-0.1S980
G1X-0.1S972
G1X-0.1S965
G1X-0.1S961
G1X-0.1S957
G1X-0.1S949
G1X-0.1S945
G1X-0.1S941
G1X-0.1S937
G1X-0.1S933
G1X-0.1S929
G1X-0.1S921
G1X-0.1S917
G1X-0.4S909
G1X-0.1S882
G1X-0.1S831
G1X-0.1S783
G1X-0.1S732
G1X-0.1S720
G1X-0.1S705
G1X-0.1S689
G1X-0.2S681
G1X-0.3S677
G1X-0.1S681
G1X-0.1S685
G1X-0.1S673
G1X-0.1S638
G1X-0.1S602
G1X-0.1S563
G1X-0.1S535
G1X-0.1S504
G1X-0.1S472
G1X-0.1S461
G1X-0.1S472
G1X-0.1S488
G1X-0.1S504
G1X-0.1S547
G1X-0.1S598
G1X-0.1S646
G1X-0.2S681
G1X-0.4S677
G1X-0.5S681
G1X-0.1S713
G1X-0.1S764
G1X-0.1S811
G1X-0.1S854
G1X-0.1S870
G1X-0.1S886
G1X-0.1S902
G1X-0.1S909
G1X-0.1S913
G1X-0.1S917
G1X-0.2S925
G1X-0.1S929
G1X-0.1S933
G1X-0.1S937
G1X-0.1S941
G1X-0.1S945
G1X-0.1S953
G1X-0.1S961
G1X-0.1S969
G1X-0.1S976
G1X-0.1S980
G1X-0.1S984
G1X-0.1S988
G1X-0.1S992
G1X-0.1S953
G1X-0.1S909
G1X-0.1S870
G1X-0.1S815
G1X-0.1S756
G1X-0.1S693
G1X-0.1S630
G1X-0.1S551
G1X-0.1S472
G1X-0.1S394
G1X-0.1S315
G1X-0.1S240
G1X-0.1S165
G1X-0.1S91
G1X-0.1S75
G1X-0.1S71
G1X-0.1S63
G1X-0.1S59
G1X-0.1S47
G1X-0.1S35
G1X-0.1S24
G1X-0.1S16
G1X-0.1S12
G1X-0.1S8
G1X-0.9S0
G1X-0.5S4
G1X-6.7S0
G1X-0.4S4
G1X-0.1S20
G1X-0.1S43
G1X-0.1S71
G1X-0.1S94
G1X-0.1S165
G1X-0.1S232
G1X-0.1S303
G1X-0.1S370
G1X-0.1S429
G1X-0.1S488
G1X-0.1S547
G1X-6S555
G1X-0.1S516
G1X-0.1S469
G1X-0.1S421
G1X-0.1S366
G1X-0.1S303
G1X-0.1S236
G1X-0.1S173
G1X-0.1S126
G1X-0.1S83
G1X-0.1S39
G1X-0.1S8
G1X-0.2S4
G1X-6.6S0
G1X-0.5S4
G1X-1.8S0
G1X-0.7S4
G1X-0.1S12
G1X-0.1S20
G1X-0.1S31
G1X-0.1S43
G1X-0.1S51
G1X-0.1S63
G1X-0.1S71
G1X-0.1S91
G1X-0.1S134
G1X-0.1S173
G1X-0.1S217
G1X-0.1S291
G1X-0.1S370
G1X-0.1S453
G1X-0.1S531
G1X-0.1S610
G1X-0.1S689
G1X-0.1S768
G1X-0.1S831
G1X-0.1S894
G1X-0.1S953
G1X-0.1S1000
G1X-0.1S992
G1X-0.1S988
G1X-0.1S980
G1X-0.1S972
G1X-0.1S969
G1X-0.1S961
G1X-0.1S953
G1X-0.1S949
G1X-0.1S941
G1X-0.1S933
G1X-0.2S929
G1X-0.1S925
G1X-0.1S921
G1X-0.1S917
G1X-0.1S913
G1X-0.1S906
G1X-0.1S894
G1X-0.1S878
G1X-0.1S862
G1X-0.1S846
G1X-0.1S799
G1X-0.1S752
G1X-0.1S705
G1X-1.1S677
G1X-0.1S622
G1X-0.1S559
G1X-0.1S496
G1X-0.1S461
G1X-0.1S476
G1X-0.1S492
G1X-0.1S508
G1X-0.1S547
G1X-0.1S598
G1X-0.1S646
G1X-0.4S677
G1X-0.3S673
G1X-0.1S677
G1X-0.2S681
G1X-0.1S685
G1X-0.1S728
G1X-0.1S791
G1X-0.1S854
G1X-0.4S909
G1X-0.1S913
G1X-0.1S921
G1X-0.1S925
G1X-0.2S933
G1X-0.1S937
G1X-0.1S941
G1X-0.1S945
G1X-0.1S953
G1X-0.1S961
G1X-0.2S969
G1X-0.1S972
G1X-0.2S976
G1X-0.1S972
G1X-0.2S969
G1X-0.1S902
G1X-0.1S839
G1X-0.1S772
G1X-0.1S701
G1X-0.1S622
G1X-0.1S543
G1X-0.1S461
G1X-0.1S398
G1X-0.1S331
G1X-0.1S268
G1X-0.1S209
G1X-0.1S165
G1X-0.1S122
G1X-0.1S79
G1X-0.1S67
G1X-0.1S59
G1X-0.1S55
G1X-0.1S47
G1X-0.1S35
G1X-0.1S24
G1X-0.1S12
G1X-0.3S8
G1X-0.1S16
G1X-0.1S39
G1X-0.1S63
G1X-0.1S87
G1X-0.1S142
G1X-0.1S213
G1X-0.1S283
G1X-0.1S350
G1X-0.1S413
G1X-0.1S476
G1X-0.1S539
G1X-0.5S559
G1X-25.6S555
G1X-0.1S539
G1X-0.1S476
G1X-0.1S413
G1X-0.1S350
G1X-0.1S280
G1X-0.1S205
G1X-0.1S130
G1X-0.1S67
G1X-0.1S47
G1X-0.1S28
G1X-0.1S8
G1X-0.5S0
G1X-0.7S4
G1X-0.3S8
G1X-0.1S4
G1X-3.1S0
G1Y0.1S0
G1X3.1
G1X1.1S4
G1X0.3S0
G1X0.2S4
G1X0.1S28
G1X0.1S102
G1X0.1S181
G1X0.1S256
G1X0.1S331
G1X0.1S409
G1X0.1S484
G1X0.1S555
G1X0.1S598
G1X0.1S638
G1X0.1S681
G1X26.1S693
G1X0.1S681
G1X0.1S638
G1X0.1S594
G1X0.1S551
G1X0.1S496
G1X0.1S433
G1X0.1S370
G1X0.1S299
G1X0.1S209
G1X0.1S122
G1X0.1S31
G1X0.1S16
G1X0.1S20
G1X0.1S28
G1X0.1S39
G1X0.1S75
G1X0.1S106
G1X0.1S142
G1X0.1S177
G1X0.1S217
G1X0.1S256
G1X0.1S299
G1X0.1S346
G1X0.1S398
G1X0.1S449
G1X0.1S496
G1X0.1S539
G1X0.1S583
G1X0.1S630
G1X0.1S685
G1X0.1S740
G1X0.1S795
G1X0.1S843
G1X0.1S890
G1X0.1S933
G1X0.1S976
G1X0.1S965
G1X0.1S949
G1X0.1S933
G1X0.1S917
G1X0.1S902
G1X0.1S882
G1X0.1S866
G1X0.1S843
G1X0.1S819
G1X0.1S799
G1X0.1S776
G1X0.1S760
G1X0.1S740
G1X0.1S720
G1X0.1S701
G1X0.1S681
G1X0.1S661
G1X0.1S646
G1X0.1S638
G1X0.1S630
G1X0.1S626
G1X0.1S587
G1X0.1S543
G1X0.1S500
G1X0.4S469
G1X0.7S465
G1X0.1S441
G1X0.1S409
G1X0.1S374
G1X0.1S346
G1X0.1S335
G1X0.1S327
G1X0.1S315
G1X0.1S343
G1X0.1S386
G1X0.1S429
G1X1.1S465
G1X0.1S484
G1X0.1S520
G1X0.1S555
G1X0.1S587
G1X0.1S598
G1X0.1S606
G1X0.1S614
G1X0.1S630
G1X0.1S650
G1X0.1S669
G1X0.1S689
G1X0.1S705
G1X0.1S717
G1X0.1S728
G1X0.1S748
G1X0.1S768
G1X0.1S787
G1X0.1S811
G1X0.1S835
G1X0.1S862
G1X0.1S886
G1X0.1S913
G1X0.1S941
G1X0.1S969
G1X0.1S996
G1X0.1S969
G1X0.1S929
G1X0.1S886
G1X0.1S843
G1X0.1S787
G1X0.1S732
G1X0.1S677
G1X0.1S622
G1X0.1S567
G1X0.1S512
G1X0.1S457
G1X0.1S406
G1X0.1S354
G1X0.1S307
G1X0.1S268
G1X0.1S236
G1X0.1S205
G1X0.1S169
G1X0.1S130
G1X0.1S87
G1X0.1S47
G1X0.1S24
G1X0.1S20
G1X0.1S12
G1X0.4S4
G1X1.8S0
G1X0.5S4
G1X6.6S0
G1X0.1S8
G1X0.1S20
G1X0.1S28
G1X0.1S106
G1X0.1S209
G1X0.1S311
G1X0.1S402
G1X0.1S457
G1X0.1S508
G1X0.1S563
G1X0.1S602
G1X0.1S634
G1X0.1S665
G1X6S693
G1X0.1S689
G1X0.1S650
G1X0.1S610
G1X0.1S567
G1X0.1S516
G1X0.1S453
G1X0.1S390
G1X0.1S327
G1X0.1S232
G1X0.1S142
G1X0.1S51
G1X0.4S4
G1X6.7S0
G1X0.5S4
G1X0.9S0
G1X0.1S20
G1X0.1S39
G1X0.1S59
G1X0.1S87
G1X0.1S130
G1X0.1S169
G1X0.1S213
G1X0.1S244
G1X0.1S268
G1X0.1S287
G1X0.1S319
G1X0.1S390
G1X0.1S457
G1X0.1S524
G1X0.1S583
G1X0.1S638
G1X0.1S693
G1X0.1S748
G1X0.1S787
G1X0.1S831
G1X0.1S874
G1X0.1S906
G1X0.1S929
G1X0.1S953
G1X0.1S972
G1X0.1S957
G1X0.1S937
G1X0.1S917
G1X0.1S894
G1X0.1S866
G1X0.1S839
G1X0.1S811
G1X0.1S791
G1X0.1S772
G1X0.1S748
G1X0.1S732
G1X0.1S720
G1X0.1S709
G1X0.1S697
G1X0.1S677
G1X0.1S657
G1X0.1S638
G1X0.1S622
G1X0.1S610
G1X0.1S598
G1X0.1S591
G1X0.1S559
G1X0.1S524
G1X0.1S492
G1X1.1S469
G1X0.1S445
G1X0.1S409
G1X0.1S378
G1X0.1S346
G1X0.1S335
G1X0.1S327
G1X0.1S315
G1X0.1S327
G1X0.1S346
G1X0.1S370
G1X0.1S390
G1X0.1S413
G1X0.1S437
G1X0.1S461
G1X0.7S469
G1X0.1S476
G1X0.1S488
G1X0.1S500
G1X0.1S508
G1X0.1S543
G1X0.1S575
G1X0.1S606
G1X0.1S626
G1X0.1S634
G1X0.1S638
G1X0.1S642
G1X0.1S665
G1X0.1S685
G1X0.1S709
G1X0.1S728
G1X0.1S748
G1X0.1S768
G1X0.1S787
G1X0.1S807
G1X0.1S827
G1X0.1S846
G1X0.1S870
G1X0.1S898
G1X0.1S921
G1X0.2S949
G1X0.1S941
G1X0.1S933
G1X0.1S913
G1X0.1S870
G1X0.1S827
G1X0.1S783
G1X0.1S736
G1X0.1S681
G1X0.1S626
G1X0.1S571
G1X0.1S500
G1X0.1S429
G1X0.1S358
G1X0.1S319
G1X0.1S291
G1X0.1S264
G1X0.1S236
G1X0.1S189
G1X0.1S146
G1X0.1S98
G1X0.1S67
G1X0.1S43
G1X0.1S24
G1X0.4S0
G1X0.5S4
G1X3.6S0
G1X0.5S4
G1X4.7S0
G1Y0.1S0
G1X-4.7
G1X-0.5S4
G1X-4.5S0
G1X-0.1S39
G1X-0.1S79
G1X-0.1S114
G1X-0.1S169
G1X-0.1S252
G1X-0.1S335
G1X-0.1S417
G1X-0.1S469
G1X-0.1S516
G1X-0.1S559
G1X-0.1S610
G1X-0.1S661
G1X-0.1S713
G1X-0.1S764
G1X-0.1S799
G1X-0.1S827
G1X-0.1S858
G1X-0.1S886
G1X-0.1S909
G1X-0.1S933
G1X-0.1S957
G1X-0.1S953
G1X-0.1S941
G1X-0.1S929
G1X-0.1S909
G1X-0.1S862
G1X-0.1S815
G1X-0.1S768
G1X-0.1S728
G1X-0.1S693
G1X-0.1S657
G1X-0.1S622
G1X-0.1S591
G1X-0.1S555
G1X-0.1S520
G1X-0.1S484
G1X-0.1S445
G1X-0.1S406
G1X-0.1S370
G1X-0.1S362
G1X-0.1S350
G1X-0.1S343
G1X-0.1S327
G1X-0.1S311
G1X-0.1S295
G1X-0.1S280
G1X-0.1S276
G1X-0.1S268
G1X-0.1S260
G1X-0.7S252
G1X-0.1S248
G1X-0.1S236
G1X-0.1S224
G1X-0.1S213
G1X-0.1S201
G1X-0.1S189
G1X-0.1S177
G1X-0.1S169
G1X-0.1S173
G1X-0.1S181
G1X-0.1S185
G1X-0.1S201
G1X-0.1S220
G1X-0.1S240
G1X-0.6S252
G1X-0.5S256
G1X-0.1S268
G1X-0.1S283
G1X-0.1S303
G1X-0.1S319
G1X-0.1S323
G1X-0.1S331
G1X-0.1S335
G1X-0.1S358
G1X-0.1S394
G1X-0.1S429
G1X-0.1S461
G1X-0.1S484
G1X-0.1S504
G1X-0.1S528
G1X-0.1S559
G1X-0.1S594
G1X-0.1S630
G1X-0.1S669
G1X-0.1S717
G1X-0.1S768
G1X-0.1S815
G1X-0.1S858
G1X-0.1S890
G1X-0.1S925
G1X-0.1S957
G1X-0.1S953
G1X-0.1S949
G1X-0.1S945
G1X-0.1S933
G1X-0.1S909
G1X-0.1S890
G1X-0.1S866
G1X-0.1S835
G1X-0.1S803
G1X-0.1S772
G1X-0.1S732
G1X-0.1S673
G1X-0.1S614
G1X-0.1S555
G1X-0.1S508
G1X-0.1S465
G1X-0.1S421
G1X-0.1S370
G1X-0.1S295
G1X-0.1S224
G1X-0.1S154
G1X-0.1S106
G1X-0.1S67
G1X-0.1S31
G1X-8.1S0
G1X-0.4S4
G1X-0.1S83
G1X-0.1S240
G1X-0.1S402
G1X-0.1S559
G1X-0.1S618
G1X-0.1S673
G1X-0.1S728
G1X-0.1S768
G1X-0.1S791
G1X-0.1S811
G1X-6.1S835
G1X-0.1S823
G1X-0.1S803
G1X-0.1S787
G1X-0.1S760
G1X-0.1S717
G1X-0.1S673
G1X-0.1S634
G1X-0.1S496
G1X-0.1S335
G1X-0.1S173
G1X-0.1S47
G1X-0.1S31
G1X-0.1S20
G1X-0.1S4
G1X-4.6S0
G1X-0.5S4
G1X-1.4S0
G1X-0.5S4
G1X-1.5S0
G1X-0.7S4
G1X-0.1S16
G1X-0.1S31
G1X-0.1S43
G1X-0.1S83
G1X-0.1S154
G1X-0.1S224
G1X-0.1S299
G1X-0.1S358
G1X-0.1S413
G1X-0.1S472
G1X-0.1S528
G1X-0.1S587
G1X-0.1S646
G1X-0.1S701
G1X-0.1S736
G1X-0.1S768
G1X-0.1S795
G1X-0.1S823
G1X-0.1S854
G1X-0.1S886
G1X-0.1S913
G1X-0.1S941
G1X-0.1S961
G1X-0.1S984
G1X-0.1S992
G1X-0.1S945
G1X-0.1S894
G1X-0.1S846
G1X-0.1S799
G1X-0.1S752
G1X-0.1S709
G1X-0.1S661
G1X-0.1S630
G1X-0.1S594
G1X-0.1S559
G1X-0.1S531
G1X-0.1S508
G1X-0.1S480
G1X-0.1S457
G1X-0.1S421
G1X-0.1S386
G1X-0.1S354
G1X-0.1S335
G1X-0.1S331
G1X-0.1S327
G1X-0.1S319
G1X-0.1S303
G1X-0.1S283
G1X-0.1S264
G1X-1.1S252
G1X-0.1S232
G1X-0.1S209
G1X-0.1S185
G1X-0.1S169
G1X-0.1S177
G1X-0.1S181
G1X-0.1S189
G1X-0.1S205
G1X-0.1S224
G1X-0.1S240
G1X-0.7S256
G1X-0.4S252
G1X-0.1S272
G1X-0.1S295
G1X-0.1S315
G1X-0.1S339
G1X-0.1S350
G1X-0.1S362
G1X-0.1S374
G1X-0.1S402
G1X-0.1S437
G1X-0.1S472
G1X-0.1S504
G1X-0.1S539
G1X-0.1S575
G1X-0.1S610
G1X-0.1S646
G1X-0.1S681
G1X-0.1S717
G1X-0.1S756
G1X-0.1S787
G1X-0.1S823
G1X-0.1S858
G1X-0.1S894
G1X-0.1S925
G1X-0.1S957
G1X-0.1S988
G1X-0.1S965
G1X-0.1S941
G1X-0.1S913
G1X-0.1S886
G1X-0.1S858
G1X-0.1S831
G1X-0.1S799
G1X-0.1S776
G1X-0.1S752
G1X-0.1S728
G1X-0.1S693
G1X-0.1S634
G1X-0.1S575
G1X-0.1S516
G1X-0.1S449
G1X-0.1S378
G1X-0.1S311
G1X-0.1S244
G1X-0.1S185
G1X-0.1S130
G1X-0.1S71
G1X-0.1S47
G1X-0.1S31
G1X-0.1S20
G1X-0.1S47
G1X-0.1S201
G1X-0.1S358
G1X-0.1S512
G1X-0.1S598
G1X-0.1S654
G1X-0.1S713
G1X-0.1S764
G1X-0.1S783
G1X-0.1S807
G1X-0.1S827
G1X-26.1S835
G1X-0.1S831
G1X-0.1S807
G1X-0.1S783
G1X-0.1S760
G1X-0.1S693
G1X-0.1S614
G1X-0.1S539
G1X-0.1S445
G1X-0.1S311
G1X-0.1S177
G1X-0.1S43
G1X-0.2S4
G1X-0.3S0
G1X-1.1S4
G1X-3.1S0
G1Y0.1S0
G1X3.7
G1X0.5S4
G1X0.3S0
G1X0.1S4
G1X0.1S8
G1X0.1S63
G1X0.1S252
G1X0.1S445
G1X0.1S634
G1X0.1S740
G1X0.1S823
G1X0.1S906
G1X0.1S969
G1X0.2S972
G1X25.7S976
G1X0.7S972
G1X0.2S969
G1X0.1S925
G1X0.1S878
G1X0.1S827
G1X0.1S728
G1X0.1S508
G1X0.1S283
G1X0.1S63
G1X0.1S24
G1X0.1S43
G1X0.1S67
G1X0.1S98
G1X0.1S181
G1X0.1S260
G1X0.1S343
G1X0.1S437
G1X0.1S539
G1X0.1S642
G1X0.1S736
G1X0.1S803
G1X0.1S870
G1X0.1S933
G1X0.1S961
G1X0.1S965
G1X0.1S969
G1X0.2S976
G1X0.1S980
G1X0.1S984
G1X0.1S988
G1X0.1S992
G1X0.1S996
G1X0.1S1000
G1X0.1S949
G1X0.1S898
G1X0.1S850
G1X0.1S799
G1X0.1S748
G1X0.1S701
G1X0.1S650
G1X0.1S594
G1X0.1S543
G1X0.1S492
G1X0.1S441
G1X0.1S390
G1X0.1S339
G1X0.1S291
G1X0.1S240
G1X0.1S193
G1X0.1S142
G1X0.1S106
G1X0.1S87
G1X0.1S71
G1X0.1S51
G1X0.1S47
G1X0.1S43
G1X0.5S39
G1X0.5S43
G1X0.2S39
G1X0.2S35
G1X0.1S31
G1X0.5S28
G1X0.1S31
G1X0.1S35
G1X0.7S39
G1X0.4S35
G1X0.1S39
G1X0.1S47
G1X0.1S51
G1X0.2S55
G1X0.2S51
G1X0.1S71
G1X0.1S122
G1X0.1S169
G1X0.1S220
G1X0.1S256
G1X0.1S291
G1X0.1S327
G1X0.1S370
G1X0.1S417
G1X0.1S469
G1X0.1S520
G1X0.1S583
G1X0.1S646
G1X0.1S713
G1X0.1S780
G1X0.1S846
G1X0.1S917
G1X0.1S988
G1X0.1S1000
G1X0.1S996
G1X0.1S992
G1X0.1S988
G1X0.1S984
G1X0.1S980
G1X0.1S976
G1X0.1S972
G1X0.1S969
G1X0.1S961
G1X0.1S945
G1X0.1S882
G1X0.1S815
G1X0.1S752
G1X0.1S677
G1X0.1S594
G1X0.1S512
G1X0.1S425
G1X0.1S323
G1X0.1S217
G1X0.1S114
G1X0.1S59
G1X0.1S39
G1X0.1S20
G1X0.7S4
G1X1.5S0
G1X0.5S4
G1X1.4S0
G1X0.5S4
G1X4.6S0
G1X0.1S4
G1X0.1S28
G1X0.1S47
G1X0.1S71
G1X0.1S240
G1X0.1S461
G1X0.1S681
G1X0.1S866
G1X0.1S898
G1X0.1S929
G1X0.1S961
G1X0.2S972
G1X6.3S976
G1X0.1S972
G1X0.1S969
G1X0.1S941
G1X0.1S894
G1X0.1S846
G1X0.1S791
G1X0.1S567
G1X0.1S343
G1X0.1S118
G1X0.4S4
G1X8.1S0
G1X0.1S43
G1X0.1S98
G1X0.1S154
G1X0.1S217
G1X0.1S319
G1X0.1S425
G1X0.1S528
G1X0.1S602
G1X0.1S665
G1X0.1S724
G1X0.1S787
G1X0.1S839
G1X0.1S890
G1X0.1S945
G1X0.1S965
G1X0.1S972
G1X0.1S976
G1X0.2S984
G1X0.2S988
G1X0.1S980
G1X0.1S969
G1X0.1S953
G1X0.1S937
G1X0.1S890
G1X0.1S843
G1X0.1S799
G1X0.1S740
G1X0.1S669
G1X0.1S598
G1X0.1S528
G1X0.1S476
G1X0.1S421
G1X0.1S370
G1X0.1S327
G1X0.1S295
G1X0.1S264
G1X0.1S228
G1X0.1S181
G1X0.1S130
G1X0.1S83
G1X0.5S47
G1X0.1S43
G1X0.8S39
G1X0.6S35
G1X0.1S31
G1X0.6S28
G1X0.1S31
G1X0.4S35
G1X0.8S39
G1X0.1S43
G1X0.1S47
G1X0.4S51
G1X0.1S55
G1X0.1S71
G1X0.1S87
G1X0.1S102
G1X0.1S154
G1X0.1S209
G1X0.1S260
G1X0.1S315
G1X0.1S362
G1X0.1S413
G1X0.1S465
G1X0.1S512
G1X0.1S563
G1X0.1S610
G1X0.1S665
G1X0.1S732
G1X0.1S799
G1X0.1S866
G1X0.1S906
G1X0.1S941
G1X0.1S972
G1X0.1S996
G1X0.1S992
G1X0.1S988
G1X0.1S984
G1X0.1S980
G1X0.1S976
G1X0.1S969
G1X0.1S961
G1X0.1S925
G1X0.1S890
G1X0.1S854
G1X0.1S799
G1X0.1S732
G1X0.1S665
G1X0.1S591
G1X0.1S476
G1X0.1S362
G1X0.1S244
G1X0.1S165
G1X0.1S110
G1X0.1S55
G1X9.7S0
G1Y0.1S0
G1X-9
G1X-0.1S16
G1X-0.1S35
G1X-0.1S55
G1X-0.1S79
G1X-0.1S106
G1X-0.1S138
G1X-0.1S165
G1X-0.1S224
G1X-0.1S287
G1X-0.1S354
G1X-0.1S429
G1X-0.1S524
G1X-0.1S618
G1X-0.1S713
G1X-0.1S772
G1X-0.1S827
G1X-0.1S878
G1X-0.1S917
G1X-0.1S929
G1X-0.1S941
G1X-0.1S953
G1X-0.1S937
G1X-0.1S909
G1X-0.1S886
G1X-0.1S862
G1X-0.1S843
G1X-0.1S823
G1X-0.1S803
G1X-0.1S772
G1X-0.1S732
G1X-0.1S697
G1X-0.1S657
G1X-0.1S602
G1X-0.1S551
G1X-0.1S496
G1X-0.1S453
G1X-0.1S409
G1X-0.1S370
G1X-0.1S331
G1X-0.1S291
G1X-0.1S252
G1X-0.1S213
G1X-0.1S169
G1X-0.1S126
G1X-0.1S83
G1X-0.1S39
G1X-0.1S28
G1X-0.1S16
G1X-0.1S4
G1X-0.1S0
G1X-0.1S4
G1X-0.3S8
G1X-0.1S4
G1X-0.3S0
G1X-0.3S4
G1X-3.4S0
G1X-0.1S28
G1X-0.1S67
G1X-0.1S106
G1X-0.1S142
G1X-0.1S169
G1X-0.1S193
G1X-0.1S220
G1X-0.1S256
G1X-0.1S299
G1X-0.1S343
G1X-0.1S386
G1X-0.1S441
G1X-0.1S496
G1X-0.1S551
G1X-0.1S602
G1X-0.1S638
G1X-0.1S677
G1X-0.1S717
G1X-0.1S744
G1X-0.1S772
G1X-0.1S799
G1X-0.1S823
G1X-0.1S843
G1X-0.1S862
G1X-0.1S882
G1X-0.1S902
G1X-0.1S925
G1X-0.1S945
G1X-0.1S949
G1X-0.1S921
G1X-0.1S894
G1X-0.1S870
G1X-0.1S823
G1X-0.1S772
G1X-0.1S720
G1X-0.1S661
G1X-0.1S579
G1X-0.1S492
G1X-0.1S409
G1X-0.1S343
G1X-0.1S280
G1X-0.1S217
G1X-0.1S161
G1X-0.1S130
G1X-0.1S98
G1X-0.1S71
G1X-0.1S47
G1X-0.1S31
G1X-0.1S16
G1X-7.4S0
G1X-0.1S4
G1X-0.1S39
G1X-0.1S75
G1X-0.1S114
G1X-0.1S236
G1X-0.1S449
G1X-0.1S661
G1X-0.1S870
G1X-0.1S898
G1X-0.1S913
G1X-0.1S933
G1X-0.1S937
G1X-0.1S917
G1X-0.1S902
G1X-0.1S886
G1X-6S882
G1X-0.1S894
G1X-0.1S909
G1X-0.1S921
G1X-0.2S929
G1X-0.2S925
G1X-0.1S764
G1X-0.1S563
G1X-0.1S362
G1X-0.1S197
G1X-0.1S138
G1X-0.1S75
G1X-0.1S16
G1X-4.6S0
G1X-0.7S4
G1X-1S0
G1X-0.7S4
G1X-1.5S0
G1X-0.1S12
G1X-0.1S24
G1X-0.1S31
G1X-0.1S51
G1X-0.1S83
G1X-0.1S118
G1X-0.1S150
G1X-0.1S181
G1X-0.1S217
G1X-0.1S252
G1X-0.1S307
G1X-0.1S398
G1X-0.1S488
G1X-0.1S575
G1X-0.1S646
G1X-0.1S713
G1X-0.1S780
G1X-0.1S839
G1X-0.1S886
G1X-0.1S929
G1X-0.1S976
G1X-0.1S969
G1X-0.1S949
G1X-0.1S929
G1X-0.1S906
G1X-0.1S886
G1X-0.1S866
G1X-0.1S846
G1X-0.1S827
G1X-0.1S807
G1X-0.1S787
G1X-0.1S760
G1X-0.1S701
G1X-0.1S646
G1X-0.1S587
G1X-0.1S535
G1X-0.1S480
G1X-0.1S429
G1X-0.1S378
G1X-0.1S339
G1X-0.1S299
G1X-0.1S260
G1X-0.1S224
G1X-0.1S197
G1X-0.1S165
G1X-0.1S138
G1X-0.1S98
G1X-0.1S59
G1X-0.1S20
G1X-0.7S4
G1X-2.3S0
G1X-0.7S4
G1X-0.5S0
G1X-0.1S4
G1X-0.1S16
G1X-0.1S31
G1X-0.1S43
G1X-0.1S75
G1X-0.1S114
G1X-0.1S154
G1X-0.1S193
G1X-0.1S236
G1X-0.1S276
G1X-0.1S315
G1X-0.1S354
G1X-0.1S398
G1X-0.1S441
G1X-0.1S484
G1X-0.1S524
G1X-0.1S563
G1X-0.1S602
G1X-0.1S646
G1X-0.1S689
G1X-0.1S736
G1X-0.1S780
G1X-0.1S799
G1X-0.1S819
G1X-0.1S843
G1X-0.1S858
G1X-0.1S878
G1X-0.1S894
G1X-0.1S913
G1X-0.1S933
G1X-0.1S953
G1X-0.1S972
G1X-0.1S969
G1X-0.1S921
G1X-0.1S874
G1X-0.1S827
G1X-0.1S752
G1X-0.1S669
G1X-0.1S587
G1X-0.1S508
G1X-0.1S437
G1X-0.1S366
G1X-0.1S291
G1X-0.1S252
G1X-0.1S217
G1X-0.1S185
G1X-0.1S209
G1X-0.1S409
G1X-0.1S614
G1X-0.1S819
G1X-0.1S890
G1X-0.1S909
G1X-0.1S929
G1X-0.1S945
G1X-0.1S925
G1X-0.1S906
G1X-0.1S886
G1X-0.3S878
G1X-25.8S882
G1X-0.1S890
G1X-0.1S917
G1X-0.1S945
G1X-0.1S969
G1X-0.1S933
G1X-0.1S878
G1X-0.1S827
G1X-0.1S732
G1X-0.1S524
G1X-0.1S311
G1X-0.1S98
G1X-0.1S31
G1X-0.1S20
G1X-0.1S12
G1X-4.4S0
G1Y0.1S0
G1X4
G1X0.4S4
G1X0.1S20
G1X0.1S39
G1X0.1S55
G1X0.1S134
G1X0.1S358
G1X0.1S583
G1X0.1S807
G1X0.1S882
G1X0.1S902
G1X0.1S921
G1X0.1S925
G1X0.1S870
G1X0.1S815
G1X0.1S760
G1X25.9S740
G1X0.2S736
G1X0.1S748
G1X0.1S787
G1X0.1S831
G1X0.1S870
G1X0.1S886
G1X0.1S902
G1X0.1S913
G1X0.1S874
G1X0.1S709
G1X0.1S543
G1X0.1S378
G1X0.1S374
G1X0.1S425
G1X0.1S476
G1X0.1S528
G1X0.1S583
G1X0.1S634
G1X0.1S689
G1X0.1S740
G1X0.1S795
G1X0.1S846
G1X0.1S890
G1X0.1S913
G1X0.1S937
G1X0.1S957
G1X0.1S937
G1X0.1S894
G1X0.1S846
G1X0.1S803
G1X0.1S764
G1X0.1S728
G1X0.1S689
G1X0.1S650
G1X0.1S602
G1X0.1S559
G1X0.1S512
G1X0.1S476
G1X0.1S445
G1X0.1S409
G1X0.1S378
G1X0.1S354
G1X0.1S327
G1X0.1S303
G1X0.1S276
G1X0.1S252
G1X0.1S224
G1X0.1S201
G1X0.1S173
G1X0.1S150
G1X0.1S122
G1X0.1S98
G1X0.1S71
G1X0.1S47
G1X0.1S28
G1X0.1S20
G1X0.1S12
G1X0.1S8
G1X0.1S4
G1X0.4S0
G1X0.5S4
G1X1.3S0
G1X0.5S4
G1X0.3S0
G1X0.7S4
G1X0.1S0
G1X0.3S4
G1X0.1S16
G1X0.1S39
G1X0.1S63
G1X0.1S87
G1X0.1S106
G1X0.1S122
G1X0.1S142
G1X0.1S161
G1X0.1S189
G1X0.1S213
G1X0.1S240
G1X0.1S272
G1X0.1S303
G1X0.1S335
G1X0.1S370
G1X0.1S406
G1X0.1S441
G1X0.1S476
G1X0.1S520
G1X0.1S563
G1X0.1S610
G1X0.1S657
G1X0.1S705
G1X0.1S752
G1X0.1S799
G1X0.1S843
G1X0.1S886
G1X0.1S933
G1X0.1S961
G1X0.1S941
G1X0.1S921
G1X0.1S898
G1X0.1S862
G1X0.1S819
G1X0.1S780
G1X0.1S732
G1X0.1S669
G1X0.1S602
G1X0.1S539
G1X0.1S484
G1X0.1S433
G1X0.1S382
G1X0.1S331
G1X0.1S256
G1X0.1S185
G1X0.1S110
G1X0.1S67
G1X0.1S43
G1X0.1S24
G1X0.8S0
G1X0.7S4
G1X0.3S0
G1X0.7S4
G1X5.3S0
G1X0.5S4
G1X0.2S0
G1X0.1S28
G1X0.1S134
G1X0.1S236
G1X0.1S343
G1X0.1S492
G1X0.1S657
G1X0.1S819
G1X0.1S945
G1X0.1S913
G1X0.1S882
G1X0.1S850
G1X0.1S823
G1X0.1S795
G1X0.1S768
G1X6S740
G1X0.1S744
G1X0.1S783
G1X0.1S819
G1X0.1S858
G1X0.1S882
G1X0.1S898
G1X0.1S913
G1X0.1S921
G1X0.1S736
G1X0.1S555
G1X0.1S374
G1X0.1S240
G1X0.1S161
G1X0.1S83
G1X0.6S4
G1X6.9S0
G1X0.1S31
G1X0.1S71
G1X0.1S110
G1X0.1S154
G1X0.1S220
G1X0.1S287
G1X0.1S350
G1X0.1S421
G1X0.1S492
G1X0.1S563
G1X0.1S630
G1X0.1S681
G1X0.1S732
G1X0.1S783
G1X0.1S823
G1X0.1S854
G1X0.1S890
G1X0.2S913
G1X0.2S909
G1X0.1S878
G1X0.1S831
G1X0.1S783
G1X0.1S732
G1X0.1S689
G1X0.1S646
G1X0.1S602
G1X0.1S563
G1X0.1S524
G1X0.1S488
G1X0.1S449
G1X0.1S425
G1X0.1S402
G1X0.1S378
G1X0.1S346
G1X0.1S311
G1X0.1S280
G1X0.1S244
G1X0.1S217
G1X0.1S189
G1X0.1S161
G1X0.1S138
G1X0.1S122
G1X0.1S106
G1X0.1S91
G1X0.1S67
G1X0.1S43
G1X0.1S20
G1X0.2S4
G1X0.3S0
G1X1.1S4
G1X0.4S0
G1X0.3S4
G1X1.1S0
G1X0.3S4
G1X0.4S0
G1X0.3S4
G1X0.2S0
G1X0.1S4
G1X0.1S12
G1X0.1S20
G1X0.1S28
G1X0.1S55
G1X0.1S83
G1X0.1S106
G1X0.1S134
G1X0.1S157
G1X0.1S181
G1X0.1S209
G1X0.1S232
G1X0.1S260
G1X0.1S283
G1X0.1S311
G1X0.1S346
G1X0.1S378
G1X0.1S413
G1X0.1S449
G1X0.1S480
G1X0.1S516
G1X0.1S555
G1X0.1S602
G1X0.1S650
G1X0.1S697
G1X0.1S752
G1X0.1S807
G1X0.1S858
G1X0.1S906
G1X0.1S921
G1X0.1S933
G1X0.1S945
G1X0.1S929
G1X0.1S894
G1X0.1S858
G1X0.1S819
G1X0.1S760
G1X0.1S701
G1X0.1S638
G1X0.1S575
G1X0.1S504
G1X0.1S437
G1X0.1S366
G1X0.1S303
G1X0.1S236
G1X0.1S169
G1X0.1S118
G1X0.1S79
G1X0.1S35
G1X2.3S0
G1X0.6S4
G1X6.1S0
G1Y0.1S0
G1X-6.1
G1X-0.2S4
G1X-0.3S8
G1X-0.1S4
G1X-2.3S0
G1X-0.1S59
G1X-0.1S118
G1X-0.1S181
G1X-0.1S260
G1X-0.1S358
G1X-0.1S461
G1X-0.1S559
G1X-0.1S642
G1X-0.1S717
G1X-0.1S795
G1X-0.1S850
G1X-0.1S878
G1X-0.1S902
G1X-0.1S929
G1X-0.1S945
G1X-0.1S957
G1X-0.1S972
G1X-0.1S969
G1X-0.1S933
G1X-0.1S898
G1X-0.1S858
G1X-0.1S783
G1X-0.1S701
G1X-0.1S614
G1X-0.1S535
G1X-0.1S461
G1X-0.1S386
G1X-0.1S315
G1X-0.1S268
G1X-0.1S236
G1X-0.1S201
G1X-0.1S173
G1X-0.1S157
G1X-0.1S146
G1X-0.1S134
G1X-0.1S122
G1X-0.1S110
G1X-0.1S98
G1X-0.1S87
G1X-0.1S75
G1X-0.1S63
G1X-0.1S55
G1X-0.1S43
G1X-0.1S31
G1X-0.1S24
G1X-0.1S12
G1X-0.1S8
G1X-0.1S4
G1X-1S0
G1X-0.3S4
G1X-1S0
G1X-0.2S4
G1X-0.2S8
G1X-0.1S4
G1X-0.3S0
G1X-1.1S4
G1X-0.3S0
G1X-0.1S4
G1X-0.1S8
G1X-0.1S16
G1X-0.1S24
G1X-0.1S31
G1X-0.1S39
G1X-0.1S43
G1X-0.1S51
G1X-0.1S59
G1X-0.1S67
G1X-0.1S79
G1X-0.1S91
G1X-0.1S106
G1X-0.1S118
G1X-0.1S130
G1X-0.1S146
G1X-0.1S157
G1X-0.1S165
G1X-0.1S177
G1X-0.1S185
G1X-0.1S232
G1X-0.1S283
G1X-0.1S331
G1X-0.1S386
G1X-0.1S453
G1X-0.1S524
G1X-0.1S591
G1X-0.1S665
G1X-0.1S736
G1X-0.1S811
G1X-0.1S866
G1X-0.1S898
G1X-0.1S929
G1X-0.1S961
G1X-0.1S953
G1X-0.1S941
G1X-0.1S925
G1X-0.1S909
G1X-0.1S890
G1X-0.1S870
G1X-0.1S850
G1X-0.1S783
G1X-0.1S705
G1X-0.1S626
G1X-0.1S543
G1X-0.1S441
G1X-0.1S339
G1X-0.1S236
G1X-0.1S165
G1X-0.1S106
G1X-0.1S47
G1X-6.9S0
G1X-0.6S4
G1X-0.1S126
G1X-0.1S248
G1X-0.1S366
G1X-0.1S504
G1X-0.1S657
G1X-0.1S811
G1X-0.1S965
G1X-0.1S921
G1X-0.1S874
G1X-0.1S827
G1X-0.1S772
G1X-0.1S717
G1X-0.1S661
G1X-0.1S606
G1X-6S598
G1X-0.1S638
G1X-0.1S681
G1X-0.1S724
G1X-0.1S776
G1X-0.1S839
G1X-0.1S906
G1X-0.1S969
G1X-0.1S878
G1X-0.1S752
G1X-0.1S622
G1X-0.1S488
G1X-0.1S339
G1X-0.1S189
G1X-0.1S39
G1X-0.2S0
G1X-0.5S4
G1X-5.3S0
G1X-0.7S4
G1X-0.3S0
G1X-0.2S4
G1X-0.4S8
G1X-0.1S4
G1X-0.8S0
G1X-0.1S31
G1X-0.1S63
G1X-0.1S94
G1X-0.1S161
G1X-0.1S280
G1X-0.1S394
G1X-0.1S508
G1X-0.1S575
G1X-0.1S642
G1X-0.1S705
G1X-0.1S764
G1X-0.1S803
G1X-0.1S846
G1X-0.1S886
G1X-0.1S909
G1X-0.1S925
G1X-0.1S945
G1X-0.1S957
G1X-0.2S953
G1X-0.1S949
G1X-0.1S894
G1X-0.1S823
G1X-0.1S756
G1X-0.1S685
G1X-0.1S614
G1X-0.1S543
G1X-0.1S469
G1X-0.1S398
G1X-0.1S327
G1X-0.1S256
G1X-0.1S197
G1X-0.1S181
G1X-0.1S169
G1X-0.1S157
G1X-0.1S142
G1X-0.1S126
G1X-0.1S114
G1X-0.1S98
G1X-0.1S87
G1X-0.1S75
G1X-0.1S67
G1X-0.1S55
G1X-0.1S51
G1X-0.1S43
G1X-0.1S35
G1X-0.1S28
G1X-0.1S20
G1X-0.1S12
G1X-0.3S4
G1X-0.1S0
G1X-0.7S4
G1X-0.3S0
G1X-0.2S4
G1X-0.3S8
G1X-0.1S4
G1X-1.2S0
G1X-0.5S4
G1X-0.4S0
G1X-0.1S4
G1X-0.2S8
G1X-0.2S12
G1X-0.1S20
G1X-0.1S31
G1X-0.1S39
G1X-0.1S51
G1X-0.1S63
G1X-0.1S71
G1X-0.1S83
G1X-0.1S94
G1X-0.1S102
G1X-0.1S114
G1X-0.1S126
G1X-0.1S134
G1X-0.1S146
G1X-0.1S157
G1X-0.1S173
G1X-0.1S197
G1X-0.1S220
G1X-0.1S244
G1X-0.1S315
G1X-0.1S386
G1X-0.1S457
G1X-0.1S524
G1X-0.1S579
G1X-0.1S638
G1X-0.1S693
G1X-0.1S760
G1X-0.1S831
G1X-0.1S902
G1X-0.2S949
G1X-0.2S953
G1X-0.1S937
G1X-0.1S917
G1X-0.1S894
G1X-0.1S866
G1X-0.1S831
G1X-0.1S791
G1X-0.1S752
G1X-0.1S693
G1X-0.1S626
G1X-0.1S563
G1X-0.1S547
G1X-0.1S673
G1X-0.1S803
G1X-0.1S933
G1X-0.1S937
G1X-0.1S890
G1X-0.1S843
G1X-0.1S795
G1X-0.1S736
G1X-0.1S673
G1X-0.1S614
G1X-0.2S594
G1X-25.9S598
G1X-0.1S626
G1X-0.1S713
G1X-0.1S799
G1X-0.1S886
G1X-0.1S913
G1X-0.1S925
G1X-0.1S937
G1X-0.1S886
G1X-0.1S650
G1X-0.1S409
G1X-0.1S169
G1X-0.1S83
G1X-0.1S55
G1X-0.1S28
G1X-0.4S4
G1X-4S0
G1Y0.1S0
G1X4.2
G1X0.2S4
G1X0.1S35
G1X0.1S75
G1X0.1S110
G1X0.1S209
G1X0.1S449
G1X0.1S697
G1X0.1S941
G1X0.1S972
G1X0.1S937
G1X0.1S898
G1X0.1S843
G1X0.1S724
G1X0.1S610
G1X0.1S492
G1X25.4S457
G1X0.5S461
G1X0.1S457
G1X0.1S453
G1X0.1S480
G1X0.1S559
G1X0.1S642
G1X0.1S720
G1X0.1S795
G1X0.1S874
G1X0.1S949
G1X0.1S976
G1X0.1S882
G1X0.1S783
G1X0.1S689
G1X0.1S720
G1X0.1S791
G1X0.1S862
G1X0.1S917
G1X0.1S937
G1X0.1S957
G1X0.2S972
G1X0.1S965
G1X0.1S957
G1X0.1S945
G1X0.1S917
G1X0.1S890
G1X0.1S862
G1X0.1S803
G1X0.1S720
G1X0.1S642
G1X0.1S563
G1X0.1S496
G1X0.1S433
G1X0.1S370
G1X0.1S295
G1X0.1S213
G1X0.1S130
G1X0.1S51
G1X0.1S39
G1X0.1S24
G1X0.1S8
G1X1.4S0
G1X1.2S4
G1X1.4S0
G1X0.1S4
G1X0.3S8
G1X0.1S4
G1X0.4S0
G1X0.7S4
G1X0.1S0
G1X0.7S4
G1X1.4S0
G1X0.1S63
G1X0.1S146
G1X0.1S228
G1X0.1S307
G1X0.1S390
G1X0.1S472
G1X0.1S555
G1X0.1S634
G1X0.1S713
G1X0.1S791
G1X0.1S858
G1X0.1S882
G1X0.1S909
G1X0.1S933
G1X0.1S949
G1X0.1S957
G1X0.1S965
G1X0.1S969
G1X0.1S953
G1X0.1S941
G1X0.1S925
G1X0.1S878
G1X0.1S807
G1X0.1S736
G1X0.1S665
G1X0.1S531
G1X0.1S402
G1X0.1S268
G1X0.1S189
G1X0.1S146
G1X0.1S102
G1X0.1S59
G1X0.1S43
G1X0.1S28
G1X0.1S16
G1X0.2S4
G1X0.3S0
G1X0.1S4
G1X0.3S8
G1X0.2S4
G1X0.3S0
G1X0.7S4
G1X4.8S0
G1X0.9S4
G1X0.3S8
G1X0.1S59
G1X0.1S244
G1X0.1S429
G1X0.1S614
G1X0.1S732
G1X0.1S831
G1X0.1S925
G1X0.1S980
G1X0.1S882
G1X0.1S780
G1X0.1S677
G1X0.1S610
G1X0.1S555
G1X0.1S504
G1X6S457
G1X0.1S465
G1X0.1S535
G1X0.1S606
G1X0.1S677
G1X0.1S756
G1X0.1S839
G1X0.1S921
G1X0.1S996
G1X0.1S870
G1X0.1S744
G1X0.1S618
G1X0.1S472
G1X0.1S315
G1X0.1S157
G1X0.1S4
G1X0.1S0
G1X0.4S4
G1X6.2S0
G1X0.1S4
G1X0.1S12
G1X0.1S20
G1X0.1S28
G1X0.1S39
G1X0.1S51
G1X0.1S63
G1X0.1S122
G1X0.1S197
G1X0.1S268
G1X0.1S354
G1X0.1S472
G1X0.1S587
G1X0.1S705
G1X0.1S791
G1X0.1S866
G1X0.1S941
G1X0.1S996
G1X0.1S984
G1X0.1S972
G1X0.1S961
G1X0.1S953
G1X0.1S949
G1X0.1S941
G1X0.1S925
G1X0.1S874
G1X0.1S823
G1X0.1S768
G1X0.1S697
G1X0.1S614
G1X0.1S531
G1X0.1S449
G1X0.1S370
G1X0.1S291
G1X0.1S213
G1X0.1S150
G1X0.1S98
G1X0.1S47
G1X1.6S0
G1X0.1S4
G1X0.3S8
G1X0.7S4
G1X0.3S0
G1X0.4S4
G1X0.3S0
G1X0.1S4
G1X0.3S8
G1X0.2S4
G1X0.7S0
G1X0.7S4
G1X2.5S0
G1X0.1S24
G1X0.1S55
G1X0.1S83
G1X0.1S126
G1X0.1S213
G1X0.1S295
G1X0.1S382
G1X0.1S476
G1X0.1S571
G1X0.1S669
G1X0.1S756
G1X0.1S807
G1X0.1S858
G1X0.1S909
G1X0.1S933
G1X0.1S945
G1X0.1S957
G1X0.1S969
G1X0.1S972
G1X0.1S980
G1X0.1S988
G1X0.1S945
G1X0.1S874
G1X0.1S803
G1X0.1S728
G1X0.1S614
G1X0.1S500
G1X0.1S386
G1X0.1S291
G1X0.1S213
G1X0.1S138
G1X0.1S59
G1X0.1S47
G1X0.1S35
G1X0.1S20
G1X0.1S12
G1X0.1S8
G1X0.1S4
G1X1.6S0
G1X0.1S4
G1X0.2S8
G1X0.2S4
G1X6.2S0
G1Y0.1S0
G1X-6.3
G1X-0.4S4
G1X-0.3S0
G1X-0.5S4
G1X-0.8S0
G1X-0.1S16
G1X-0.1S31
G1X-0.1S47
G1X-0.1S83
G1X-0.1S146
G1X-0.1S205
G1X-0.1S264
G1X-0.1S343
G1X-0.1S421
G1X-0.1S500
G1X-0.1S579
G1X-0.1S657
G1X-0.1S736
G1X-0.1S815
G1X-0.1S862
G1X-0.1S906
G1X-0.1S949
G1X-0.1S961
G1X-0.1S921
G1X-0.1S886
G1X-0.1S846
G1X-0.1S803
G1X-0.1S756
G1X-0.1S709
G1X-0.1S665
G1X-0.1S618
G1X-0.1S571
G1X-0.1S524
G1X-0.1S461
G1X-0.1S394
G1X-0.1S327
G1X-0.1S264
G1X-0.1S205
G1X-0.1S146
G1X-0.1S91
G1X-0.1S59
G1X-0.1S39
G1X-0.1S20
G1X-2.5S0
G1X-0.7S4
G1X-0.7S0
G1X-0.5S4
G1X-0.4S0
G1X-0.4S4
G1X-0.3S0
G1X-1.1S4
G1X-1.6S0
G1X-0.1S31
G1X-0.1S67
G1X-0.1S102
G1X-0.1S146
G1X-0.1S201
G1X-0.1S256
G1X-0.1S307
G1X-0.1S366
G1X-0.1S421
G1X-0.1S480
G1X-0.1S531
G1X-0.1S587
G1X-0.1S638
G1X-0.1S689
G1X-0.1S732
G1X-0.1S772
G1X-0.1S811
G1X-0.1S850
G1X-0.1S890
G1X-0.1S929
G1X-0.1S969
G1X-0.1S941
G1X-0.1S898
G1X-0.1S850
G1X-0.1S795
G1X-0.1S717
G1X-0.1S638
G1X-0.1S555
G1X-0.1S480
G1X-0.1S402
G1X-0.1S327
G1X-0.1S256
G1X-0.1S209
G1X-0.1S161
G1X-0.1S118
G1X-0.1S83
G1X-0.1S51
G1X-0.1S24
G1X-1.8S0
G1X-0.5S4
G1X-3.9S0
G1X-0.4S4
G1X-0.1S0
G1X-0.1S4
G1X-0.1S177
G1X-0.1S354
G1X-0.1S531
G1X-0.1S673
G1X-0.1S780
G1X-0.1S890
G1X-0.1S996
G1X-0.1S882
G1X-0.1S760
G1X-0.1S634
G1X-0.1S535
G1X-0.1S461
G1X-0.1S390
G1X-0.1S319
G1X-6S311
G1X-0.1S354
G1X-0.1S402
G1X-0.1S449
G1X-0.1S531
G1X-0.1S677
G1X-0.1S827
G1X-0.1S972
G1X-0.1S941
G1X-0.1S866
G1X-0.1S791
G1X-0.1S685
G1X-0.1S484
G1X-0.1S287
G1X-0.1S87
G1X-0.1S28
G1X-0.1S20
G1X-0.1S12
G1X-0.9S4
G1X-4.8S0
G1X-0.7S4
G1X-0.3S0
G1X-0.6S4
G1X-0.2S0
G1X-0.1S8
G1X-0.1S16
G1X-0.1S24
G1X-0.1S59
G1X-0.1S118
G1X-0.1S181
G1X-0.1S240
G1X-0.1S299
G1X-0.1S358
G1X-0.1S413
G1X-0.1S488
G1X-0.1S583
G1X-0.1S677
G1X-0.1S772
G1X-0.1S819
G1X-0.1S866
G1X-0.1S913
G1X-0.1S937
G1X-0.1S921
G1X-0.1S902
G1X-0.1S886
G1X-0.1S850
G1X-0.1S811
G1X-0.1S772
G1X-0.1S732
G1X-0.1S689
G1X-0.1S642
G1X-0.1S598
G1X-0.1S547
G1X-0.1S492
G1X-0.1S437
G1X-0.1S382
G1X-0.1S323
G1X-0.1S268
G1X-0.1S209
G1X-0.1S154
G1X-0.1S98
G1X-0.1S43
G1X-1.4S0
G1X-0.7S4
G1X-0.1S0
G1X-0.7S4
G1X-0.5S0
G1X-0.3S4
G1X-1.5S0
G1X-1.2S4
G1X-1.4S0
G1X-0.1S8
G1X-0.1S16
G1X-0.1S28
G1X-0.1S35
G1X-0.1S91
G1X-0.1S150
G1X-0.1S205
G1X-0.1S256
G1X-0.1S299
G1X-0.1S343
G1X-0.1S386
G1X-0.1S441
G1X-0.1S496
G1X-0.1S555
G1X-0.1S606
G1X-0.1S657
G1X-0.1S709
G1X-0.1S760
G1X-0.1S799
G1X-0.1S831
G1X-0.1S866
G1X-0.1S894
G1X-0.1S906
G1X-0.1S921
G1X-0.1S937
G1X-0.1S902
G1X-0.1S854
G1X-0.1S811
G1X-0.1S791
G1X-0.1S854
G1X-0.1S917
G1X-0.1S984
G1X-0.1S933
G1X-0.1S835
G1X-0.1S736
G1X-0.1S638
G1X-0.1S539
G1X-0.1S441
G1X-0.1S343
G1X-0.2S311
G1X-0.5S315
G1X-25.4S311
G1X-0.1S358
G1X-0.1S504
G1X-0.1S650
G1X-0.1S795
G1X-0.1S866
G1X-0.1S917
G1X-0.1S965
G1X-0.1S945
G1X-0.1S709
G1X-0.1S472
G1X-0.1S240
G1X-0.1S138
G1X-0.1S91
G1X-0.1S43
G1X-0.2S4
G1X-4.2S0
G1Y0.1S0
G1X4.4
G1X0.1S51
G1X0.1S110
G1X0.1S169
G1X0.1S276
G1X0.1S500
G1X0.1S724
G1X0.1S945
G1X0.1S957
G1X0.1S898
G1X0.1S835
G1X0.1S752
G1X0.1S575
G1X0.1S402
G1X0.1S224
G1X25.4S169
G1X0.7S173
G1X0.1S213
G1X0.1S327
G1X0.1S445
G1X0.1S559
G1X0.1S677
G1X0.1S799
G1X0.1S917
G1X0.1S992
G1X0.1S957
G1X0.1S921
G1X0.1S890
G1X0.1S898
G1X0.1S921
G1X0.1S949
G1X0.1S957
G1X0.1S909
G1X0.1S858
G1X0.1S811
G1X0.1S756
G1X0.1S697
G1X0.1S638
G1X0.1S575
G1X0.1S500
G1X0.1S425
G1X0.1S350
G1X0.1S303
G1X0.1S272
G1X0.1S240
G1X0.1S213
G1X0.1S189
G1X0.1S165
G1X0.1S142
G1X0.1S114
G1X0.1S83
G1X0.1S51
G1X0.1S20
G1X0.1S16
G1X0.1S12
G1X0.1S4
G1X1.1S0
G1X1.4S4
G1X1.6S0
G1X0.3S4
G1X3.4S0
G1X0.1S24
G1X0.1S55
G1X0.1S87
G1X0.1S118
G1X0.1S146
G1X0.1S177
G1X0.1S209
G1X0.1S236
G1X0.1S268
G1X0.1S299
G1X0.1S339
G1X0.1S402
G1X0.1S465
G1X0.1S528
G1X0.1S598
G1X0.1S669
G1X0.1S740
G1X0.1S807
G1X0.1S854
G1X0.1S902
G1X0.1S949
G1X0.1S953
G1X0.1S925
G1X0.1S902
G1X0.1S874
G1X0.1S819
G1X0.1S764
G1X0.1S709
G1X0.1S642
G1X0.1S567
G1X0.1S496
G1X0.1S421
G1X0.1S315
G1X0.1S213
G1X0.1S106
G1X0.1S47
G1X0.1S31
G1X0.1S16
G1X0.2S0
G1X0.6S4
G1X5.8S0
G1X0.5S4
G1X0.4S0
G1X0.1S16
G1X0.1S31
G1X0.1S47
G1X0.1S118
G1X0.1S331
G1X0.1S539
G1X0.1S752
G1X0.1S850
G1X0.1S906
G1X0.1S957
G1X0.1S961
G1X0.1S768
G1X0.1S575
G1X0.1S382
G1X0.1S287
G1X0.1S248
G1X0.1S205
G1X5.3S169
G1X0.7S173
G1X0.1S177
G1X0.1S248
G1X0.1S319
G1X0.1S394
G1X0.1S516
G1X0.1S681
G1X0.1S843
G1X0.1S1000
G1X0.1S909
G1X0.1S819
G1X0.1S732
G1X0.1S587
G1X0.1S394
G1X0.1S197
G1X0.1S4
G1X0.1S0
G1X0.4S4
G1X3.2S0
G1X0.3S4
G1X0.4S0
G1X0.5S4
G1X1.1S0
G1X0.5S4
G1X0.2S0
G1X0.1S43
G1X0.1S91
G1X0.1S142
G1X0.1S205
G1X0.1S287
G1X0.1S370
G1X0.1S449
G1X0.1S531
G1X0.1S610
G1X0.1S689
G1X0.1S760
G1X0.1S803
G1X0.1S846
G1X0.1S894
G1X0.1S913
G1X0.1S929
G1X0.2S945
G1X0.1S874
G1X0.1S807
G1X0.1S736
G1X0.1S665
G1X0.1S594
G1X0.1S528
G1X0.1S457
G1X0.1S406
G1X0.1S354
G1X0.1S299
G1X0.1S264
G1X0.1S232
G1X0.1S201
G1X0.1S169
G1X0.1S138
G1X0.1S110
G1X0.1S83
G1X0.1S59
G1X0.1S39
G1X0.1S16
G1X1.6S0
G1X0.6S4
G1X1.6S0
G1X0.5S4
G1X0.3S0
G1X0.7S4
G1X2.9S0
G1X0.1S12
G1X0.1S24
G1X0.1S35
G1X0.1S55
G1X0.1S83
G1X0.1S114
G1X0.1S142
G1X0.1S177
G1X0.1S217
G1X0.1S252
G1X0.1S291
G1X0.1S331
G1X0.1S374
G1X0.1S413
G1X0.1S480
G1X0.1S563
G1X0.1S646
G1X0.1S724
G1X0.1S795
G1X0.1S862
G1X0.1S933
G1X0.1S949
G1X0.1S933
G1X0.1S913
G1X0.1S898
G1X0.1S854
G1X0.1S811
G1X0.1S768
G1X0.1S705
G1X0.1S626
G1X0.1S547
G1X0.1S469
G1X0.1S362
G1X0.1S256
G1X0.1S146
G1X0.1S79
G1X0.1S51
G1X0.1S28
G1X0.8S0
G1X0.5S4
G1X0.3S0
G1X0.4S4
G1X6.3S0
G1Y0.1S0
G1X-7
G1X-0.1S4
G1X-0.3S8
G1X-0.1S4
G1X-0.8S0
G1X-0.1S39
G1X-0.1S75
G1X-0.1S114
G1X-0.1S209
G1X-0.1S366
G1X-0.1S520
G1X-0.1S673
G1X-0.1S756
G1X-0.1S839
G1X-0.1S917
G1X-0.1S965
G1X-0.1S972
G1X-0.1S976
G1X-0.1S980
G1X-0.1S972
G1X-0.1S961
G1X-0.1S949
G1X-0.1S906
G1X-0.1S803
G1X-0.1S705
G1X-0.1S602
G1X-0.1S488
G1X-0.1S374
G1X-0.1S256
G1X-0.1S165
G1X-0.1S130
G1X-0.1S94
G1X-0.1S59
G1X-0.1S47
G1X-0.1S39
G1X-0.1S31
G1X-0.1S24
G1X-0.2S20
G1X-0.1S16
G1X-0.1S12
G1X-0.1S8
G1X-0.1S4
G1X-2.9S0
G1X-0.7S4
G1X-4.7S0
G1X-0.1S4
G1X-0.1S8
G1X-0.1S12
G1X-0.1S20
G1X-0.1S28
G1X-0.1S31
G1X-0.1S39
G1X-0.1S43
G1X-0.1S47
G1X-0.1S67
G1X-0.1S122
G1X-0.1S173
G1X-0.1S224
G1X-0.1S319
G1X-0.1S421
G1X-0.1S524
G1X-0.1S622
G1X-0.1S720
G1X-0.1S819
G1X-0.1S917
G1X-0.1S949
G1X-0.1S965
G1X-0.1S976
G1X-0.1S984
G1X-0.1S976
G1X-0.1S969
G1X-0.1S961
G1X-0.1S898
G1X-0.1S815
G1X-0.1S736
G1X-0.1S646
G1X-0.1S528
G1X-0.1S409
G1X-0.1S295
G1X-0.1S205
G1X-0.1S134
G1X-0.1S59
G1X-0.2S0
G1X-0.5S4
G1X-1.1S0
G1X-0.2S4
G1X-0.3S8
G1X-0.1S4
G1X-0.3S0
G1X-0.3S4
G1X-3.2S0
G1X-0.4S4
G1X-0.1S0
G1X-0.1S4
G1X-0.1S217
G1X-0.1S433
G1X-0.1S646
G1X-0.1S787
G1X-0.1S858
G1X-0.1S929
G1X-0.1S1000
G1X-0.1S803
G1X-0.1S602
G1X-0.1S398
G1X-0.1S252
G1X-0.1S177
G1X-0.1S106
G1X-0.1S35
G1X-0.1S31
G1X-0.4S35
G1X-0.2S31
G1X-5.3S28
G1X-0.1S59
G1X-0.1S94
G1X-0.1S130
G1X-0.1S236
G1X-0.1S472
G1X-0.1S713
G1X-0.1S953
G1X-0.1S976
G1X-0.1S941
G1X-0.1S909
G1X-0.1S827
G1X-0.1S598
G1X-0.1S374
G1X-0.1S146
G1X-0.1S71
G1X-0.1S47
G1X-0.1S20
G1X-0.4S0
G1X-0.5S4
G1X-6.6S0
G1X-0.1S20
G1X-0.1S43
G1X-0.1S67
G1X-0.1S154
G1X-0.1S303
G1X-0.1S453
G1X-0.1S602
G1X-0.1S693
G1X-0.1S783
G1X-0.1S870
G1X-0.1S925
G1X-0.1S945
G1X-0.1S965
G1X-0.1S980
G1X-0.1S984
G1X-0.2S988
G1X-0.1S961
G1X-0.1S882
G1X-0.1S803
G1X-0.1S728
G1X-0.1S626
G1X-0.1S524
G1X-0.1S421
G1X-0.1S327
G1X-0.1S244
G1X-0.1S157
G1X-0.1S75
G1X-0.1S51
G1X-0.1S47
G1X-0.1S43
G1X-0.1S35
G1X-0.1S31
G1X-0.1S24
G1X-0.1S20
G1X-0.1S12
G1X-0.1S8
G1X-0.1S4
G1X-5.3S0
G1X-1.4S4
G1X-1.5S0
G1X-0.1S8
G1X-0.1S16
G1X-0.1S24
G1X-0.1S28
G1X-0.1S31
G1X-0.1S35
G1X-0.1S39
G1X-0.1S43
G1X-0.1S47
G1X-0.1S51
G1X-0.1S91
G1X-0.1S189
G1X-0.1S291
G1X-0.1S390
G1X-0.1S480
G1X-0.1S563
G1X-0.1S650
G1X-0.1S732
G1X-0.1S815
G1X-0.1S894
G1X-0.1S976
G1X-0.1S992
G1X-0.1S988
G1X-0.2S984
G1X-0.1S988
G1X-0.1S996
G1X-0.1S1000
G1X-0.1S902
G1X-0.1S760
G1X-0.1S618
G1X-0.1S476
G1X-0.1S346
G1X-0.1S213
G1X-0.1S83
G1X-0.7S31
G1X-25.4S28
G1X-0.1S91
G1X-0.1S295
G1X-0.1S500
G1X-0.1S705
G1X-0.1S803
G1X-0.1S878
G1X-0.2S949
G1X-0.1S736
G1X-0.1S524
G1X-0.1S311
G1X-0.1S201
G1X-0.1S130
G1X-0.1S59
G1X-4.4S0
G1Y0.1S0
G1X4.4
G1X0.1S59
G1X0.1S134
G1X0.1S205
G1X0.1S319
G1X0.1S528
G1X0.1S740
G1X0.2S949
G1X0.1S874
G1X0.1S803
G1X0.1S701
G1X0.1S484
G1X0.1S276
G1X0.1S63
G1X26.1S0
G1X0.1S51
G1X0.1S189
G1X0.1S327
G1X0.1S465
G1X0.1S606
G1X0.1S744
G1X0.1S886
G1X0.1S980
G1X0.1S957
G1X0.1S933
G1X0.1S909
G1X0.1S882
G1X0.1S854
G1X0.1S823
G1X0.1S783
G1X0.1S709
G1X0.1S634
G1X0.1S555
G1X0.1S484
G1X0.1S413
G1X0.1S346
G1X0.1S272
G1X0.1S193
G1X0.1S110
G1X0.1S31
G1X2.5S0
G1X1.2S4
G1X6.5S0
G1X0.1S16
G1X0.1S83
G1X0.1S154
G1X0.1S220
G1X0.1S299
G1X0.1S382
G1X0.1S465
G1X0.1S547
G1X0.1S622
G1X0.1S697
G1X0.1S772
G1X0.1S823
G1X0.1S854
G1X0.1S890
G1X0.1S921
G1X0.1S937
G1X0.1S953
G1X0.1S969
G1X0.1S937
G1X0.1S866
G1X0.1S795
G1X0.1S724
G1X0.1S594
G1X0.1S465
G1X0.1S335
G1X0.1S248
G1X0.1S205
G1X0.1S165
G1X0.1S122
G1X0.1S87
G1X0.1S51
G1X0.1S16
G1X6.2S0
G1X0.5S4
G1X0.4S0
G1X0.1S39
G1X0.1S87
G1X0.1S138
G1X0.1S232
G1X0.1S445
G1X0.1S654
G1X0.1S866
G1X0.2S925
G1X0.1S929
G1X0.1S882
G1X0.1S646
G1X0.1S406
G1X0.1S169
G1X0.1S75
G1X0.1S47
G1X0.1S20
G1X5.5S0
G1X0.4S4
G1X0.1S0
G1X0.1S4
G1X0.1S59
G1X0.1S114
G1X0.1S169
G1X0.1S319
G1X0.1S543
G1X0.1S760
G1X0.1S972
G1X0.1S929
G1X0.1S886
G1X0.1S843
G1X0.1S713
G1X0.1S504
G1X0.1S291
G1X0.1S83
G1X0.1S59
G1X0.1S35
G1X0.1S16
G1X0.4S4
G1X3S0
G1X0.7S4
G1X0.3S8
G1X0.2S4
G1X1.1S0
G1X0.3S4
G1X0.1S20
G1X0.1S59
G1X0.1S94
G1X0.1S130
G1X0.1S209
G1X0.1S291
G1X0.1S374
G1X0.1S465
G1X0.1S559
G1X0.1S657
G1X0.1S756
G1X0.1S823
G1X0.1S882
G1X0.1S945
G1X0.1S980
G1X0.1S953
G1X0.1S925
G1X0.1S898
G1X0.1S858
G1X0.1S815
G1X0.1S768
G1X0.1S717
G1X0.1S634
G1X0.1S547
G1X0.1S465
G1X0.1S382
G1X0.1S299
G1X0.1S213
G1X0.1S138
G1X0.1S94
G1X0.1S55
G1X0.1S12
G1X5.6S0
G1X1.3S4
G1X2.3S0
G1X0.5S4
G1X0.4S0
G1X0.1S4
G1X0.1S12
G1X0.1S35
G1X0.1S63
G1X0.1S87
G1X0.1S161
G1X0.1S256
G1X0.1S354
G1X0.1S449
G1X0.1S535
G1X0.1S622
G1X0.1S709
G1X0.1S768
G1X0.1S807
G1X0.1S850
G1X0.1S890
G1X0.1S917
G1X0.1S945
G1X0.1S972
G1X0.1S953
G1X0.1S898
G1X0.1S839
G1X0.1S780
G1X0.1S650
G1X0.1S524
G1X0.1S394
G1X0.1S299
G1X0.1S240
G1X0.1S181
G1X0.1S118
G1X0.1S83
G1X0.1S51
G1X0.1S16
G1X0.4S0
G1X0.1S4
G1X0.4S8
G1X0.2S4
G1X6.8S0
G1Y0.1S0
G1X-5.4
G1X-0.5S4
G1X-0.8S0
G1X-1S4
G1X-0.2S0
G1X-0.1S39
G1X-0.1S114
G1X-0.1S189
G1X-0.1S264
G1X-0.1S350
G1X-0.1S437
G1X-0.1S524
G1X-0.1S606
G1X-0.1S693
G1X-0.1S776
G1X-0.1S858
G1X-0.1S890
G1X-0.1S921
G1X-0.1S949
G1X-0.1S937
G1X-0.1S878
G1X-0.1S815
G1X-0.1S756
G1X-0.1S681
G1X-0.1S610
G1X-0.1S539
G1X-0.1S469
G1X-0.1S409
G1X-0.1S346
G1X-0.1S287
G1X-0.1S224
G1X-0.1S161
G1X-0.1S102
G1X-0.1S55
G1X-0.1S43
G1X-0.1S28
G1X-0.1S12
G1X-0.1S8
G1X-0.1S4
G1X-3.1S0
G1X-0.6S4
G1X-4.7S0
G1X-0.4S4
G1X-1.2S0
G1X-0.1S8
G1X-0.1S35
G1X-0.1S63
G1X-0.1S87
G1X-0.1S138
G1X-0.1S193
G1X-0.1S244
G1X-0.1S299
G1X-0.1S358
G1X-0.1S417
G1X-0.1S476
G1X-0.1S547
G1X-0.1S622
G1X-0.1S697
G1X-0.1S764
G1X-0.1S827
G1X-0.1S890
G1X-0.1S949
G1X-0.1S945
G1X-0.1S913
G1X-0.1S886
G1X-0.1S846
G1X-0.1S783
G1X-0.1S717
G1X-0.1S654
G1X-0.1S571
G1X-0.1S476
G1X-0.1S382
G1X-0.1S291
G1X-0.1S205
G1X-0.1S122
G1X-0.1S35
G1X-0.9S0
G1X-1.6S4
G1X-3S0
G1X-0.5S4
G1X-0.1S28
G1X-0.1S75
G1X-0.1S122
G1X-0.1S173
G1X-0.1S374
G1X-0.1S583
G1X-0.1S783
G1X-0.1S894
G1X-0.1S909
G1X-0.1S925
G1X-0.1S937
G1X-0.1S717
G1X-0.1S488
G1X-0.1S256
G1X-0.1S110
G1X-0.1S71
G1X-0.1S35
G1X-6.1S0
G1X-0.1S12
G1X-0.1S31
G1X-0.1S47
G1X-0.1S134
G1X-0.1S354
G1X-0.1S579
G1X-0.1S799
G1X-0.1S870
G1X-0.1S898
G1X-0.1S929
G1X-0.1S902
G1X-0.1S709
G1X-0.1S520
G1X-0.1S327
G1X-0.1S220
G1X-0.1S142
G1X-0.1S63
G1X-0.2S0
G1X-0.5S4
G1X-6.4S0
G1X-0.1S43
G1X-0.1S118
G1X-0.1S197
G1X-0.1S272
G1X-0.1S335
G1X-0.1S402
G1X-0.1S465
G1X-0.1S547
G1X-0.1S638
G1X-0.1S732
G1X-0.1S827
G1X-0.1S870
G1X-0.1S913
G1X-0.1S957
G1X-0.1S961
G1X-0.1S913
G1X-0.1S866
G1X-0.1S819
G1X-0.1S748
G1X-0.1S673
G1X-0.1S602
G1X-0.1S535
G1X-0.1S472
G1X-0.1S413
G1X-0.1S354
G1X-0.1S299
G1X-0.1S244
G1X-0.1S189
G1X-0.1S138
G1X-0.1S94
G1X-0.1S55
G1X-0.1S12
G1X-0.9S0
G1X-0.5S4
G1X-2.5S0
G1X-0.5S4
G1X-2.1S0
G1X-0.5S4
G1X-1.8S0
G1X-0.7S4
G1X-0.4S0
G1X-0.3S4
G1X-0.1S24
G1X-0.1S75
G1X-0.1S126
G1X-0.1S173
G1X-0.1S220
G1X-0.1S264
G1X-0.1S311
G1X-0.1S358
G1X-0.1S421
G1X-0.1S480
G1X-0.1S539
G1X-0.1S602
G1X-0.1S669
G1X-0.1S732
G1X-0.1S795
G1X-0.1S846
G1X-0.1S902
G1X-0.1S957
G1X-0.1S874
G1X-0.1S740
G1X-0.1S602
G1X-0.1S469
G1X-0.1S331
G1X-0.1S189
G1X-0.1S51
G1X-26.1S0
G1X-0.1S63
G1X-0.1S276
G1X-0.1S488
G1X-0.1S705
G1X-0.1S803
G1X-0.1S878
G1X-0.2S949
G1X-0.1S740
G1X-0.1S528
G1X-0.1S315
G1X-0.1S201
G1X-0.1S130
G1X-0.1S55
G1X-0.4S0
G1X-0.5S4
G1X-3.5S0
G1Y0.1S0
G1X3.5
G1X0.5S4
G1X0.4S0
G1X0.1S55
G1X0.1S126
G1X0.1S197
G1X0.1S311
G1X0.1S524
G1X0.1S736
G1X0.2S949
G1X0.1S878
G1X0.1S807
G1X0.1S705
G1X0.1S492
G1X0.1S280
G1X0.1S63
G1X26.1S0
G1X0.1S51
G1X0.1S193
G1X0.1S335
G1X0.1S472
G1X0.1S602
G1X0.1S732
G1X0.1S862
G1X0.1S929
G1X0.1S846
G1X0.1S760
G1X0.1S677
G1X0.1S579
G1X0.1S480
G1X0.1S382
G1X0.1S295
G1X0.1S248
G1X0.1S205
G1X0.1S157
G1X0.1S130
G1X0.1S110
G1X0.1S94
G1X0.1S75
G1X0.1S55
G1X0.1S31
G1X0.1S12
G1X0.3S4
G1X0.4S0
G1X0.2S4
G1X0.3S8
G1X0.2S4
G1X1.8S0
G1X0.5S4
G1X2.1S0
G1X0.1S4
G1X0.3S8
G1X0.1S4
G1X2.5S0
G1X0.5S4
G1X0.9S0
G1X0.1S4
G1X0.1S24
G1X0.1S43
G1X0.1S59
G1X0.1S79
G1X0.1S102
G1X0.1S126
G1X0.1S150
G1X0.1S197
G1X0.1S244
G1X0.1S291
G1X0.1S378
G1X0.1S488
G1X0.1S602
G1X0.1S709
G1X0.1S791
G1X0.1S870
G1X0.1S949
G1X0.1S976
G1X0.1S961
G1X0.1S945
G1X0.1S929
G1X0.1S874
G1X0.1S815
G1X0.1S760
G1X0.1S689
G1X0.1S602
G1X0.1S512
G1X0.1S425
G1X0.1S307
G1X0.1S189
G1X0.1S67
G1X6.4S0
G1X0.1S4
G1X0.3S8
G1X0.2S4
G1X0.1S0
G1X0.1S83
G1X0.1S193
G1X0.1S299
G1X0.1S425
G1X0.1S594
G1X0.1S768
G1X0.1S937
G1X0.1S933
G1X0.1S870
G1X0.1S807
G1X0.1S713
G1X0.1S508
G1X0.1S299
G1X0.1S94
G1X0.1S20
G1X0.1S12
G1X0.1S4
G1X6.1S0
G1X0.1S16
G1X0.1S31
G1X0.1S47
G1X0.1S189
G1X0.1S433
G1X0.1S673
G1X0.1S909
G1X0.1S921
G1X0.1S933
G1X0.1S949
G1X0.1S854
G1X0.1S661
G1X0.1S461
G1X0.1S268
G1X0.1S189
G1X0.1S118
G1X0.1S43
G1X0.2S4
G1X0.3S8
G1X0.1S4
G1X2.9S0
G1X0.7S4
G1X0.4S0
G1X0.2S4
G1X0.3S8
G1X0.1S4
G1X0.8S0
G1X0.1S55
G1X0.1S189
G1X0.1S319
G1X0.1S453
G1X0.1S563
G1X0.1S665
G1X0.1S772
G1X0.1S850
G1X0.1S878
G1X0.1S909
G1X0.1S937
G1X0.3S941
G1X0.1S917
G1X0.1S823
G1X0.1S728
G1X0.1S630
G1X0.1S531
G1X0.1S425
G1X0.1S319
G1X0.1S232
G1X0.1S197
G1X0.1S165
G1X0.1S130
G1X0.1S102
G1X0.1S79
G1X0.1S59
G1X0.1S35
G1X0.1S24
G1X0.1S12
G1X0.1S4
G1X1.2S0
G1X0.4S4
G1X4.7S0
G1X0.6S4
G1X3.1S0
G1X0.1S4
G1X0.1S8
G1X0.1S12
G1X0.1S16
G1X0.1S20
G1X0.1S24
G1X0.1S43
G1X0.1S71
G1X0.1S98
G1X0.1S126
G1X0.1S161
G1X0.1S193
G1X0.1S228
G1X0.1S303
G1X0.1S409
G1X0.1S512
G1X0.1S618
G1X0.1S713
G1X0.1S807
G1X0.1S902
G1X0.3S945
G1X0.1S941
G1X0.1S902
G1X0.1S862
G1X0.1S823
G1X0.1S748
G1X0.1S634
G1X0.1S524
G1X0.1S413
G1X0.1S295
G1X0.1S181
G1X0.1S67
G1X0.2S0
G1X1S4
G1X0.7S0
G1X0.1S4
G1X0.3S8
G1X0.2S4
G1X5.4S0
G1Y0.1S0
G1X-5.5
G1X-0.2S4
G1X-0.2S8
G1X-0.1S4
G1X-0.5S0
G1X-0.5S4
G1X-0.3S0
G1X-0.1S4
G1X-0.1S8
G1X-0.1S16
G1X-0.1S28
G1X-0.1S39
G1X-0.1S51
G1X-0.1S138
G1X-0.1S280
G1X-0.1S421
G1X-0.1S559
G1X-0.1S677
G1X-0.1S795
G1X-0.1S917
G1X-0.4S972
G1X-0.1S941
G1X-0.1S909
G1X-0.1S882
G1X-0.1S811
G1X-0.1S701
G1X-0.1S587
G1X-0.1S476
G1X-0.1S358
G1X-0.1S240
G1X-0.1S126
G1X-0.1S47
G1X-0.1S31
G1X-0.1S20
G1X-0.1S4
G1X-0.3S0
G1X-0.2S4
G1X-0.3S8
G1X-0.2S4
G1X-3S0
G1X-0.6S4
G1X-4.7S0
G1X-0.4S4
G1X-1.9S0
G1X-0.1S8
G1X-0.1S20
G1X-0.1S35
G1X-0.1S51
G1X-0.1S146
G1X-0.1S260
G1X-0.1S378
G1X-0.1S496
G1X-0.1S606
G1X-0.1S717
G1X-0.1S831
G1X-0.1S882
G1X-0.1S909
G1X-0.1S941
G1X-0.1S965
G1X-0.1S972
G1X-0.1S980
G1X-0.1S988
G1X-0.1S921
G1X-0.1S819
G1X-0.1S717
G1X-0.1S606
G1X-0.1S445
G1X-0.1S287
G1X-0.1S126
G1X-0.1S55
G1X-0.1S43
G1X-0.1S35
G1X-0.1S24
G1X-0.1S16
G1X-0.1S8
G1X-0.2S0
G1X-0.1S4
G1X-0.3S8
G1X-0.1S4
G1X-0.5S0
G1X-0.5S4
G1X-3.1S0
G1X-0.1S4
G1X-0.3S8
G1X-0.2S4
G1X-0.1S59
G1X-0.1S161
G1X-0.1S260
G1X-0.1S366
G1X-0.1S547
G1X-0.1S728
G1X-0.1S909
G1X-0.1S980
G1X-0.1S937
G1X-0.1S894
G1X-0.1S850
G1X-0.1S614
G1X-0.1S378
G1X-0.1S134
G1X-6.7S0
G1X-0.1S63
G1X-0.1S248
G1X-0.1S437
G1X-0.1S622
G1X-0.1S736
G1X-0.1S835
G1X-0.1S929
G1X-0.1S965
G1X-0.1S815
G1X-0.1S669
G1X-0.1S520
G1X-0.1S382
G1X-0.1S244
G1X-0.1S110
G1X-0.2S4
G1X-0.4S8
G1X-0.1S4
G1X-5.7S0
G1X-0.1S4
G1X-0.1S8
G1X-0.1S12
G1X-0.1S16
G1X-0.1S28
G1X-0.1S39
G1X-0.1S51
G1X-0.1S138
G1X-0.1S283
G1X-0.1S429
G1X-0.1S575
G1X-0.1S669
G1X-0.1S768
G1X-0.1S862
G1X-0.1S921
G1X-0.1S941
G1X-0.1S961
G1X-0.1S976
G1X-0.1S965
G1X-0.1S949
G1X-0.1S933
G1X-0.1S878
G1X-0.1S780
G1X-0.1S685
G1X-0.1S587
G1X-0.1S461
G1X-0.1S331
G1X-0.1S201
G1X-0.1S106
G1X-0.1S75
G1X-0.1S39
G1X-0.1S8
G1X-1.4S0
G1X-0.7S4
G1X-2.5S0
G1X-0.1S4
G1X-0.3S8
G1X-0.1S4
G1X-1.2S0
G1X-0.6S4
G1X-2.6S0
G1X-0.2S4
G1X-0.3S8
G1X-0.2S4
G1X-0.4S0
G1X-0.7S4
G1X-0.3S0
G1X-0.1S8
G1X-0.1S39
G1X-0.1S71
G1X-0.1S106
G1X-0.1S201
G1X-0.1S315
G1X-0.1S429
G1X-0.1S543
G1X-0.1S642
G1X-0.1S744
G1X-0.1S843
G1X-0.1S791
G1X-0.1S681
G1X-0.1S567
G1X-0.1S449
G1X-0.1S319
G1X-0.1S181
G1X-0.1S51
G1X-26.1S0
G1X-0.1S63
G1X-0.1S280
G1X-0.1S492
G1X-0.1S705
G1X-0.1S807
G1X-0.1S878
G1X-0.2S949
G1X-0.1S736
G1X-0.1S524
G1X-0.1S311
G1X-0.1S197
G1X-0.1S126
G1X-0.1S55
G1X-0.4S0
G1X-0.7S4
G1X-3.3S0
G1Y0.1S0
G1X3.3
G1X0.7S4
G1X0.4S0
G1X0.1S55
G1X0.1S130
G1X0.1S201
G1X0.1S315
G1X0.1S528
G1X0.1S740
G1X0.2S949
G1X0.1S878
G1X0.1S807
G1X0.1S705
G1X0.1S492
G1X0.1S280
G1X0.1S63
G1X25.9S0
G1X0.2S4
G1X0.1S43
G1X0.1S150
G1X0.1S260
G1X0.1S366
G1X0.1S437
G1X0.1S504
G1X0.1S571
G1X0.1S598
G1X0.1S528
G1X0.1S453
G1X0.1S378
G1X0.1S299
G1X0.1S220
G1X0.1S142
G1X0.1S75
G1X0.1S51
G1X0.1S28
G1X0.1S4
G1X0.3S0
G1X0.7S4
G1X0.4S0
G1X0.7S4
G1X2.6S0
G1X0.6S4
G1X1.2S0
G1X0.5S4
G1X2.5S0
G1X0.7S4
G1X1.4S0
G1X0.1S4
G1X0.1S28
G1X0.1S51
G1X0.1S75
G1X0.1S142
G1X0.1S228
G1X0.1S319
G1X0.1S406
G1X0.1S484
G1X0.1S563
G1X0.1S646
G1X0.1S713
G1X0.1S772
G1X0.1S835
G1X0.1S894
G1X0.1S906
G1X0.1S917
G1X0.1S933
G1X0.1S906
G1X0.1S839
G1X0.1S768
G1X0.1S701
G1X0.1S579
G1X0.1S457
G1X0.1S331
G1X0.1S240
G1X0.1S185
G1X0.1S130
G1X0.1S79
G1X0.1S55
G1X0.1S35
G1X0.1S16
G1X1.3S0
G1X0.5S4
G1X3.9S0
G1X0.7S4
G1X0.1S130
G1X0.1S291
G1X0.1S453
G1X0.1S602
G1X0.1S724
G1X0.1S846
G1X0.1S969
G1X0.1S909
G1X0.1S780
G1X0.1S654
G1X0.1S520
G1X0.1S366
G1X0.1S209
G1X0.1S55
G1X6.7S0
G1X0.1S114
G1X0.1S319
G1X0.1S524
G1X0.1S724
G1X0.1S803
G1X0.1S882
G1X0.1S961
G1X0.1S921
G1X0.1S772
G1X0.1S622
G1X0.1S476
G1X0.1S339
G1X0.1S209
G1X0.1S75
G1X0.5S4
G1X3.2S0
G1X0.5S4
G1X0.6S0
G1X0.3S4
G1X0.2S0
G1X0.1S12
G1X0.1S43
G1X0.1S71
G1X0.1S102
G1X0.1S150
G1X0.1S201
G1X0.1S252
G1X0.1S335
G1X0.1S465
G1X0.1S594
G1X0.1S724
G1X0.1S803
G1X0.1S874
G1X0.1S945
G1X0.1S976
G1X0.1S929
G1X0.1S878
G1X0.1S831
G1X0.1S772
G1X0.1S713
G1X0.1S654
G1X0.1S591
G1X0.1S508
G1X0.1S425
G1X0.1S343
G1X0.1S260
G1X0.1S181
G1X0.1S102
G1X0.1S35
G1X0.1S24
G1X0.1S16
G1X0.1S4
G1X1S0
G1X0.6S4
G1X0.3S0
G1X0.4S4
G1X4.7S0
G1X0.6S4
G1X2.8S0
G1X0.9S4
G1X0.3S0
G1X0.1S4
G1X0.1S12
G1X0.1S24
G1X0.1S35
G1X0.1S87
G1X0.1S169
G1X0.1S248
G1X0.1S331
G1X0.1S413
G1X0.1S496
G1X0.1S579
G1X0.1S654
G1X0.1S724
G1X0.1S795
G1X0.1S866
G1X0.1S898
G1X0.1S933
G1X0.1S965
G1X0.1S945
G1X0.1S862
G1X0.1S780
G1X0.1S697
G1X0.1S579
G1X0.1S453
G1X0.1S335
G1X0.1S236
G1X0.1S173
G1X0.1S114
G1X0.1S51
G1X0.1S31
G1X0.1S20
G1X0.1S8
G1X0.2S0
G1X0.5S4
G1X0.6S0
G1X0.3S4
G1X5.6S0
G1Y0.1S0
G1X-5.6
G1X-0.3S4
G1X-0.4S0
G1X-0.5S4
G1X-0.4S0
G1X-0.1S12
G1X-0.1S31
G1X-0.1S55
G1X-0.1S87
G1X-0.1S197
G1X-0.1S307
G1X-0.1S417
G1X-0.1S528
G1X-0.1S630
G1X-0.1S732
G1X-0.1S835
G1X-0.1S878
G1X-0.1S925
G1X-0.1S969
G1X-0.1S957
G1X-0.1S890
G1X-0.1S827
G1X-0.1S760
G1X-0.1S650
G1X-0.1S539
G1X-0.1S429
G1X-0.1S343
G1X-0.1S291
G1X-0.1S236
G1X-0.1S185
G1X-0.1S138
G1X-0.1S94
G1X-0.1S47
G1X-0.1S20
G1X-0.1S16
G1X-0.1S8
G1X-1.3S4
G1X-2.1S0
G1X-0.4S4
G1X-0.3S0
G1X-0.6S4
G1X-0.5S0
G1X-0.5S4
G1X-0.4S0
G1X-0.5S4
G1X-1.1S0
G1X-0.5S4
G1X-1.2S0
G1X-0.4S4
G1X-0.3S0
G1X-0.6S4
G1X-1S0
G1X-0.1S4
G1X-0.1S8
G1X-0.1S16
G1X-0.1S20
G1X-0.1S55
G1X-0.1S102
G1X-0.1S146
G1X-0.1S193
G1X-0.1S244
G1X-0.1S295
G1X-0.1S350
G1X-0.1S429
G1X-0.1S516
G1X-0.1S602
G1X-0.1S693
G1X-0.1S783
G1X-0.1S874
G1X-0.1S965
G1X-0.1S972
G1X-0.1S933
G1X-0.1S890
G1X-0.1S843
G1X-0.1S744
G1X-0.1S642
G1X-0.1S543
G1X-0.1S449
G1X-0.1S358
G1X-0.1S264
G1X-0.1S177
G1X-0.1S126
G1X-0.1S75
G1X-0.1S24
G1X-0.2S0
G1X-0.3S4
G1X-0.4S0
G1X-0.5S4
G1X-3.4S0
G1X-0.5S4
G1X-0.1S91
G1X-0.1S256
G1X-0.1S421
G1X-0.1S583
G1X-0.1S701
G1X-0.1S819
G1X-0.1S937
G1X-0.1S941
G1X-0.1S827
G1X-0.1S713
G1X-0.1S602
G1X-0.1S433
G1X-0.1S264
G1X-0.1S94
G1X-6.7S0
G1X-0.1S43
G1X-0.1S165
G1X-0.1S291
G1X-0.1S417
G1X-0.1S571
G1X-0.1S728
G1X-0.1S886
G1X-0.1S976
G1X-0.1S878
G1X-0.1S783
G1X-0.1S685
G1X-0.1S524
G1X-0.1S335
G1X-0.1S150
G1X-0.9S4
G1X-3.2S0
G1X-1S4
G1X-1.3S0
G1X-0.1S24
G1X-0.1S63
G1X-0.1S98
G1X-0.1S142
G1X-0.1S236
G1X-0.1S335
G1X-0.1S429
G1X-0.1S528
G1X-0.1S630
G1X-0.1S732
G1X-0.1S835
G1X-0.1S870
G1X-0.1S909
G1X-0.1S949
G1X-0.1S941
G1X-0.1S898
G1X-0.1S850
G1X-0.1S803
G1X-0.1S697
G1X-0.1S594
G1X-0.1S488
G1X-0.1S406
G1X-0.1S346
G1X-0.1S287
G1X-0.1S228
G1X-0.1S177
G1X-0.1S126
G1X-0.1S75
G1X-0.1S39
G1X-0.1S28
G1X-0.1S16
G1X-0.1S4
G1X-1.2S0
G1X-0.5S4
G1X-1.8S0
G1X-0.7S4
G1X-0.4S0
G1X-0.5S4
G1X-0.5S0
G1X-1.3S4
G1X-2.6S0
G1X-1.1S4
G1X-1S0
G1X-0.1S4
G1X-0.1S16
G1X-0.1S28
G1X-0.1S43
G1X-0.1S79
G1X-0.1S122
G1X-0.1S165
G1X-0.1S213
G1X-0.1S260
G1X-0.1S311
G1X-0.1S358
G1X-0.1S354
G1X-0.1S335
G1X-0.1S311
G1X-0.1S280
G1X-0.1S197
G1X-0.1S114
G1X-0.1S35
G1X-0.2S4
G1X-25.9S0
G1X-0.1S63
G1X-0.1S280
G1X-0.1S492
G1X-0.1S705
G1X-0.1S807
G1X-0.1S878
G1X-0.2S949
G1X-0.1S740
G1X-0.1S528
G1X-0.1S319
G1X-0.1S205
G1X-0.1S134
G1X-0.1S59
G1X-4.4S0
G1Y0.1S0
G1X4.4
G1X0.1S59
G1X0.1S134
G1X0.1S209
G1X0.1S323
G1X0.1S531
G1X0.1S740
G1X0.2S949
G1X0.1S878
G1X0.1S807
G1X0.1S705
G1X0.1S492
G1X0.1S280
G1X0.1S63
G1X25.9S0
G1X0.1S4
G1X0.1S8
G1X0.1S28
G1X0.1S83
G1X0.1S138
G1X0.1S193
G1X0.1S185
G1X0.1S161
G1X0.1S142
G1X0.1S118
G1X0.1S94
G1X0.1S71
G1X0.1S47
G1X0.1S35
G1X0.1S28
G1X0.1S20
G1X0.1S12
G1X0.1S8
G1X0.1S4
G1X1.1S0
G1X0.7S4
G1X3S0
G1X1.3S4
G1X1.4S0
G1X0.7S4
G1X1.8S0
G1X0.5S4
G1X1.2S0
G1X0.2S4
G1X0.2S8
G1X0.1S16
G1X0.1S28
G1X0.1S39
G1X0.1S51
G1X0.1S91
G1X0.1S130
G1X0.1S169
G1X0.1S268
G1X0.1S421
G1X0.1S567
G1X0.1S717
G1X0.1S795
G1X0.1S878
G1X0.1S957
G1X0.1S992
G1X0.1S984
G1X0.1S972
G1X0.1S965
G1X0.1S886
G1X0.1S803
G1X0.1S720
G1X0.1S614
G1X0.1S476
G1X0.1S339
G1X0.1S201
G1X0.1S142
G1X0.1S87
G1X0.1S35
G1X1.2S0
G1X0.1S4
G1X0.3S8
G1X0.7S4
G1X3.2S0
G1X0.5S4
G1X0.4S0
G1X0.1S169
G1X0.1S378
G1X0.1S591
G1X0.1S764
G1X0.1S839
G1X0.1S909
G1X0.1S984
G1X0.1S866
G1X0.1S673
G1X0.1S488
G1X0.1S319
G1X0.1S224
G1X0.1S126
G1X0.1S31
G1X6.7S0
G1X0.1S75
G1X0.1S209
G1X0.1S343
G1X0.1S476
G1X0.1S622
G1X0.1S772
G1X0.1S921
G1X0.1S949
G1X0.1S866
G1X0.1S780
G1X0.1S693
G1X0.1S500
G1X0.1S307
G1X0.1S110
G1X3.9S0
G1X0.5S4
G1X0.9S0
G1X0.1S31
G1X0.1S106
G1X0.1S181
G1X0.1S252
G1X0.1S382
G1X0.1S512
G1X0.1S646
G1X0.1S752
G1X0.1S823
G1X0.1S890
G1X0.1S961
G1X0.1S976
G1X0.1S988
G1X0.1S996
G1X0.1S957
G1X0.1S823
G1X0.1S689
G1X0.1S559
G1X0.1S437
G1X0.1S323
G1X0.1S205
G1X0.1S114
G1X0.1S91
G1X0.1S67
G1X0.1S43
G1X0.1S31
G1X0.1S24
G1X0.1S12
G1X0.4S4
G1X1S0
G1X0.2S4
G1X0.3S8
G1X0.1S4
G1X0.3S0
G1X0.4S4
G1X1.2S0
G1X0.5S4
G1X1.1S0
G1X0.5S4
G1X0.4S0
G1X0.5S4
G1X0.5S0
G1X0.6S4
G1X0.3S0
G1X0.4S4
G1X2S0
G1X0.2S4
G1X0.3S8
G1X1.2S4
G1X0.1S12
G1X0.1S20
G1X0.1S28
G1X0.1S39
G1X0.1S63
G1X0.1S87
G1X0.1S114
G1X0.1S205
G1X0.1S354
G1X0.1S504
G1X0.1S654
G1X0.1S752
G1X0.1S850
G1X0.1S949
G1X0.1S996
G1X0.1S988
G1X0.1S980
G1X0.1S972
G1X0.1S890
G1X0.1S803
G1X0.1S717
G1X0.1S598
G1X0.1S441
G1X0.1S276
G1X0.1S118
G1X0.1S75
G1X0.1S47
G1X0.1S16
G1X0.4S0
G1X0.5S4
G1X6.3S0
G1Y0.1S0
G1X-6.1
G1X-0.6S4
G1X-0.2S0
G1X-0.1S12
G1X-0.1S28
G1X-0.1S39
G1X-0.1S87
G1X-0.1S154
G1X-0.1S220
G1X-0.1S291
G1X-0.1S433
G1X-0.1S575
G1X-0.1S717
G1X-0.1S811
G1X-0.1S866
G1X-0.1S921
G1X-0.1S972
G1X-0.1S933
G1X-0.1S894
G1X-0.1S854
G1X-0.1S787
G1X-0.1S689
G1X-0.1S591
G1X-0.1S492
G1X-0.1S366
G1X-0.1S240
G1X-0.1S118
G1X-0.1S43
G1X-0.1S28
G1X-0.1S12
G1X-0.8S0
G1X-0.5S4
G1X-0.3S0
G1X-0.1S4
G1X-0.3S8
G1X-0.2S4
G1X-1.7S0
G1X-0.7S4
G1X-1.3S0
G1X-0.5S4
G1X-0.4S0
G1X-0.5S4
G1X-1.1S0
G1X-0.3S4
G1X-2S0
G1X-0.1S4
G1X-0.3S8
G1X-0.1S4
G1X-1.9S0
G1X-0.1S4
G1X-0.1S16
G1X-0.1S31
G1X-0.1S43
G1X-0.1S114
G1X-0.1S213
G1X-0.1S311
G1X-0.1S417
G1X-0.1S539
G1X-0.1S661
G1X-0.1S787
G1X-0.1S854
G1X-0.1S890
G1X-0.1S925
G1X-0.1S953
G1X-0.1S917
G1X-0.1S878
G1X-0.1S839
G1X-0.1S760
G1X-0.1S650
G1X-0.1S535
G1X-0.1S425
G1X-0.1S327
G1X-0.1S228
G1X-0.1S130
G1X-0.1S71
G1X-0.1S47
G1X-0.1S24
G1X-0.4S0
G1X-0.7S4
G1X-3.5S0
G1X-0.1S4
G1X-0.1S12
G1X-0.1S20
G1X-0.1S28
G1X-0.1S150
G1X-0.1S358
G1X-0.1S567
G1X-0.1S772
G1X-0.1S835
G1X-0.1S898
G1X-0.1S961
G1X-0.1S906
G1X-0.1S728
G1X-0.1S547
G1X-0.1S366
G1X-0.1S260
G1X-0.1S157
G1X-0.1S55
G1X-6.7S0
G1X-0.1S24
G1X-0.1S94
G1X-0.1S161
G1X-0.1S232
G1X-0.1S409
G1X-0.1S614
G1X-0.1S823
G1X-0.1S965
G1X-0.1S917
G1X-0.1S874
G1X-0.1S827
G1X-0.1S661
G1X-0.1S445
G1X-0.1S232
G1X-0.1S59
G1X-0.1S39
G1X-0.1S24
G1X-0.1S8
G1X-0.7S4
G1X-3S0
G1X-0.7S4
G1X-0.3S8
G1X-0.1S4
G1X-0.8S0
G1X-0.1S8
G1X-0.1S31
G1X-0.1S55
G1X-0.1S79
G1X-0.1S138
G1X-0.1S220
G1X-0.1S299
G1X-0.1S382
G1X-0.1S500
G1X-0.1S618
G1X-0.1S736
G1X-0.1S815
G1X-0.1S866
G1X-0.1S921
G1X-0.1S969
G1X-0.1S933
G1X-0.1S894
G1X-0.1S858
G1X-0.1S799
G1X-0.1S717
G1X-0.1S630
G1X-0.1S547
G1X-0.1S421
G1X-0.1S295
G1X-0.1S169
G1X-0.1S87
G1X-0.1S59
G1X-0.1S31
G1X-0.1S4
G1X-1.7S0
G1X-0.7S4
G1X-1.8S0
G1X-0.7S4
G1X-1.6S0
G1X-0.3S4
G1X-0.4S0
G1X-0.5S4
G1X-2.9S0
G1X-0.7S4
G1X-1.8S0
G1X-0.1S16
G1X-0.1S31
G1X-0.1S43
G1X-0.1S67
G1X-0.1S94
G1X-0.1S122
G1X-0.1S138
G1X-0.1S98
G1X-0.1S63
G1X-0.1S24
G1X-0.2S8
G1X-0.1S4
G1X-25.8S0
G1X-0.1S63
G1X-0.1S276
G1X-0.1S488
G1X-0.1S705
G1X-0.1S803
G1X-0.1S878
G1X-0.2S949
G1X-0.1S740
G1X-0.1S531
G1X-0.1S323
G1X-0.1S209
G1X-0.1S134
G1X-0.1S59
G1X-4.4S0
G1Y0.1S0
G1X3.8
G1X0.4S4
G1X0.2S0
G1X0.1S59
G1X0.1S134
G1X0.1S205
G1X0.1S319
G1X0.1S528
G1X0.1S740
G1X0.2S949
G1X0.1S878
G1X0.1S803
G1X0.1S705
G1X0.1S488
G1X0.1S276
G1X0.1S63
G1X25.8S0
G1X0.3S4
G1X0.1S16
G1X0.1S39
G1X0.1S63
G1X0.1S83
G1X0.1S75
G1X0.1S59
G1X0.1S43
G1X0.1S28
G1X0.1S20
G1X0.1S8
G1X13.1S0
G1X0.1S4
G1X0.1S20
G1X0.1S35
G1X0.1S55
G1X0.1S106
G1X0.1S185
G1X0.1S268
G1X0.1S346
G1X0.1S425
G1X0.1S508
G1X0.1S587
G1X0.1S669
G1X0.1S756
G1X0.1S846
G1X0.1S933
G1X0.1S917
G1X0.1S898
G1X0.1S874
G1X0.1S831
G1X0.1S756
G1X0.1S681
G1X0.1S606
G1X0.1S496
G1X0.1S382
G1X0.1S268
G1X0.1S173
G1X0.1S122
G1X0.1S67
G1X0.1S12
G1X0.9S0
G1X0.5S4
G1X4.2S0
G1X0.1S16
G1X0.1S51
G1X0.1S87
G1X0.1S126
G1X0.1S303
G1X0.1S512
G1X0.1S728
G1X0.1S890
G1X0.1S906
G1X0.1S917
G1X0.1S933
G1X0.1S776
G1X0.1S555
G1X0.1S335
G1X0.1S146
G1X0.1S102
G1X0.1S59
G1X0.1S16
G1X6.7S0
G1X0.1S39
G1X0.1S110
G1X0.1S181
G1X0.1S260
G1X0.1S469
G1X0.1S681
G1X0.1S894
G1X0.1S976
G1X0.1S929
G1X0.1S886
G1X0.1S843
G1X0.1S626
G1X0.1S413
G1X0.1S193
G1X0.1S63
G1X0.1S43
G1X0.1S24
G1X0.1S4
G1X4.6S0
G1X0.1S55
G1X0.1S110
G1X0.1S169
G1X0.1S256
G1X0.1S378
G1X0.1S500
G1X0.1S626
G1X0.1S701
G1X0.1S772
G1X0.1S846
G1X0.1S890
G1X0.1S894
G1X0.1S902
G1X0.1S906
G1X0.1S831
G1X0.1S744
G1X0.1S654
G1X0.1S563
G1X0.1S465
G1X0.1S366
G1X0.1S268
G1X0.1S201
G1X0.1S138
G1X0.1S75
G1X0.1S28
G1X0.1S20
G1X0.1S12
G1X0.1S4
G1X1.9S0
G1X0.5S4
G1X8.5S0
G1X0.6S4
G1X1.6S0
G1X0.1S8
G1X0.1S20
G1X0.1S28
G1X0.1S79
G1X0.1S157
G1X0.1S236
G1X0.1S315
G1X0.1S402
G1X0.1S492
G1X0.1S579
G1X0.1S665
G1X0.1S756
G1X0.1S846
G1X0.1S937
G1X0.1S917
G1X0.1S894
G1X0.1S874
G1X0.1S819
G1X0.1S717
G1X0.1S618
G1X0.1S516
G1X0.1S406
G1X0.1S291
G1X0.1S177
G1X0.1S94
G1X0.1S63
G1X0.1S31
G1X0.1S4
G1X0.3S0
G1X0.5S4
G1X6S0
G1Y0.1S0
G1X-5.9
G1X-0.1S4
G1X-0.3S8
G1X-0.2S4
G1X-0.3S0
G1X-0.1S8
G1X-0.1S51
G1X-0.1S98
G1X-0.1S146
G1X-0.1S268
G1X-0.1S429
G1X-0.1S591
G1X-0.1S740
G1X-0.1S799
G1X-0.1S858
G1X-0.1S917
G1X-0.1S937
G1X-0.1S925
G1X-0.1S913
G1X-0.1S898
G1X-0.1S756
G1X-0.1S618
G1X-0.1S480
G1X-0.1S370
G1X-0.1S291
G1X-0.1S217
G1X-0.1S138
G1X-0.1S102
G1X-0.1S71
G1X-0.1S35
G1X-0.1S16
G1X-0.1S8
G1X-0.1S4
G1X-2.9S0
G1X-0.5S4
G1X-0.4S0
G1X-1.2S4
G1X-4.8S0
G1X-1.2S4
G1X-2.1S0
G1X-0.1S4
G1X-0.1S8
G1X-0.1S12
G1X-0.1S16
G1X-0.1S35
G1X-0.1S63
G1X-0.1S87
G1X-0.1S122
G1X-0.1S193
G1X-0.1S268
G1X-0.1S339
G1X-0.1S457
G1X-0.1S594
G1X-0.1S736
G1X-0.1S858
G1X-0.1S890
G1X-0.1S917
G1X-0.1S945
G1X-0.1S933
G1X-0.1S902
G1X-0.1S866
G1X-0.1S827
G1X-0.1S681
G1X-0.1S535
G1X-0.1S386
G1X-0.1S268
G1X-0.1S177
G1X-0.1S91
G1X-4.6S0
G1X-0.1S4
G1X-0.1S35
G1X-0.1S67
G1X-0.1S98
G1X-0.1S236
G1X-0.1S465
G1X-0.1S689
G1X-0.1S913
G1X-0.1S937
G1X-0.1S965
G1X-0.1S988
G1X-0.1S882
G1X-0.1S638
G1X-0.1S394
G1X-0.1S150
G1X-0.1S102
G1X-0.1S63
G1X-0.1S20
G1X-6.7S0
G1X-0.1S8
G1X-0.1S28
G1X-0.1S47
G1X-0.1S67
G1X-0.1S260
G1X-0.1S492
G1X-0.1S732
G1X-0.1S906
G1X-0.1S921
G1X-0.1S937
G1X-0.1S953
G1X-0.1S799
G1X-0.1S587
G1X-0.1S378
G1X-0.1S197
G1X-0.1S138
G1X-0.1S83
G1X-0.1S24
G1X-0.3S4
G1X-3.6S0
G1X-0.7S4
G1X-1S0
G1X-0.1S16
G1X-0.1S102
G1X-0.1S189
G1X-0.1S272
G1X-0.1S402
G1X-0.1S547
G1X-0.1S697
G1X-0.1S835
G1X-0.1S866
G1X-0.1S898
G1X-0.1S929
G1X-0.1S937
G1X-0.1S925
G1X-0.1S913
G1X-0.1S898
G1X-0.1S760
G1X-0.1S622
G1X-0.1S484
G1X-0.1S378
G1X-0.1S303
G1X-0.1S224
G1X-0.1S150
G1X-0.1S114
G1X-0.1S79
G1X-0.1S43
G1X-0.1S24
G1X-0.1S16
G1X-0.1S8
G1X-0.1S4
G1X-10.4S0
G1X-0.5S4
G1X-2.2S0
G1X-0.1S4
G1X-0.1S8
G1X-0.1S12
G1X-0.1S20
G1X-0.1S24
G1X-0.1S31
G1X-0.1S35
G1X-0.1S28
G1X-0.1S16
G1X-0.1S4
G1X-26.1S0
G1X-0.1S63
G1X-0.1S276
G1X-0.1S488
G1X-0.1S705
G1X-0.1S803
G1X-0.1S878
G1X-0.2S949
G1X-0.1S740
G1X-0.1S528
G1X-0.1S315
G1X-0.1S201
G1X-0.1S130
G1X-0.1S55
G1X-0.1S0
G1X-0.2S4
G1X-0.2S8
G1X-0.1S4
G1X-3.8S0
G1Y0.1S0
G1X3.8
G1X0.1S4
G1X0.2S8
G1X0.2S4
G1X0.1S0
G1X0.1S55
G1X0.1S130
G1X0.1S201
G1X0.1S315
G1X0.1S528
G1X0.1S740
G1X0.2S949
G1X0.1S878
G1X0.1S803
G1X0.1S705
G1X0.1S488
G1X0.1S276
G1X0.1S63
G1X29.5S0
G1X0.3S4
G1X11.2S0
G1X0.1S67
G1X0.1S134
G1X0.1S201
G1X0.1S315
G1X0.1S480
G1X0.1S650
G1X0.1S815
G1X0.1S862
G1X0.1S906
G1X0.1S949
G1X0.1S976
G1X0.1S984
G1X0.1S992
G1X0.1S1000
G1X0.1S858
G1X0.1S693
G1X0.1S535
G1X0.1S390
G1X0.1S283
G1X0.1S173
G1X0.1S67
G1X0.1S35
G1X0.1S24
G1X0.1S8
G1X0.9S0
G1X0.4S4
G1X3.8S0
G1X0.2S4
G1X0.1S31
G1X0.1S114
G1X0.1S197
G1X0.1S276
G1X0.1S453
G1X0.1S654
G1X0.1S854
G1X0.1S992
G1X0.1S949
G1X0.1S906
G1X0.1S862
G1X0.1S677
G1X0.1S433
G1X0.1S193
G1X7.1S0
G1X0.1S12
G1X0.1S24
G1X0.1S39
G1X0.1S63
G1X0.1S323
G1X0.1S587
G1X0.1S846
G1X0.1S976
G1X0.1S972
G1X0.2S969
G1X0.1S744
G1X0.1S520
G1X0.1S291
G1X0.1S146
G1X0.1S98
G1X0.1S51
G1X0.1S4
G1X4.2S0
G1X0.1S8
G1X0.1S20
G1X0.1S31
G1X0.1S43
G1X0.1S157
G1X0.1S272
G1X0.1S386
G1X0.1S516
G1X0.1S673
G1X0.1S827
G1X0.1S984
G1X0.1S988
G1X0.1S980
G1X0.1S972
G1X0.1S941
G1X0.1S882
G1X0.1S823
G1X0.1S764
G1X0.1S614
G1X0.1S449
G1X0.1S283
G1X0.1S157
G1X0.1S106
G1X0.1S59
G1X0.1S8
G1X3S0
G1X0.3S4
G1X0.4S0
G1X0.3S4
G1X5S0
G1X0.3S4
G1X0.4S0
G1X0.3S4
G1X0.4S0
G1X0.3S4
G1X3.7S0
G1X0.1S4
G1X0.1S67
G1X0.1S134
G1X0.1S197
G1X0.1S311
G1X0.1S476
G1X0.1S642
G1X0.1S811
G1X0.1S862
G1X0.1S909
G1X0.1S957
G1X0.1S972
G1X0.1S953
G1X0.1S933
G1X0.1S913
G1X0.1S748
G1X0.1S567
G1X0.1S382
G1X0.1S240
G1X0.1S177
G1X0.1S106
G1X0.1S43
G1X0.1S24
G1X0.1S12
G1X0.1S4
G1X0.1S0
G1X0.2S4
G1X0.2S8
G1X0.1S4
G1X5.9S0
G1Y0.1S0
G1X-5.9
G1X-0.1S4
G1X-0.2S8
G1X-0.2S4
G1X-0.1S0
G1X-0.1S28
G1X-0.1S67
G1X-0.1S106
G1X-0.1S157
G1X-0.1S256
G1X-0.1S354
G1X-0.1S453
G1X-0.1S571
G1X-0.1S697
G1X-0.1S827
G1X-0.1S937
G1X-0.1S925
G1X-0.1S909
G1X-0.1S898
G1X-0.1S843
G1X-0.1S756
G1X-0.1S669
G1X-0.1S579
G1X-0.1S457
G1X-0.1S339
G1X-0.1S217
G1X-0.1S138
G1X-0.1S94
G1X-0.1S51
G1X-0.1S8
G1X-0.3S4
G1X-3.4S0
G1X-0.3S4
G1X-0.4S0
G1X-0.3S4
G1X-0.4S0
G1X-0.3S4
G1X-5S0
G1X-0.3S4
G1X-0.4S0
G1X-0.3S4
G1X-3S0
G1X-0.1S4
G1X-0.1S39
G1X-0.1S75
G1X-0.1S106
G1X-0.1S197
G1X-0.1S311
G1X-0.1S425
G1X-0.1S535
G1X-0.1S622
G1X-0.1S705
G1X-0.1S791
G1X-0.1S854
G1X-0.1S902
G1X-0.1S949
G1X-0.1S988
G1X-0.1S882
G1X-0.1S776
G1X-0.1S665
G1X-0.1S559
G1X-0.1S449
G1X-0.1S343
G1X-0.1S232
G1X-0.1S169
G1X-0.1S102
G1X-0.1S35
G1X-4.2S0
G1X-0.1S8
G1X-0.1S87
G1X-0.1S165
G1X-0.1S244
G1X-0.1S386
G1X-0.1S587
G1X-0.1S780
G1X-0.1S972
G1X-0.1S945
G1X-0.1S913
G1X-0.1S882
G1X-0.1S752
G1X-0.1S516
G1X-0.1S280
G1X-0.1S47
G1X-0.1S28
G1X-0.1S20
G1X-0.1S8
G1X-7.1S0
G1X-0.1S169
G1X-0.1S378
G1X-0.1S591
G1X-0.1S764
G1X-0.1S839
G1X-0.1S909
G1X-0.1S984
G1X-0.1S882
G1X-0.1S717
G1X-0.1S551
G1X-0.1S394
G1X-0.1S280
G1X-0.1S161
G1X-0.1S43
G1X-0.2S4
G1X-3.8S0
G1X-0.4S4
G1X-0.9S0
G1X-0.1S43
G1X-0.1S114
G1X-0.1S181
G1X-0.1S256
G1X-0.1S358
G1X-0.1S465
G1X-0.1S567
G1X-0.1S677
G1X-0.1S787
G1X-0.1S902
G1X-0.1S996
G1X-0.1S953
G1X-0.1S909
G1X-0.1S862
G1X-0.1S803
G1X-0.1S732
G1X-0.1S657
G1X-0.1S583
G1X-0.1S465
G1X-0.1S343
G1X-0.1S224
G1X-0.1S138
G1X-0.1S94
G1X-0.1S47
G1X-11.2S0
G1X-0.3S4
G1X-29.5S0
G1X-0.1S63
G1X-0.1S276
G1X-0.1S488
G1X-0.1S705
G1X-0.1S803
G1X-0.1S878
G1X-0.2S949
G1X-0.1S740
G1X-0.1S528
G1X-0.1S315
G1X-0.1S201
G1X-0.1S130
G1X-0.1S55
G1X-0.2S0
G1X-0.4S4
G1X-3.8S0
G1Y0.1S0
G1X3.8
G1X0.4S4
G1X0.2S0
G1X0.1S55
G1X0.1S130
G1X0.1S201
G1X0.1S315
G1X0.1S528
G1X0.1S740
G1X0.2S949
G1X0.1S878
G1X0.1S803
G1X0.1S705
G1X0.1S488
G1X0.1S276
G1X0.1S63
G1X41S0
G1X0.1S24
G1X0.1S51
G1X0.1S79
G1X0.1S130
G1X0.1S205
G1X0.1S283
G1X0.1S358
G1X0.1S461
G1X0.1S563
G1X0.1S665
G1X0.1S756
G1X0.1S835
G1X0.1S913
G1X0.1S996
G1X0.1S945
G1X0.1S878
G1X0.1S815
G1X0.1S736
G1X0.1S638
G1X0.1S535
G1X0.1S437
G1X0.1S319
G1X0.1S201
G1X0.1S79
G1X5.1S0
G1X0.2S4
G1X0.1S55
G1X0.1S209
G1X0.1S362
G1X0.1S512
G1X0.1S650
G1X0.1S776
G1X0.1S906
G1X0.1S972
G1X0.1S870
G1X0.1S772
G1X0.1S669
G1X0.1S512
G1X0.1S327
G1X0.1S146
G1X7.1S0
G1X0.1S4
G1X0.1S12
G1X0.1S16
G1X0.1S31
G1X0.1S240
G1X0.1S449
G1X0.1S657
G1X0.1S795
G1X0.1S858
G1X0.1S921
G1X0.1S984
G1X0.1S819
G1X0.1S650
G1X0.1S476
G1X0.1S335
G1X0.1S228
G1X0.1S118
G1X0.1S12
G1X1.5S0
G1X0.4S4
G1X2.3S0
G1X0.1S67
G1X0.1S181
G1X0.1S303
G1X0.1S417
G1X0.1S524
G1X0.1S626
G1X0.1S732
G1X0.1S815
G1X0.1S874
G1X0.1S933
G1X0.1S996
G1X0.1S913
G1X0.1S823
G1X0.1S736
G1X0.1S638
G1X0.1S528
G1X0.1S421
G1X0.1S311
G1X0.1S240
G1X0.1S177
G1X0.1S110
G1X0.1S63
G1X0.1S43
G1X0.1S24
G1X14.2S0
G1X0.3S4
G1X0.1S8
G1X0.1S31
G1X0.1S51
G1X0.1S75
G1X0.1S126
G1X0.1S201
G1X0.1S276
G1X0.1S350
G1X0.1S472
G1X0.1S602
G1X0.1S732
G1X0.1S823
G1X0.1S870
G1X0.1S917
G1X0.1S961
G1X0.1S902
G1X0.1S831
G1X0.1S760
G1X0.1S669
G1X0.1S535
G1X0.1S406
G1X0.1S272
G1X0.1S189
G1X0.1S118
G1X0.1S47
G1X0.1S0
G1X0.2S4
G1X0.2S8
G1X0.1S4
G1X5.9S0
G1Y0.1S0
G1X-5.9
G1X-0.1S4
G1X-0.2S8
G1X-0.2S4
G1X-0.1S0
G1X-0.1S71
G1X-0.1S177
G1X-0.1S280
G1X-0.1S394
G1X-0.1S555
G1X-0.1S720
G1X-0.1S886
G1X-0.1S953
G1X-0.1S969
G1X-0.1S984
G1X-0.1S988
G1X-0.1S909
G1X-0.1S827
G1X-0.1S748
G1X-0.1S618
G1X-0.1S449
G1X-0.1S280
G1X-0.1S118
G1X-0.1S91
G1X-0.1S59
G1X-0.1S31
G1X-0.2S16
G1X-0.2S12
G1X-0.1S8
G1X-0.2S4
G1X-14.2S0
G1X-0.1S4
G1X-0.1S8
G1X-0.1S12
G1X-0.1S24
G1X-0.1S39
G1X-0.1S51
G1X-0.1S83
G1X-0.1S217
G1X-0.1S350
G1X-0.1S480
G1X-0.1S614
G1X-0.1S744
G1X-0.1S874
G1X-0.1S996
G1X-0.1S984
G1X-0.1S976
G1X-0.1S965
G1X-0.1S906
G1X-0.1S803
G1X-0.1S705
G1X-0.1S602
G1X-0.1S433
G1X-0.1S264
G1X-0.1S94
G1X-2.3S0
G1X-0.4S4
G1X-1.5S0
G1X-0.1S12
G1X-0.1S154
G1X-0.1S291
G1X-0.1S433
G1X-0.1S571
G1X-0.1S717
G1X-0.1S854
G1X-0.1S992
G1X-0.1S898
G1X-0.1S799
G1X-0.1S705
G1X-0.1S563
G1X-0.1S382
G1X-0.1S197
G1X-0.1S12
G1X-0.3S4
G1X-7.1S0
G1X-0.1S122
G1X-0.1S276
G1X-0.1S425
G1X-0.1S571
G1X-0.1S705
G1X-0.1S831
G1X-0.1S965
G1X-0.1S929
G1X-0.1S839
G1X-0.1S744
G1X-0.1S634
G1X-0.1S445
G1X-0.1S256
G1X-0.1S67
G1X-0.2S4
G1X-5.1S0
G1X-0.1S118
G1X-0.1S291
G1X-0.1S465
G1X-0.1S626
G1X-0.1S720
G1X-0.1S815
G1X-0.1S909
G1X-0.1S957
G1X-0.1S972
G1X-0.1S988
G1X-0.1S992
G1X-0.1S874
G1X-0.1S760
G1X-0.1S642
G1X-0.1S520
G1X-0.1S386
G1X-0.1S256
G1X-0.1S126
G1X-0.1S94
G1X-0.1S63
G1X-0.1S31
G1X-0.1S16
G1X-0.1S8
G1X-0.1S4
G1X-41S0
G1X-0.1S63
G1X-0.1S276
G1X-0.1S488
G1X-0.1S705
G1X-0.1S803
G1X-0.1S878
G1X-0.2S949
G1X-0.1S740
G1X-0.1S528
G1X-0.1S315
G1X-0.1S201
G1X-0.1S130
G1X-0.1S55
G1X-4.4S0
G1Y0.1S0
G1X4.4
G1X0.1S55
G1X0.1S130
G1X0.1S201
G1X0.1S315
G1X0.1S528
G1X0.1S740
G1X0.2S949
G1X0.1S878
G1X0.1S803
G1X0.1S705
G1X0.1S488
G1X0.1S276
G1X0.1S63
G1X41.3S0
G1X0.1S8
G1X0.1S24
G1X0.1S35
G1X0.1S47
G1X0.1S157
G1X0.1S268
G1X0.1S378
G1X0.1S496
G1X0.1S618
G1X0.1S736
G1X0.1S862
G1X0.1S902
G1X0.1S933
G1X0.1S961
G1X0.1S957
G1X0.1S886
G1X0.1S811
G1X0.1S740
G1X0.1S591
G1X0.1S429
G1X0.1S260
G1X0.1S138
G1X0.1S102
G1X0.1S67
G1X0.1S35
G1X0.1S20
G1X0.1S12
G1X0.1S8
G1X4.3S0
G1X0.1S8
G1X0.1S20
G1X0.1S28
G1X0.1S102
G1X0.1S307
G1X0.1S516
G1X0.1S720
G1X0.1S815
G1X0.1S882
G1X0.1S949
G1X0.1S957
G1X0.1S787
G1X0.1S626
G1X0.1S457
G1X0.1S331
G1X0.1S213
G1X0.1S94
G1X7.4S0
G1X0.1S4
G1X0.1S161
G1X0.1S315
G1X0.1S472
G1X0.1S614
G1X0.1S740
G1X0.1S870
G1X0.1S996
G1X0.1S882
G1X0.1S764
G1X0.1S642
G1X0.1S504
G1X0.1S339
G1X0.1S177
G1X0.1S12
G1X1.4S0
G1X0.7S4
G1X1.7S0
G1X0.1S4
G1X0.1S43
G1X0.1S79
G1X0.1S118
G1X0.1S228
G1X0.1S394
G1X0.1S563
G1X0.1S728
G1X0.1S803
G1X0.1S878
G1X0.1S953
G1X0.1S976
G1X0.1S941
G1X0.1S909
G1X0.1S874
G1X0.1S744
G1X0.1S610
G1X0.1S476
G1X0.1S350
G1X0.1S236
G1X0.1S126
G1X0.1S12
G1X14.8S0
G1X0.2S4
G1X0.3S8
G1X0.2S4
G1X0.1S8
G1X0.1S20
G1X0.1S31
G1X0.1S43
G1X0.1S181
G1X0.1S323
G1X0.1S465
G1X0.1S591
G1X0.1S693
G1X0.1S799
G1X0.1S906
G1X0.1S937
G1X0.1S961
G1X0.1S988
G1X0.1S953
G1X0.1S819
G1X0.1S681
G1X0.1S547
G1X0.1S417
G1X0.1S295
G1X0.1S169
G1X0.1S75
G1X0.1S55
G1X0.1S31
G1X0.1S12
G1X0.1S4
G1X6S0
G1Y0.1S0
G1X-5.1
G1X-0.5S4
G1X-0.4S0
G1X-0.1S4
G1X-0.1S20
G1X-0.1S71
G1X-0.1S122
G1X-0.1S177
G1X-0.1S291
G1X-0.1S433
G1X-0.1S575
G1X-0.1S709
G1X-0.1S795
G1X-0.1S886
G1X-0.1S972
G1X-0.1S965
G1X-0.1S902
G1X-0.1S843
G1X-0.1S776
G1X-0.1S650
G1X-0.1S528
G1X-0.1S402
G1X-0.1S295
G1X-0.1S205
G1X-0.1S114
G1X-0.1S28
G1X-0.1S20
G1X-0.1S12
G1X-0.8S4
G1X-14.8S0
G1X-0.1S8
G1X-0.1S79
G1X-0.1S154
G1X-0.1S224
G1X-0.1S327
G1X-0.1S453
G1X-0.1S579
G1X-0.1S705
G1X-0.1S780
G1X-0.1S854
G1X-0.1S929
G1X-0.1S945
G1X-0.1S906
G1X-0.1S866
G1X-0.1S827
G1X-0.1S685
G1X-0.1S539
G1X-0.1S398
G1X-0.1S280
G1X-0.1S189
G1X-0.1S98
G1X-0.1S8
G1X-1.7S0
G1X-0.7S4
G1X-1.4S0
G1X-0.1S12
G1X-0.1S197
G1X-0.1S382
G1X-0.1S567
G1X-0.1S701
G1X-0.1S803
G1X-0.1S902
G1X-0.1S992
G1X-0.1S835
G1X-0.1S677
G1X-0.1S520
G1X-0.1S378
G1X-0.1S252
G1X-0.1S126
G1X-0.1S4
G1X-0.3S0
G1X-0.5S4
G1X-6.6S0
G1X-0.1S67
G1X-0.1S146
G1X-0.1S228
G1X-0.1S339
G1X-0.1S543
G1X-0.1S740
G1X-0.1S945
G1X-0.1S965
G1X-0.1S917
G1X-0.1S874
G1X-0.1S791
G1X-0.1S575
G1X-0.1S358
G1X-0.1S142
G1X-0.1S55
G1X-0.1S35
G1X-0.1S20
G1X-1.8S0
G1X-0.5S4
G1X-2S0
G1X-0.1S16
G1X-0.1S28
G1X-0.1S43
G1X-0.1S75
G1X-0.1S161
G1X-0.1S244
G1X-0.1S327
G1X-0.1S445
G1X-0.1S579
G1X-0.1S713
G1X-0.1S831
G1X-0.1S874
G1X-0.1S913
G1X-0.1S957
G1X-0.1S921
G1X-0.1S843
G1X-0.1S764
G1X-0.1S681
G1X-0.1S563
G1X-0.1S449
G1X-0.1S335
G1X-0.1S244
G1X-0.1S173
G1X-0.1S102
G1X-0.1S31
G1X-0.1S24
G1X-0.1S16
G1X-0.1S8
G1X-41.3S0
G1X-0.1S63
G1X-0.1S276
G1X-0.1S488
G1X-0.1S705
G1X-0.1S803
G1X-0.1S878
G1X-0.2S949
G1X-0.1S740
G1X-0.1S528
G1X-0.1S315
G1X-0.1S201
G1X-0.1S130
G1X-0.1S55
G1X-4.4S0
G1Y0.1S0
G1X4.4
G1X0.1S55
G1X0.1S130
G1X0.1S201
G1X0.1S315
G1X0.1S528
G1X0.1S740
G1X0.2S949
G1X0.1S878
G1X0.1S803
G1X0.1S705
G1X0.1S488
G1X0.1S276
G1X0.1S63
G1X39.7S0
G1X0.5S4
G1X0.9S0
G1X0.2S4
G1X0.2S8
G1X0.2S12
G1X0.1S43
G1X0.1S79
G1X0.1S110
G1X0.1S173
G1X0.1S283
G1X0.1S390
G1X0.1S500
G1X0.1S622
G1X0.1S752
G1X0.1S878
G1X0.1S957
G1X0.1S945
G1X0.1S933
G1X0.1S925
G1X0.1S835
G1X0.1S732
G1X0.1S630
G1X0.1S516
G1X0.1S386
G1X0.1S252
G1X0.1S118
G1X0.1S71
G1X0.1S47
G1X0.1S24
G1X0.2S4
G1X1.7S0
G1X0.1S4
G1X0.3S8
G1X0.7S4
G1X0.4S0
G1X0.3S4
G1X0.6S0
G1X0.1S28
G1X0.1S59
G1X0.1S87
G1X0.1S185
G1X0.1S409
G1X0.1S638
G1X0.1S866
G1X0.1S933
G1X0.1S957
G1X0.1S984
G1X0.1S941
G1X0.1S697
G1X0.1S461
G1X0.1S217
G1X0.1S122
G1X0.1S79
G1X0.1S35
G1X6.5S0
G1X0.1S4
G1X0.3S8
G1X0.2S4
G1X0.4S0
G1X0.1S94
G1X0.1S193
G1X0.1S287
G1X0.1S429
G1X0.1S618
G1X0.1S807
G1X0.1S996
G1X0.1S921
G1X0.1S843
G1X0.1S760
G1X0.1S626
G1X0.1S421
G1X0.1S220
G1X0.1S16
G1X1.7S0
G1X1.4S4
G1X0.7S0
G1X0.1S12
G1X0.1S154
G1X0.1S295
G1X0.1S437
G1X0.1S571
G1X0.1S689
G1X0.1S807
G1X0.1S925
G1X0.1S933
G1X0.1S937
G1X0.1S945
G1X0.1S890
G1X0.1S772
G1X0.1S654
G1X0.1S531
G1X0.1S417
G1X0.1S299
G1X0.1S181
G1X0.1S98
G1X0.1S67
G1X0.1S35
G1X0.1S4
G1X14.4S0
G1X1.1S4
G1X0.2S8
G1X0.2S12
G1X0.1S51
G1X0.1S91
G1X0.1S130
G1X0.1S213
G1X0.1S358
G1X0.1S504
G1X0.1S646
G1X0.1S748
G1X0.1S846
G1X0.1S941
G1X0.1S988
G1X0.1S949
G1X0.1S913
G1X0.1S874
G1X0.1S736
G1X0.1S575
G1X0.1S413
G1X0.1S276
G1X0.1S193
G1X0.1S106
G1X0.1S24
G1X0.4S0
G1X0.2S4
G1X0.3S8
G1X0.1S4
G1X5.1S0
G1Y0.1S0
G1X-5.2
G1X-0.1S4
G1X-0.3S8
G1X-0.2S4
G1X-0.1S8
G1X-0.1S12
G1X-0.1S16
G1X-0.1S47
G1X-0.1S165
G1X-0.1S280
G1X-0.1S394
G1X-0.1S543
G1X-0.1S705
G1X-0.1S866
G1X-0.1S1000
G1X-0.1S992
G1X-0.1S980
G1X-0.1S969
G1X-0.1S890
G1X-0.1S764
G1X-0.1S642
G1X-0.1S516
G1X-0.1S366
G1X-0.1S213
G1X-0.1S63
G1X-0.5S0
G1X-0.4S4
G1X-0.3S0
G1X-0.1S4
G1X-0.2S8
G1X-0.1S4
G1X-15S0
G1X-0.1S63
G1X-0.1S165
G1X-0.1S272
G1X-0.1S378
G1X-0.1S524
G1X-0.1S669
G1X-0.1S819
G1X-0.1S906
G1X-0.1S937
G1X-0.1S969
G1X-0.1S996
G1X-0.1S906
G1X-0.1S811
G1X-0.1S720
G1X-0.1S587
G1X-0.1S409
G1X-0.1S228
G1X-0.1S51
G1X-0.1S28
G1X-0.1S20
G1X-0.1S8
G1X-0.4S0
G1X-1.2S4
G1X-1.7S0
G1X-0.1S8
G1X-0.1S12
G1X-0.1S35
G1X-0.1S256
G1X-0.1S472
G1X-0.1S689
G1X-0.1S819
G1X-0.1S878
G1X-0.1S941
G1X-0.1S992
G1X-0.1S776
G1X-0.1S559
G1X-0.1S346
G1X-0.1S201
G1X-0.1S138
G1X-0.1S71
G1X-0.1S4
G1X-0.3S0
G1X-0.2S4
G1X-0.3S8
G1X-0.2S4
G1X-6.2S0
G1X-0.2S4
G1X-0.1S16
G1X-0.1S31
G1X-0.1S43
G1X-0.1S122
G1X-0.1S386
G1X-0.1S650
G1X-0.1S913
G1X-0.2S980
G1X-0.1S976
G1X-0.1S925
G1X-0.1S697
G1X-0.1S465
G1X-0.1S236
G1X-0.1S130
G1X-0.1S87
G1X-0.1S39
G1X-0.4S0
G1X-0.5S4
G1X-0.4S0
G1X-0.3S4
G1X-0.3S0
G1X-0.1S4
G1X-0.3S8
G1X-0.2S4
G1X-1.5S0
G1X-0.1S4
G1X-0.1S8
G1X-0.1S12
G1X-0.1S43
G1X-0.1S83
G1X-0.1S122
G1X-0.1S189
G1X-0.1S354
G1X-0.1S520
G1X-0.1S685
G1X-0.1S783
G1X-0.1S858
G1X-0.1S933
G1X-0.1S988
G1X-0.1S965
G1X-0.1S937
G1X-0.1S913
G1X-0.1S803
G1X-0.1S646
G1X-0.1S488
G1X-0.1S335
G1X-0.1S236
G1X-0.1S142
G1X-0.1S43
G1X-0.5S0
G1X-0.6S4
G1X-0.8S0
G1X-0.4S4
G1X-39.7S0
G1X-0.1S63
G1X-0.1S276
G1X-0.1S488
G1X-0.1S705
G1X-0.1S803
G1X-0.1S878
G1X-0.2S949
G1X-0.1S740
G1X-0.1S528
G1X-0.1S315
G1X-0.1S201
G1X-0.1S130
G1X-0.1S55
G1X-4.4S0
G1Y0.1S0
G1X4.4
G1X0.1S55
G1X0.1S130
G1X0.1S201
G1X0.1S315
G1X0.1S528
G1X0.1S740
G1X0.2S949
G1X0.1S878
G1X0.1S803
G1X0.1S705
G1X0.1S488
G1X0.1S276
G1X0.1S63
G1X39.7S0
G1X0.4S4
G1X0.5S0
G1X0.9S4
G1X0.5S0
G1X0.1S31
G1X0.1S98
G1X0.1S165
G1X0.1S236
G1X0.1S354
G1X0.1S484
G1X0.1S610
G1X0.1S720
G1X0.1S791
G1X0.1S870
G1X0.1S941
G1X0.1S921
G1X0.1S882
G1X0.1S843
G1X0.1S776
G1X0.1S642
G1X0.1S508
G1X0.1S374
G1X0.1S280
G1X0.1S193
G1X0.1S110
G1X0.1S43
G1X0.1S28
G1X0.1S16
G1X1.5S0
G1X0.5S4
G1X0.4S0
G1X0.3S4
G1X0.4S0
G1X0.5S4
G1X0.4S0
G1X0.1S67
G1X0.1S146
G1X0.1S220
G1X0.1S339
G1X0.1S539
G1X0.1S740
G1X0.1S941
G1X0.1S957
G1X0.1S925
G1X0.1S894
G1X0.1S811
G1X0.1S571
G1X0.1S339
G1X0.1S98
G1X0.1S31
G1X0.1S24
G1X0.1S12
G1X0.2S4
G1X6.2S0
G1X0.7S4
G1X0.3S0
G1X0.1S4
G1X0.1S51
G1X0.1S94
G1X0.1S142
G1X0.1S280
G1X0.1S504
G1X0.1S728
G1X0.1S953
G1X0.1S929
G1X0.1S898
G1X0.1S870
G1X0.1S760
G1X0.1S551
G1X0.1S343
G1X0.1S134
G1X0.1S87
G1X0.1S51
G1X0.1S20
G1X1.6S0
G1X1.2S4
G1X0.4S0
G1X0.1S39
G1X0.1S102
G1X0.1S165
G1X0.1S236
G1X0.1S390
G1X0.1S543
G1X0.1S697
G1X0.1S803
G1X0.1S858
G1X0.1S921
G1X0.1S976
G1X0.1S894
G1X0.1S807
G1X0.1S724
G1X0.1S622
G1X0.1S500
G1X0.1S382
G1X0.1S260
G1X0.1S185
G1X0.1S114
G1X0.1S43
G1X15S0
G1X0.1S4
G1X0.2S8
G1X0.1S4
G1X0.3S0
G1X0.4S4
G1X0.5S0
G1X0.1S43
G1X0.1S150
G1X0.1S256
G1X0.1S362
G1X0.1S476
G1X0.1S594
G1X0.1S713
G1X0.1S807
G1X0.1S870
G1X0.1S929
G1X0.1S992
G1X0.1S909
G1X0.1S795
G1X0.1S681
G1X0.1S563
G1X0.1S429
G1X0.1S295
G1X0.1S161
G1X0.1S106
G1X0.1S67
G1X0.1S31
G1X0.6S4
G1X5.2S0
G1Y0.1S0
G1X-5.2
G1X-0.6S4
G1X-0.1S59
G1X-0.1S122
G1X-0.1S193
G1X-0.1S280
G1X-0.1S429
G1X-0.1S583
G1X-0.1S732
G1X-0.1S823
G1X-0.1S886
G1X-0.1S949
G1X-0.1S980
G1X-0.1S870
G1X-0.1S760
G1X-0.1S650
G1X-0.1S535
G1X-0.1S425
G1X-0.1S311
G1X-0.1S205
G1X-0.1S146
G1X-0.1S83
G1X-0.1S24
G1X-1.2S0
G1X-0.1S4
G1X-0.2S8
G1X-0.1S4
G1X-15S0
G1X-0.1S28
G1X-0.1S67
G1X-0.1S106
G1X-0.1S150
G1X-0.1S240
G1X-0.1S335
G1X-0.1S425
G1X-0.1S543
G1X-0.1S681
G1X-0.1S819
G1X-0.1S957
G1X-0.1S933
G1X-0.1S909
G1X-0.1S886
G1X-0.1S811
G1X-0.1S681
G1X-0.1S551
G1X-0.1S421
G1X-0.1S303
G1X-0.1S189
G1X-0.1S75
G1X-0.4S4
G1X-2.8S0
G1X-0.1S35
G1X-0.1S94
G1X-0.1S157
G1X-0.1S228
G1X-0.1S429
G1X-0.1S630
G1X-0.1S831
G1X-0.3S921
G1X-0.1S917
G1X-0.1S685
G1X-0.1S445
G1X-0.1S213
G1X-0.1S79
G1X-0.1S55
G1X-0.1S28
G1X-0.1S4
G1X-0.3S0
G1X-0.7S4
G1X-6.2S0
G1X-0.2S4
G1X-0.1S8
G1X-0.1S16
G1X-0.1S20
G1X-0.1S79
G1X-0.1S287
G1X-0.1S500
G1X-0.1S709
G1X-0.1S811
G1X-0.1S874
G1X-0.1S937
G1X-0.1S953
G1X-0.1S783
G1X-0.1S610
G1X-0.1S441
G1X-0.1S311
G1X-0.1S205
G1X-0.1S94
G1X-1.3S0
G1X-0.3S4
G1X-0.4S0
G1X-0.9S4
G1X-0.3S0
G1X-0.5S4
G1X-0.2S0
G1X-0.1S4
G1X-0.1S28
G1X-0.1S47
G1X-0.1S71
G1X-0.1S173
G1X-0.1S303
G1X-0.1S433
G1X-0.1S559
G1X-0.1S657
G1X-0.1S764
G1X-0.1S866
G1X-0.1S902
G1X-0.1S906
G1X-0.1S913
G1X-0.1S898
G1X-0.1S772
G1X-0.1S646
G1X-0.1S520
G1X-0.1S413
G1X-0.1S319
G1X-0.1S220
G1X-0.1S134
G1X-0.1S94
G1X-0.1S55
G1X-0.1S20
G1X-0.7S0
G1X-0.7S4
G1X-0.5S0
G1X-0.4S4
G1X-39.7S0
G1X-0.1S63
G1X-0.1S276
G1X-0.1S488
G1X-0.1S705
G1X-0.1S803
G1X-0.1S878
G1X-0.2S949
G1X-0.1S740
G1X-0.1S528
G1X-0.1S315
G1X-0.1S201
G1X-0.1S130
G1X-0.1S55
G1X-4.4S0
G1Y0.1S0
G1X4.4
G1X0.1S55
G1X0.1S130
G1X0.1S201
G1X0.1S315
G1X0.1S528
G1X0.1S740
G1X0.2S949
G1X0.1S878
G1X0.1S803
G1X0.1S705
G1X0.1S488
G1X0.1S276
G1X0.1S63
G1X39.7S0
G1X0.4S4
G1X0.5S0
G1X0.2S4
G1X0.3S8
G1X0.2S4
G1X0.7S0
G1X0.1S4
G1X0.1S12
G1X0.1S20
G1X0.1S28
G1X0.1S87
G1X0.1S154
G1X0.1S220
G1X0.1S327
G1X0.1S504
G1X0.1S681
G1X0.1S854
G1X0.1S906
G1X0.1S933
G1X0.1S961
G1X0.1S957
G1X0.1S886
G1X0.1S811
G1X0.1S740
G1X0.1S587
G1X0.1S413
G1X0.1S240
G1X0.1S102
G1X0.1S71
G1X0.1S39
G1X0.1S8
G1X0.2S0
G1X0.5S4
G1X0.3S0
G1X0.7S4
G1X0.6S0
G1X0.3S4
G1X1.3S0
G1X0.1S122
G1X0.1S260
G1X0.1S402
G1X0.1S539
G1X0.1S681
G1X0.1S823
G1X0.1S965
G1X0.1S917
G1X0.1S823
G1X0.1S728
G1X0.1S610
G1X0.1S425
G1X0.1S240
G1X0.1S55
G1X0.5S4
G1X7.2S0
G1X0.1S4
G1X0.1S8
G1X0.1S12
G1X0.1S20
G1X0.1S146
G1X0.1S390
G1X0.1S634
G1X0.1S878
G1X0.1S909
G1X0.1S937
G1X0.1S969
G1X0.1S898
G1X0.1S705
G1X0.1S516
G1X0.1S323
G1X0.1S224
G1X0.1S138
G1X0.1S51
G1X2.8S0
G1X0.4S4
G1X0.1S106
G1X0.1S272
G1X0.1S441
G1X0.1S602
G1X0.1S709
G1X0.1S819
G1X0.1S925
G1X0.1S969
G1X0.1S961
G1X0.1S949
G1X0.1S937
G1X0.1S744
G1X0.1S555
G1X0.1S358
G1X0.1S228
G1X0.1S165
G1X0.1S102
G1X0.1S35
G1X0.1S24
G1X0.1S16
G1X0.1S8
G1X15S0
G1X0.1S4
G1X0.2S8
G1X0.1S4
G1X1.2S0
G1X0.1S4
G1X0.1S20
G1X0.1S31
G1X0.1S47
G1X0.1S146
G1X0.1S252
G1X0.1S358
G1X0.1S484
G1X0.1S646
G1X0.1S811
G1X0.1S972
G1X0.1S988
G1X0.1S976
G1X0.1S961
G1X0.1S902
G1X0.1S732
G1X0.1S563
G1X0.1S394
G1X0.1S280
G1X0.1S181
G1X0.1S87
G1X0.2S8
G1X0.2S4
G1X5.4S0
G1Y0.1S0
G1X-5.4
G1X-0.1S4
G1X-0.1S16
G1X-0.1S31
G1X-0.1S47
G1X-0.1S150
G1X-0.1S280
G1X-0.1S409
G1X-0.1S543
G1X-0.1S681
G1X-0.1S823
G1X-0.1S961
G1X-0.1S976
G1X-0.1S941
G1X-0.1S906
G1X-0.1S846
G1X-0.1S685
G1X-0.1S520
G1X-0.1S358
G1X-0.1S248
G1X-0.1S161
G1X-0.1S79
G1X-1.6S0
G1X-0.1S4
G1X-0.3S8
G1X-0.2S4
G1X-15.2S0
G1X-0.1S47
G1X-0.1S91
G1X-0.1S138
G1X-0.1S252
G1X-0.1S429
G1X-0.1S602
G1X-0.1S780
G1X-0.1S839
G1X-0.1S902
G1X-0.1S957
G1X-0.1S953
G1X-0.1S878
G1X-0.1S803
G1X-0.1S728
G1X-0.1S567
G1X-0.1S402
G1X-0.1S236
G1X-0.1S122
G1X-0.1S83
G1X-0.1S43
G1X-0.1S8
G1X-2.8S0
G1X-0.1S75
G1X-0.1S189
G1X-0.1S303
G1X-0.1S421
G1X-0.1S591
G1X-0.1S760
G1X-0.1S929
G1X-0.1S969
G1X-0.1S909
G1X-0.1S846
G1X-0.1S783
G1X-0.1S559
G1X-0.1S335
G1X-0.1S114
G1X-7.4S0
G1X-0.5S4
G1X-0.2S0
G1X-0.1S39
G1X-0.1S197
G1X-0.1S354
G1X-0.1S512
G1X-0.1S646
G1X-0.1S772
G1X-0.1S898
G1X-0.1S972
G1X-0.1S854
G1X-0.1S732
G1X-0.1S614
G1X-0.1S465
G1X-0.1S303
G1X-0.1S142
G1X-2.3S0
G1X-0.4S4
G1X-0.5S0
G1X-0.4S4
G1X-0.1S8
G1X-0.1S16
G1X-0.1S20
G1X-0.1S39
G1X-0.1S106
G1X-0.1S169
G1X-0.1S236
G1X-0.1S374
G1X-0.1S535
G1X-0.1S701
G1X-0.1S835
G1X-0.1S874
G1X-0.1S913
G1X-0.1S953
G1X-0.1S917
G1X-0.1S843
G1X-0.1S772
G1X-0.1S685
G1X-0.1S531
G1X-0.1S374
G1X-0.1S217
G1X-0.1S130
G1X-0.1S87
G1X-0.1S43
G1X-1.1S0
G1X-0.2S4
G1X-0.3S8
G1X-0.2S4
G1X-40.6S0
G1X-0.1S63
G1X-0.1S276
G1X-0.1S488
G1X-0.1S705
G1X-0.1S803
G1X-0.1S878
G1X-0.2S949
G1X-0.1S740
G1X-0.1S528
G1X-0.1S315
G1X-0.1S201
G1X-0.1S130
G1X-0.1S55
G1X-4.4S0
G1Y0.1S0
G1X4.4
G1X0.1S55
G1X0.1S130
G1X0.1S201
G1X0.1S315
G1X0.1S528
G1X0.1S740
G1X0.2S949
G1X0.1S878
G1X0.1S803
G1X0.1S705
G1X0.1S488
G1X0.1S276
G1X0.1S63
G1X40.6S0
G1X0.2S4
G1X0.3S8
G1X0.2S4
G1X1.1S0
G1X0.1S28
G1X0.1S55
G1X0.1S83
G1X0.1S142
G1X0.1S244
G1X0.1S350
G1X0.1S457
G1X0.1S579
G1X0.1S705
G1X0.1S831
G1X0.1S913
G1X0.1S906
G1X0.1S898
G1X0.1S890
G1X0.1S787
G1X0.1S661
G1X0.1S531
G1X0.1S409
G1X0.1S303
G1X0.1S197
G1X0.1S87
G1X0.1S47
G1X0.1S31
G1X0.1S20
G1X0.4S4
G1X0.5S0
G1X0.4S4
G1X2.3S0
G1X0.1S154
G1X0.1S335
G1X0.1S516
G1X0.1S669
G1X0.1S772
G1X0.1S874
G1X0.1S976
G1X0.1S874
G1X0.1S717
G1X0.1S559
G1X0.1S409
G1X0.1S283
G1X0.1S157
G1X0.1S31
G1X0.2S0
G1X0.5S4
G1X7.4S0
G1X0.1S94
G1X0.1S280
G1X0.1S472
G1X0.1S657
G1X0.1S756
G1X0.1S854
G1X0.1S949
G1X0.1S941
G1X0.1S803
G1X0.1S665
G1X0.1S528
G1X0.1S386
G1X0.1S236
G1X0.1S94
G1X2.8S0
G1X0.1S12
G1X0.1S102
G1X0.1S193
G1X0.1S283
G1X0.1S406
G1X0.1S547
G1X0.1S689
G1X0.1S827
G1X0.1S870
G1X0.1S913
G1X0.1S953
G1X0.1S913
G1X0.1S799
G1X0.1S681
G1X0.1S567
G1X0.1S437
G1X0.1S307
G1X0.1S173
G1X0.1S91
G1X0.1S59
G1X0.1S31
G1X15S0
G1X0.1S4
G1X0.5S8
G1X0.2S4
G1X1.6S0
G1X0.1S51
G1X0.1S102
G1X0.1S157
G1X0.1S240
G1X0.1S382
G1X0.1S528
G1X0.1S669
G1X0.1S768
G1X0.1S854
G1X0.1S941
G1X0.1S976
G1X0.1S886
G1X0.1S799
G1X0.1S709
G1X0.1S563
G1X0.1S394
G1X0.1S232
G1X0.1S98
G1X0.1S67
G1X0.1S35
G1X0.1S8
G1X0.2S0
G1X0.3S4
G1X4.9S0
G1Y0.1S0
G1X-4.8
G1X-0.1S4
G1X-0.3S8
G1X-0.1S4
G1X-0.1S0
G1X-0.1S12
G1X-0.1S55
G1X-0.1S102
G1X-0.1S146
G1X-0.1S311
G1X-0.1S508
G1X-0.1S709
G1X-0.1S870
G1X-0.1S909
G1X-0.1S949
G1X-0.1S992
G1X-0.1S906
G1X-0.1S768
G1X-0.1S634
G1X-0.1S500
G1X-0.1S378
G1X-0.1S256
G1X-0.1S134
G1X-0.1S75
G1X-0.1S47
G1X-0.1S24
G1X-0.6S0
G1X-0.3S4
G1X-0.9S0
G1X-0.1S4
G1X-0.1S8
G1X-0.2S12
G1X-0.1S8
G1X-0.1S4
G1X-15S0
G1X-0.1S16
G1X-0.1S31
G1X-0.1S47
G1X-0.1S98
G1X-0.1S185
G1X-0.1S272
G1X-0.1S354
G1X-0.1S524
G1X-0.1S697
G1X-0.1S862
G1X-0.1S949
G1X-0.1S941
G1X-0.1S933
G1X-0.1S925
G1X-0.1S811
G1X-0.1S693
G1X-0.1S571
G1X-0.1S445
G1X-0.1S303
G1X-0.1S161
G1X-0.1S20
G1X-2.8S0
G1X-0.1S110
G1X-0.1S283
G1X-0.1S461
G1X-0.1S630
G1X-0.1S736
G1X-0.1S846
G1X-0.1S953
G1X-0.1S929
G1X-0.1S799
G1X-0.1S669
G1X-0.1S535
G1X-0.1S386
G1X-0.1S228
G1X-0.1S75
G1X-8.1S0
G1X-0.1S24
G1X-0.1S122
G1X-0.1S217
G1X-0.1S315
G1X-0.1S476
G1X-0.1S665
G1X-0.1S850
G1X-0.1S984
G1X-0.1S898
G1X-0.1S811
G1X-0.1S728
G1X-0.1S567
G1X-0.1S370
G1X-0.1S169
G1X-0.4S0
G1X-0.5S4
G1X-0.5S0
G1X-0.6S4
G1X-1.2S0
G1X-0.4S4
G1X-0.1S24
G1X-0.1S47
G1X-0.1S71
G1X-0.1S134
G1X-0.1S283
G1X-0.1S433
G1X-0.1S587
G1X-0.1S689
G1X-0.1S783
G1X-0.1S874
G1X-0.1S941
G1X-0.1S917
G1X-0.1S894
G1X-0.1S870
G1X-0.1S744
G1X-0.1S567
G1X-0.1S390
G1X-0.1S232
G1X-0.1S177
G1X-0.1S122
G1X-0.1S67
G1X-0.1S39
G1X-0.1S24
G1X-0.1S12
G1X-1.1S0
G1X-1.4S4
G1X-39.9S0
G1X-0.1S63
G1X-0.1S276
G1X-0.1S488
G1X-0.1S705
G1X-0.1S803
G1X-0.1S878
G1X-0.2S949
G1X-0.1S740
G1X-0.1S528
G1X-0.1S315
G1X-0.1S201
G1X-0.1S130
G1X-0.1S55
G1X-4.4S0
G1Y0.1S0
G1X4.4
G1X0.1S55
G1X0.1S130
G1X0.1S201
G1X0.1S315
G1X0.1S528
G1X0.1S740
G1X0.2S949
G1X0.1S878
G1X0.1S803
G1X0.1S705
G1X0.1S488
G1X0.1S276
G1X0.1S63
G1X40.1S0
G1X0.5S4
G1X2.1S0
G1X0.1S8
G1X0.1S20
G1X0.1S35
G1X0.1S47
G1X0.1S224
G1X0.1S433
G1X0.1S642
G1X0.1S803
G1X0.1S862
G1X0.1S917
G1X0.1S976
G1X0.1S945
G1X0.1S886
G1X0.1S827
G1X0.1S740
G1X0.1S559
G1X0.1S382
G1X0.1S205
G1X0.1S122
G1X0.1S83
G1X0.1S43
G1X0.2S8
G1X0.2S4
G1X1.2S0
G1X0.4S4
G1X0.5S0
G1X0.5S4
G1X0.3S0
G1X0.1S8
G1X0.1S16
G1X0.1S20
G1X0.1S201
G1X0.1S413
G1X0.1S622
G1X0.1S787
G1X0.1S854
G1X0.1S917
G1X0.1S984
G1X0.1S827
G1X0.1S610
G1X0.1S394
G1X0.1S220
G1X0.1S154
G1X0.1S87
G1X0.1S20
G1X8.1S0
G1X0.1S59
G1X0.1S177
G1X0.1S299
G1X0.1S417
G1X0.1S583
G1X0.1S744
G1X0.1S909
G1X0.1S969
G1X0.1S886
G1X0.1S807
G1X0.1S728
G1X0.1S539
G1X0.1S335
G1X0.1S134
G1X0.2S8
G1X0.2S4
G1X2.1S0
G1X0.1S8
G1X0.1S12
G1X0.1S20
G1X0.1S47
G1X0.1S232
G1X0.1S413
G1X0.1S598
G1X0.1S728
G1X0.1S823
G1X0.1S913
G1X0.1S1000
G1X0.1S972
G1X0.1S945
G1X0.1S917
G1X0.1S791
G1X0.1S587
G1X0.1S378
G1X0.1S169
G1X0.1S126
G1X0.1S79
G1X0.1S31
G1X0.2S4
G1X15S0
G1X0.1S4
G1X0.1S8
G1X0.1S12
G1X0.1S16
G1X0.1S12
G1X0.1S8
G1X0.8S0
G1X0.5S4
G1X0.4S0
G1X0.3S4
G1X0.2S0
G1X0.1S35
G1X0.1S134
G1X0.1S236
G1X0.1S339
G1X0.1S504
G1X0.1S677
G1X0.1S858
G1X0.1S984
G1X0.1S988
G1X0.1S996
G1X0.1S1000
G1X0.1S839
G1X0.1S618
G1X0.1S406
G1X0.1S224
G1X0.1S157
G1X0.1S91
G1X0.1S28
G1X0.5S8
G1X0.1S4
G1X4.8S0
G1Y0.1S0
G1X-4.9
G1X-0.2S4
G1X-0.1S12
G1X-0.1S24
G1X-0.1S31
G1X-0.1S71
G1X-0.1S185
G1X-0.1S299
G1X-0.1S413
G1X-0.1S563
G1X-0.1S720
G1X-0.1S882
G1X-0.1S992
G1X-0.1S949
G1X-0.1S909
G1X-0.1S870
G1X-0.1S736
G1X-0.1S563
G1X-0.1S394
G1X-0.1S236
G1X-0.1S165
G1X-0.1S94
G1X-0.1S24
G1X-0.2S0
G1X-0.3S4
G1X-0.4S0
G1X-0.5S4
G1X-0.8S0
G1X-0.1S4
G1X-0.1S8
G1X-0.2S12
G1X-0.1S8
G1X-0.1S4
G1X-15S0
G1X-0.2S4
G1X-0.1S24
G1X-0.1S55
G1X-0.1S87
G1X-0.1S118
G1X-0.1S280
G1X-0.1S441
G1X-0.1S602
G1X-0.1S724
G1X-0.1S811
G1X-0.1S894
G1X-0.1S976
G1X-0.1S925
G1X-0.1S866
G1X-0.1S807
G1X-0.1S697
G1X-0.1S516
G1X-0.1S339
G1X-0.1S157
G1X-0.1S102
G1X-0.1S63
G1X-0.1S28
G1X-0.7S0
G1X-0.7S4
G1X-0.7S0
G1X-0.1S4
G1X-0.1S16
G1X-0.1S31
G1X-0.1S43
G1X-0.1S181
G1X-0.1S390
G1X-0.1S606
G1X-0.1S803
G1X-0.1S862
G1X-0.1S917
G1X-0.1S976
G1X-0.1S894
G1X-0.1S697
G1X-0.1S500
G1X-0.1S307
G1X-0.1S220
G1X-0.1S130
G1X-0.1S43
G1X-0.2S0
G1X-0.5S4
G1X-7.4S0
G1X-0.1S16
G1X-0.1S63
G1X-0.1S106
G1X-0.1S154
G1X-0.1S331
G1X-0.1S555
G1X-0.1S780
G1X-0.1S953
G1X-0.1S917
G1X-0.1S882
G1X-0.1S846
G1X-0.1S697
G1X-0.1S496
G1X-0.1S291
G1X-0.1S110
G1X-0.1S79
G1X-0.1S43
G1X-0.1S12
G1X-0.2S0
G1X-0.5S4
G1X-0.5S0
G1X-0.4S4
G1X-0.7S0
G1X-0.6S4
G1X-0.1S16
G1X-0.1S28
G1X-0.1S35
G1X-0.1S110
G1X-0.1S193
G1X-0.1S280
G1X-0.1S382
G1X-0.1S528
G1X-0.1S669
G1X-0.1S815
G1X-0.1S866
G1X-0.1S894
G1X-0.1S917
G1X-0.1S913
G1X-0.1S807
G1X-0.1S701
G1X-0.1S598
G1X-0.1S461
G1X-0.1S311
G1X-0.1S161
G1X-0.1S31
G1X-0.1S24
G1X-0.1S16
G1X-0.1S4
G1X-2.1S0
G1X-0.5S4
G1X-40.1S0
G1X-0.1S63
G1X-0.1S276
G1X-0.1S488
G1X-0.1S705
G1X-0.1S803
G1X-0.1S878
G1X-0.2S949
G1X-0.1S740
G1X-0.1S528
G1X-0.1S315
G1X-0.1S201
G1X-0.1S130
G1X-0.1S55
G1X-4.4S0
G1Y0.1S0
G1X4.4
G1X0.1S55
G1X0.1S130
G1X0.1S201
G1X0.1S315
G1X0.1S528
G1X0.1S740
G1X0.2S949
G1X0.1S878
G1X0.1S803
G1X0.1S705
G1X0.1S488
G1X0.1S276
G1X0.1S63
G1X40.1S0
G1X0.8S4
G1X1.5S0
G1X0.3S4
G1X0.1S8
G1X0.1S12
G1X0.1S16
G1X0.1S20
G1X0.1S98
G1X0.1S189
G1X0.1S280
G1X0.1S390
G1X0.1S543
G1X0.1S701
G1X0.1S850
G1X0.1S894
G1X0.1S902
G1X0.1S909
G1X0.1S890
G1X0.1S780
G1X0.1S669
G1X0.1S563
G1X0.1S437
G1X0.1S307
G1X0.1S177
G1X0.1S67
G1X0.1S47
G1X0.1S28
G1X0.1S8
G1X0.5S4
G1X0.7S0
G1X0.4S4
G1X1.2S0
G1X0.1S20
G1X0.1S83
G1X0.1S142
G1X0.1S201
G1X0.1S378
G1X0.1S579
G1X0.1S776
G1X0.1S909
G1X0.1S913
G1X0.1S917
G1X0.1S921
G1X0.1S736
G1X0.1S504
G1X0.1S268
G1X0.1S91
G1X0.1S63
G1X0.1S35
G1X0.1S8
G1X6.9S0
G1X1S4
G1X0.2S0
G1X0.1S28
G1X0.1S83
G1X0.1S142
G1X0.1S197
G1X0.1S421
G1X0.1S646
G1X0.1S878
G1X0.1S984
G1X0.1S949
G1X0.1S913
G1X0.1S878
G1X0.1S673
G1X0.1S449
G1X0.1S228
G1X0.1S79
G1X0.1S55
G1X0.1S31
G1X0.1S4
G1X0.7S0
G1X0.7S4
G1X0.7S0
G1X0.1S47
G1X0.1S118
G1X0.1S185
G1X0.1S268
G1X0.1S445
G1X0.1S622
G1X0.1S799
G1X0.1S886
G1X0.1S913
G1X0.1S941
G1X0.1S957
G1X0.1S819
G1X0.1S677
G1X0.1S535
G1X0.1S409
G1X0.1S295
G1X0.1S181
G1X0.1S67
G1X0.1S51
G1X0.1S31
G1X0.1S12
G1X0.5S0
G1X0.4S4
G1X14.1S0
G1X0.7S4
G1X1.8S0
G1X0.3S4
G1X0.2S0
G1X0.1S12
G1X0.1S55
G1X0.1S98
G1X0.1S142
G1X0.1S283
G1X0.1S445
G1X0.1S610
G1X0.1S748
G1X0.1S827
G1X0.1S906
G1X0.1S984
G1X0.1S925
G1X0.1S819
G1X0.1S720
G1X0.1S602
G1X0.1S441
G1X0.1S280
G1X0.1S118
G1X0.1S55
G1X0.1S39
G1X0.1S20
G1X0.2S4
G1X4.9S0
G1Y0.1S0
G1X-5.1
G1X-0.1S24
G1X-0.1S51
G1X-0.1S83
G1X-0.1S165
G1X-0.1S374
G1X-0.1S583
G1X-0.1S791
G1X-0.1S874
G1X-0.1S921
G1X-0.1S969
G1X-0.1S976
G1X-0.1S862
G1X-0.1S748
G1X-0.1S634
G1X-0.1S488
G1X-0.1S331
G1X-0.1S173
G1X-0.1S39
G1X-0.1S28
G1X-0.1S16
G1X-0.1S4
G1X-0.2S0
G1X-0.3S4
G1X-2S0
G1X-0.5S4
G1X-14.1S0
G1X-0.4S4
G1X-0.5S0
G1X-0.1S4
G1X-0.1S8
G1X-0.1S12
G1X-0.1S16
G1X-0.1S83
G1X-0.1S150
G1X-0.1S217
G1X-0.1S346
G1X-0.1S539
G1X-0.1S740
G1X-0.1S933
G1X-0.1S953
G1X-0.1S957
G1X-0.1S965
G1X-0.1S898
G1X-0.1S724
G1X-0.1S551
G1X-0.1S378
G1X-0.1S268
G1X-0.1S169
G1X-0.1S67
G1X-0.7S0
G1X-0.2S4
G1X-0.4S8
G1X-0.1S4
G1X-0.7S0
G1X-0.1S8
G1X-0.1S43
G1X-0.1S75
G1X-0.1S110
G1X-0.1S268
G1X-0.1S500
G1X-0.1S736
G1X-0.1S953
G1X-0.1S969
G1X-0.1S980
G1X-0.1S996
G1X-0.1S858
G1X-0.1S598
G1X-0.1S343
G1X-0.1S87
G1X-0.1S63
G1X-0.1S35
G1X-0.1S12
G1X-0.1S0
G1X-0.1S4
G1X-0.3S8
G1X-0.7S4
G1X-6.9S0
G1X-0.1S4
G1X-0.1S8
G1X-0.1S16
G1X-0.1S20
G1X-0.1S201
G1X-0.1S449
G1X-0.1S693
G1X-0.1S894
G1X-0.1S917
G1X-0.1S945
G1X-0.1S969
G1X-0.1S850
G1X-0.1S661
G1X-0.1S469
G1X-0.1S291
G1X-0.1S205
G1X-0.1S118
G1X-0.1S31
G1X-1.2S0
G1X-0.4S4
G1X-0.6S0
G1X-0.1S4
G1X-0.3S8
G1X-0.2S4
G1X-0.1S12
G1X-0.1S39
G1X-0.1S67
G1X-0.1S91
G1X-0.1S244
G1X-0.1S417
G1X-0.1S598
G1X-0.1S744
G1X-0.1S819
G1X-0.1S890
G1X-0.1S965
G1X-0.1S953
G1X-0.1S909
G1X-0.1S870
G1X-0.1S791
G1X-0.1S591
G1X-0.1S390
G1X-0.1S189
G1X-0.1S106
G1X-0.1S71
G1X-0.1S39
G1X-0.4S8
G1X-0.3S4
G1X-1.5S0
G1X-0.8S4
G1X-40.1S0
G1X-0.1S63
G1X-0.1S276
G1X-0.1S488
G1X-0.1S705
G1X-0.1S803
G1X-0.1S878
G1X-0.2S949
G1X-0.1S740
G1X-0.1S528
G1X-0.1S315
G1X-0.1S201
G1X-0.1S130
G1X-0.1S55
G1X-4.4S0
G1Y0.1S0
G1X4.4
G1X0.1S55
G1X0.1S130
G1X0.1S201
G1X0.1S315
G1X0.1S528
G1X0.1S740
G1X0.2S949
G1X0.1S878
G1X0.1S803
G1X0.1S705
G1X0.1S488
G1X0.1S276
G1X0.1S63
G1X40.2S0
G1X0.6S4
G1X1.6S0
G1X0.7S4
G1X0.1S12
G1X0.1S24
G1X0.1S35
G1X0.1S98
G1X0.1S276
G1X0.1S457
G1X0.1S634
G1X0.1S740
G1X0.1S819
G1X0.1S906
G1X0.1S957
G1X0.1S917
G1X0.1S878
G1X0.1S835
G1X0.1S709
G1X0.1S539
G1X0.1S374
G1X0.1S224
G1X0.1S161
G1X0.1S94
G1X0.1S31
G1X0.5S8
G1X0.1S4
G1X1.2S0
G1X0.5S4
G1X0.5S0
G1X0.1S47
G1X0.1S161
G1X0.1S272
G1X0.1S390
G1X0.1S547
G1X0.1S720
G1X0.1S886
G1X0.1S980
G1X0.1S921
G1X0.1S862
G1X0.1S803
G1X0.1S610
G1X0.1S390
G1X0.1S165
G1X7.1S0
G1X0.9S4
G1X0.3S8
G1X0.2S4
G1X0.1S8
G1X0.1S20
G1X0.1S31
G1X0.1S39
G1X0.1S287
G1X0.1S539
G1X0.1S791
G1X0.1S937
G1X0.1S953
G1X0.1S965
G1X0.1S980
G1X0.1S783
G1X0.1S563
G1X0.1S346
G1X0.1S189
G1X0.1S126
G1X0.1S67
G1X0.1S8
G1X0.8S0
G1X0.1S4
G1X0.3S8
G1X0.2S4
G1X0.4S0
G1X0.1S12
G1X0.1S24
G1X0.1S35
G1X0.1S126
G1X0.1S260
G1X0.1S394
G1X0.1S528
G1X0.1S669
G1X0.1S807
G1X0.1S945
G1X0.1S972
G1X0.1S925
G1X0.1S882
G1X0.1S823
G1X0.1S630
G1X0.1S433
G1X0.1S240
G1X0.1S126
G1X0.1S83
G1X0.1S39
