(0.125_Standard 30 Boring)
(T17  D=3.175 CR=0 - ZMIN=-15.24 - flat end mill)
G90 G94
G17
G21

(0.125_Standard 30 Boring)
T17
S17000 M3
G54
G0 Z11
X0.604 Y0.649
Z5
G1 Z2.816 F1080
X0.588 Y0.684 Z2.666
X0.537 Y0.775 Z2.551
X0.455 Y0.897 Z2.5
G3 X-1.969 Y-0.897 Z2.085 I-1.212 J-0.897
X0.455 Y0.897 Z1.671 I1.212 J0.897
X-1.969 Y-0.897 Z1.256 I-1.212 J-0.897
X0.455 Y0.897 Z0.842 I1.212 J0.897
X-1.969 Y-0.897 Z0.427 I-1.212 J-0.897
X0.455 Y0.897 Z0.013 I1.212 J0.897
X-1.969 Y-0.897 Z-0.402 I-1.212 J-0.897
X0.455 Y0.897 Z-0.816 I1.212 J0.897
X-1.969 Y-0.897 Z-1.231 I-1.212 J-0.897
X0.455 Y0.897 Z-1.645 I1.212 J0.897
X-1.969 Y-0.897 Z-2.06 I-1.212 J-0.897
X0.455 Y0.897 Z-2.474 I1.212 J0.897
X-1.969 Y-0.897 Z-2.889 I-1.212 J-0.897
X0.455 Y0.897 Z-3.303 I1.212 J0.897
X-1.969 Y-0.897 Z-3.718 I-1.212 J-0.897
X0.455 Y0.897 Z-4.132 I1.212 J0.897
X-1.969 Y-0.897 Z-4.547 I-1.212 J-0.897
X0.455 Y0.897 Z-4.961 I1.212 J0.897
X-1.969 Y-0.897 Z-5.376 I-1.212 J-0.897
X0.455 Y0.897 Z-5.79 I1.212 J0.897
X-1.969 Y-0.897 Z-6.205 I-1.212 J-0.897
X0.455 Y0.897 Z-6.619 I1.212 J0.897
X-1.969 Y-0.897 Z-7.034 I-1.212 J-0.897
X0.455 Y0.897 Z-7.448 I1.212 J0.897
X-1.969 Y-0.897 Z-7.863 I-1.212 J-0.897
X0.455 Y0.897 Z-8.277 I1.212 J0.897
X-1.969 Y-0.897 Z-8.692 I-1.212 J-0.897
X0.455 Y0.897 Z-9.106 I1.212 J0.897
X-1.969 Y-0.897 Z-9.521 I-1.212 J-0.897
X0.455 Y0.897 Z-9.935 I1.212 J0.897
X-1.969 Y-0.897 Z-10.35 I-1.212 J-0.897
X0.455 Y0.897 Z-10.764 I1.212 J0.897
X-1.969 Y-0.897 Z-11.179 I-1.212 J-0.897
X0.455 Y0.897 Z-11.593 I1.212 J0.897
X-1.969 Y-0.897 Z-12.008 I-1.212 J-0.897
X0.455 Y0.897 Z-12.422 I1.212 J0.897
X-1.969 Y-0.897 Z-12.837 I-1.212 J-0.897
X0.455 Y0.897 Z-13.252 I1.212 J0.897
X-1.969 Y-0.897 Z-13.666 I-1.212 J-0.897
X0.455 Y0.897 Z-14.081 I1.212 J0.897
X-1.969 Y-0.897 Z-14.495 I-1.212 J-0.897
X0.455 Y0.897 Z-14.91 I1.212 J0.897
X-2.265 Y0 Z-15.24 I-1.212 J-0.897
X0.407 Y0 I1.336 J0
X-0.407 Y0 I-0.407 J0 F2160
X2.313 Y0 I1.36 J0
X-2.313 Y0 I-2.313 J0
X2.313 Y0 I2.313 J0
G1 X2.307 Y0.06 Z-15.228
X2.29 Y0.119 Z-15.216
X2.267 Y0.165 Z-15.181
X2.236 Y0.206 Z-15.147
X2.186 Y0.253 Z-15.044
X2.167 Y0.267 Z-14.923
G0 Z11
X-0.555 Y2.12
Z5
G1 Z1 F1080
Z-9.842 F2160
X-0.563 Y2.122 Z-9.913
X-0.585 Y2.129 Z-9.98
X-0.622 Y2.14 Z-10.04
X-0.67 Y2.155 Z-10.091
X-0.727 Y2.173 Z-10.129
X-0.791 Y2.192 Z-10.152
X-0.859 Y2.213 Z-10.16
G3 X-1.567 Y2.09 I-0.233 J-0.757
X1.567 Y-2.09 I1.567 J-2.09
X-1.567 Y2.09 I-1.567 J2.09
G1 X-1.616 Y2.045
X-1.654 Y1.991
X-1.68 Y1.93
X-2.148 Y0.412
X-2.169 Y0.345 Z-10.152
X-2.189 Y0.281 Z-10.129
X-2.206 Y0.223 Z-10.091
X-2.221 Y0.175 Z-10.04
X-2.232 Y0.139 Z-9.98
X-2.239 Y0.117 Z-9.913
X-2.242 Y0.109 Z-9.842
G0 Z11
X4.066 Y-0.961
Z5
G1 Z2.816 F1080
X4.09 Y-0.932 Z2.666
X4.152 Y-0.847 Z2.551
X4.229 Y-0.722 Z2.5
G3 X1.58 Y0.722 Z2.085 I-1.324 J0.722
X4.229 Y-0.722 Z1.671 I1.324 J-0.722
X1.58 Y0.722 Z1.256 I-1.324 J0.722
X4.229 Y-0.722 Z0.842 I1.324 J-0.722
X1.58 Y0.722 Z0.427 I-1.324 J0.722
X4.229 Y-0.722 Z0.013 I1.324 J-0.722
X1.58 Y0.722 Z-0.402 I-1.324 J0.722
X4.229 Y-0.722 Z-0.816 I1.324 J-0.722
X1.58 Y0.722 Z-1.231 I-1.324 J0.722
X4.229 Y-0.722 Z-1.645 I1.324 J-0.722
X1.58 Y0.722 Z-2.06 I-1.324 J0.722
X4.229 Y-0.722 Z-2.474 I1.324 J-0.722
X4.412 Y0 Z-2.54 I-1.324 J0.722
X-4.412 Y0 I-4.412 J0 F2160
X4.412 Y0 I4.412 J0
X4.145 Y0.314 I-0.318 J0
G1 X2.638 Y0.552
X2.568 Y0.563 Z-2.532
X2.502 Y0.574 Z-2.509
X2.442 Y0.583 Z-2.471
X2.393 Y0.591 Z-2.42
X2.355 Y0.597 Z-2.36
X2.332 Y0.601 Z-2.293
X2.324 Y0.602 Z-2.223
G0 Z11
X0.604 Y80.649
Z5
G1 Z2.816 F1080
X0.588 Y80.684 Z2.666
X0.537 Y80.775 Z2.551
X0.455 Y80.897 Z2.5
G3 X-1.969 Y79.103 Z2.085 I-1.212 J-0.897
X0.455 Y80.897 Z1.671 I1.212 J0.897
X-1.969 Y79.103 Z1.256 I-1.212 J-0.897
X0.455 Y80.897 Z0.842 I1.212 J0.897
X-1.969 Y79.103 Z0.427 I-1.212 J-0.897
X0.455 Y80.897 Z0.013 I1.212 J0.897
X-1.969 Y79.103 Z-0.402 I-1.212 J-0.897
X0.455 Y80.897 Z-0.816 I1.212 J0.897
X-1.969 Y79.103 Z-1.231 I-1.212 J-0.897
X0.455 Y80.897 Z-1.645 I1.212 J0.897
X-1.969 Y79.103 Z-2.06 I-1.212 J-0.897
X0.455 Y80.897 Z-2.474 I1.212 J0.897
X-1.969 Y79.103 Z-2.889 I-1.212 J-0.897
X0.455 Y80.897 Z-3.303 I1.212 J0.897
X-1.969 Y79.103 Z-3.718 I-1.212 J-0.897
X0.455 Y80.897 Z-4.132 I1.212 J0.897
X-1.969 Y79.103 Z-4.547 I-1.212 J-0.897
X0.455 Y80.897 Z-4.961 I1.212 J0.897
X-1.969 Y79.103 Z-5.376 I-1.212 J-0.897
X0.455 Y80.897 Z-5.79 I1.212 J0.897
X-1.969 Y79.103 Z-6.205 I-1.212 J-0.897
X0.455 Y80.897 Z-6.619 I1.212 J0.897
X-1.969 Y79.103 Z-7.034 I-1.212 J-0.897
X0.455 Y80.897 Z-7.448 I1.212 J0.897
X-1.969 Y79.103 Z-7.863 I-1.212 J-0.897
X0.455 Y80.897 Z-8.277 I1.212 J0.897
X-1.969 Y79.103 Z-8.692 I-1.212 J-0.897
X0.455 Y80.897 Z-9.106 I1.212 J0.897
X-1.969 Y79.103 Z-9.521 I-1.212 J-0.897
X0.455 Y80.897 Z-9.935 I1.212 J0.897
X-1.969 Y79.103 Z-10.35 I-1.212 J-0.897
X0.455 Y80.897 Z-10.764 I1.212 J0.897
X-1.969 Y79.103 Z-11.179 I-1.212 J-0.897
X0.455 Y80.897 Z-11.593 I1.212 J0.897
X-1.969 Y79.103 Z-12.008 I-1.212 J-0.897
X0.455 Y80.897 Z-12.422 I1.212 J0.897
X-1.969 Y79.103 Z-12.837 I-1.212 J-0.897
X0.455 Y80.897 Z-13.252 I1.212 J0.897
X-1.969 Y79.103 Z-13.666 I-1.212 J-0.897
X0.455 Y80.897 Z-14.081 I1.212 J0.897
X-1.969 Y79.103 Z-14.495 I-1.212 J-0.897
X0.455 Y80.897 Z-14.91 I1.212 J0.897
X-2.265 Y80 Z-15.24 I-1.212 J-0.897
X0.407 Y80 I1.336 J0
X-0.407 Y80 I-0.407 J0 F2160
X2.313 Y80 I1.36 J0
X-2.313 Y80 I-2.313 J0
X2.313 Y80 I2.313 J0
G1 X2.307 Y80.06 Z-15.228
X2.29 Y80.119 Z-15.216
X2.267 Y80.165 Z-15.181
X2.236 Y80.206 Z-15.147
X2.186 Y80.253 Z-15.044
X2.167 Y80.267 Z-14.923
G0 Z11
X2.035 Y79.183
Z5
G1 Z1 F1080
Z-9.842 F2160
X2.041 Y79.188 Z-9.913
X2.06 Y79.202 Z-9.98
X2.091 Y79.224 Z-10.04
X2.131 Y79.254 Z-10.091
X2.18 Y79.289 Z-10.129
X2.234 Y79.329 Z-10.152
X2.292 Y79.37 Z-10.16
G3 X2.612 Y80 I-0.458 J0.63
X-2.612 Y80 I-2.612 J0
X2.612 Y80 I2.612 J0
G1 X2.606 Y80.066
X2.585 Y80.129
X2.552 Y80.187
X1.619 Y81.471
X1.577 Y81.528 Z-10.152
X1.538 Y81.582 Z-10.129
X1.502 Y81.631 Z-10.091
X1.473 Y81.672 Z-10.04
X1.451 Y81.702 Z-9.98
X1.437 Y81.721 Z-9.913
X1.432 Y81.728 Z-9.842
G0 Z11
X4.066 Y79.039
Z5
G1 Z2.816 F1080
X4.09 Y79.068 Z2.666
X4.152 Y79.153 Z2.551
X4.229 Y79.278 Z2.5
G3 X1.58 Y80.722 Z2.085 I-1.324 J0.722
X4.229 Y79.278 Z1.671 I1.324 J-0.722
X1.58 Y80.722 Z1.256 I-1.324 J0.722
X4.229 Y79.278 Z0.842 I1.324 J-0.722
X1.58 Y80.722 Z0.427 I-1.324 J0.722
X4.229 Y79.278 Z0.013 I1.324 J-0.722
X1.58 Y80.722 Z-0.402 I-1.324 J0.722
X4.229 Y79.278 Z-0.816 I1.324 J-0.722
X1.58 Y80.722 Z-1.231 I-1.324 J0.722
X4.229 Y79.278 Z-1.645 I1.324 J-0.722
X1.58 Y80.722 Z-2.06 I-1.324 J0.722
X4.229 Y79.278 Z-2.474 I1.324 J-0.722
X4.412 Y80 Z-2.54 I-1.324 J0.722
X-4.412 Y80 I-4.412 J0 F2160
X4.412 Y80 I4.412 J0
X4.145 Y80.314 I-0.318 J0
G1 X2.638 Y80.552
X2.568 Y80.563 Z-2.532
X2.502 Y80.574 Z-2.509
X2.442 Y80.583 Z-2.471
X2.393 Y80.591 Z-2.42
X2.355 Y80.597 Z-2.36
X2.332 Y80.601 Z-2.293
X2.324 Y80.602 Z-2.223
G0 Z11
X360.604 Y80.649
Z5
G1 Z2.816 F1080
X360.588 Y80.684 Z2.666
X360.537 Y80.775 Z2.551
X360.455 Y80.897 Z2.5
G3 X358.031 Y79.103 Z2.085 I-1.212 J-0.897
X360.455 Y80.897 Z1.671 I1.212 J0.897
X358.031 Y79.103 Z1.256 I-1.212 J-0.897
X360.455 Y80.897 Z0.842 I1.212 J0.897
X358.031 Y79.103 Z0.427 I-1.212 J-0.897
X360.455 Y80.897 Z0.013 I1.212 J0.897
X358.031 Y79.103 Z-0.402 I-1.212 J-0.897
X360.455 Y80.897 Z-0.816 I1.212 J0.897
X358.031 Y79.103 Z-1.231 I-1.212 J-0.897
X360.455 Y80.897 Z-1.645 I1.212 J0.897
X358.031 Y79.103 Z-2.06 I-1.212 J-0.897
X360.455 Y80.897 Z-2.474 I1.212 J0.897
X358.031 Y79.103 Z-2.889 I-1.212 J-0.897
X360.455 Y80.897 Z-3.303 I1.212 J0.897
X358.031 Y79.103 Z-3.718 I-1.212 J-0.897
X360.455 Y80.897 Z-4.132 I1.212 J0.897
X358.031 Y79.103 Z-4.547 I-1.212 J-0.897
X360.455 Y80.897 Z-4.961 I1.212 J0.897
X358.031 Y79.103 Z-5.376 I-1.212 J-0.897
X360.455 Y80.897 Z-5.79 I1.212 J0.897
X358.031 Y79.103 Z-6.205 I-1.212 J-0.897
X360.455 Y80.897 Z-6.619 I1.212 J0.897
X358.031 Y79.103 Z-7.034 I-1.212 J-0.897
X360.455 Y80.897 Z-7.448 I1.212 J0.897
X358.031 Y79.103 Z-7.863 I-1.212 J-0.897
X360.455 Y80.897 Z-8.277 I1.212 J0.897
X358.031 Y79.103 Z-8.692 I-1.212 J-0.897
X360.455 Y80.897 Z-9.106 I1.212 J0.897
X358.031 Y79.103 Z-9.521 I-1.212 J-0.897
X360.455 Y80.897 Z-9.935 I1.212 J0.897
X358.031 Y79.103 Z-10.35 I-1.212 J-0.897
X360.455 Y80.897 Z-10.764 I1.212 J0.897
X358.031 Y79.103 Z-11.179 I-1.212 J-0.897
X360.455 Y80.897 Z-11.593 I1.212 J0.897
X358.031 Y79.103 Z-12.008 I-1.212 J-0.897
X360.455 Y80.897 Z-12.422 I1.212 J0.897
X358.031 Y79.103 Z-12.837 I-1.212 J-0.897
X360.455 Y80.897 Z-13.252 I1.212 J0.897
X358.031 Y79.103 Z-13.666 I-1.212 J-0.897
X360.455 Y80.897 Z-14.081 I1.212 J0.897
X358.031 Y79.103 Z-14.495 I-1.212 J-0.897
X360.455 Y80.897 Z-14.91 I1.212 J0.897
X357.735 Y80 Z-15.24 I-1.212 J-0.897
X360.408 Y80 I1.336 J0
X359.592 Y80 I-0.408 J0 F2160
X362.313 Y80 I1.36 J0
X357.688 Y80 I-2.313 J0
X362.313 Y80 I2.313 J0
G1 X362.307 Y80.06 Z-15.228
X362.29 Y80.119 Z-15.216
X362.267 Y80.165 Z-15.181
X362.236 Y80.206 Z-15.147
X362.186 Y80.253 Z-15.044
X362.167 Y80.267 Z-14.923
G0 Z11
X359.445 Y82.12
Z5
G1 Z1 F1080
Z-9.842 F2160
X359.437 Y82.122 Z-9.913
X359.415 Y82.129 Z-9.98
X359.378 Y82.14 Z-10.04
X359.33 Y82.155 Z-10.091
X359.273 Y82.173 Z-10.129
X359.209 Y82.192 Z-10.152
X359.141 Y82.213 Z-10.16
G3 X358.432 Y82.09 I-0.233 J-0.757
X361.568 Y77.91 I1.568 J-2.09
X358.432 Y82.09 I-1.568 J2.09
G1 X358.384 Y82.045
X358.346 Y81.991
X358.32 Y81.93
X357.852 Y80.412
X357.831 Y80.345 Z-10.152
X357.811 Y80.281 Z-10.129
X357.794 Y80.223 Z-10.091
X357.779 Y80.175 Z-10.04
X357.768 Y80.139 Z-9.98
X357.761 Y80.117 Z-9.913
X357.758 Y80.109 Z-9.842
G0 Z11
X364.066 Y79.039
Z5
G1 Z2.816 F1080
X364.09 Y79.068 Z2.666
X364.152 Y79.153 Z2.551
X364.229 Y79.278 Z2.5
G3 X361.58 Y80.722 Z2.085 I-1.324 J0.722
X364.229 Y79.278 Z1.671 I1.324 J-0.722
X361.58 Y80.722 Z1.256 I-1.324 J0.722
X364.229 Y79.278 Z0.842 I1.324 J-0.722
X361.58 Y80.722 Z0.427 I-1.324 J0.722
X364.229 Y79.278 Z0.013 I1.324 J-0.722
X361.58 Y80.722 Z-0.402 I-1.324 J0.722
X364.229 Y79.278 Z-0.816 I1.324 J-0.722
X361.58 Y80.722 Z-1.231 I-1.324 J0.722
X364.229 Y79.278 Z-1.645 I1.324 J-0.722
X361.58 Y80.722 Z-2.06 I-1.324 J0.722
X364.229 Y79.278 Z-2.474 I1.324 J-0.722
X364.413 Y80 Z-2.54 I-1.324 J0.722
X355.587 Y80 I-4.413 J0 F2160
X364.413 Y80 I4.413 J0
X364.145 Y80.314 I-0.318 J0
G1 X362.638 Y80.552
X362.568 Y80.563 Z-2.532
X362.502 Y80.574 Z-2.509
X362.442 Y80.583 Z-2.471
X362.393 Y80.591 Z-2.42
X362.355 Y80.597 Z-2.36
X362.332 Y80.601 Z-2.293
X362.324 Y80.602 Z-2.223
G0 Z11
X360.604 Y0.649
Z5
G1 Z2.816 F1080
X360.588 Y0.684 Z2.666
X360.537 Y0.775 Z2.551
X360.455 Y0.897 Z2.5
G3 X358.031 Y-0.897 Z2.085 I-1.212 J-0.897
X360.455 Y0.897 Z1.671 I1.212 J0.897
X358.031 Y-0.897 Z1.256 I-1.212 J-0.897
X360.455 Y0.897 Z0.842 I1.212 J0.897
X358.031 Y-0.897 Z0.427 I-1.212 J-0.897
X360.455 Y0.897 Z0.013 I1.212 J0.897
X358.031 Y-0.897 Z-0.402 I-1.212 J-0.897
X360.455 Y0.897 Z-0.816 I1.212 J0.897
X358.031 Y-0.897 Z-1.231 I-1.212 J-0.897
X360.455 Y0.897 Z-1.645 I1.212 J0.897
X358.031 Y-0.897 Z-2.06 I-1.212 J-0.897
X360.455 Y0.897 Z-2.474 I1.212 J0.897
X358.031 Y-0.897 Z-2.889 I-1.212 J-0.897
X360.455 Y0.897 Z-3.303 I1.212 J0.897
X358.031 Y-0.897 Z-3.718 I-1.212 J-0.897
X360.455 Y0.897 Z-4.132 I1.212 J0.897
X358.031 Y-0.897 Z-4.547 I-1.212 J-0.897
X360.455 Y0.897 Z-4.961 I1.212 J0.897
X358.031 Y-0.897 Z-5.376 I-1.212 J-0.897
X360.455 Y0.897 Z-5.79 I1.212 J0.897
X358.031 Y-0.897 Z-6.205 I-1.212 J-0.897
X360.455 Y0.897 Z-6.619 I1.212 J0.897
X358.031 Y-0.897 Z-7.034 I-1.212 J-0.897
X360.455 Y0.897 Z-7.448 I1.212 J0.897
X358.031 Y-0.897 Z-7.863 I-1.212 J-0.897
X360.455 Y0.897 Z-8.277 I1.212 J0.897
X358.031 Y-0.897 Z-8.692 I-1.212 J-0.897
X360.455 Y0.897 Z-9.106 I1.212 J0.897
X358.031 Y-0.897 Z-9.521 I-1.212 J-0.897
X360.455 Y0.897 Z-9.935 I1.212 J0.897
X358.031 Y-0.897 Z-10.35 I-1.212 J-0.897
X360.455 Y0.897 Z-10.764 I1.212 J0.897
X358.031 Y-0.897 Z-11.179 I-1.212 J-0.897
X360.455 Y0.897 Z-11.593 I1.212 J0.897
X358.031 Y-0.897 Z-12.008 I-1.212 J-0.897
X360.455 Y0.897 Z-12.422 I1.212 J0.897
X358.031 Y-0.897 Z-12.837 I-1.212 J-0.897
X360.455 Y0.897 Z-13.252 I1.212 J0.897
X358.031 Y-0.897 Z-13.666 I-1.212 J-0.897
X360.455 Y0.897 Z-14.081 I1.212 J0.897
X358.031 Y-0.897 Z-14.495 I-1.212 J-0.897
X360.455 Y0.897 Z-14.91 I1.212 J0.897
X357.735 Y0 Z-15.24 I-1.212 J-0.897
X360.408 Y0 I1.336 J0
X359.592 Y0 I-0.408 J0 F2160
X362.313 Y0 I1.36 J0
X357.688 Y0 I-2.313 J0
X362.313 Y0 I2.313 J0
G1 X362.307 Y0.06 Z-15.228
X362.29 Y0.119 Z-15.216
X362.267 Y0.165 Z-15.181
X362.236 Y0.206 Z-15.147
X362.186 Y0.253 Z-15.044
X362.167 Y0.267 Z-14.923
G0 Z11
X359.445 Y2.12
Z5
G1 Z1 F1080
Z-9.842 F2160
X359.437 Y2.122 Z-9.913
X359.415 Y2.129 Z-9.98
X359.378 Y2.14 Z-10.04
X359.33 Y2.155 Z-10.091
X359.273 Y2.173 Z-10.129
X359.209 Y2.192 Z-10.152
X359.141 Y2.213 Z-10.16
G3 X358.432 Y2.09 I-0.233 J-0.757
X361.568 Y-2.09 I1.568 J-2.09
X358.432 Y2.09 I-1.568 J2.09
G1 X358.384 Y2.045
X358.346 Y1.991
X358.32 Y1.93
X357.852 Y0.412
X357.831 Y0.345 Z-10.152
X357.811 Y0.281 Z-10.129
X357.794 Y0.223 Z-10.091
X357.779 Y0.175 Z-10.04
X357.768 Y0.139 Z-9.98
X357.761 Y0.117 Z-9.913
X357.758 Y0.109 Z-9.842
G0 Z11
X364.066 Y-0.961
Z5
G1 Z2.816 F1080
X364.09 Y-0.932 Z2.666
X364.152 Y-0.847 Z2.551
X364.229 Y-0.722 Z2.5
G3 X361.58 Y0.722 Z2.085 I-1.324 J0.722
X364.229 Y-0.722 Z1.671 I1.324 J-0.722
X361.58 Y0.722 Z1.256 I-1.324 J0.722
X364.229 Y-0.722 Z0.842 I1.324 J-0.722
X361.58 Y0.722 Z0.427 I-1.324 J0.722
X364.229 Y-0.722 Z0.013 I1.324 J-0.722
X361.58 Y0.722 Z-0.402 I-1.324 J0.722
X364.229 Y-0.722 Z-0.816 I1.324 J-0.722
X361.58 Y0.722 Z-1.231 I-1.324 J0.722
X364.229 Y-0.722 Z-1.645 I1.324 J-0.722
X361.58 Y0.722 Z-2.06 I-1.324 J0.722
X364.229 Y-0.722 Z-2.474 I1.324 J-0.722
X364.413 Y0 Z-2.54 I-1.324 J0.722
X355.587 Y0 I-4.413 J0 F2160
X364.413 Y0 I4.413 J0
X364.145 Y0.314 I-0.318 J0
G1 X362.638 Y0.552
X362.568 Y0.563 Z-2.532
X362.502 Y0.574 Z-2.509
X362.442 Y0.583 Z-2.471
X362.393 Y0.591 Z-2.42
X362.355 Y0.597 Z-2.36
X362.332 Y0.601 Z-2.293
X362.324 Y0.602 Z-2.223
G0 Z11
X720.604 Y0.649
Z5
G1 Z2.816 F1080
X720.588 Y0.684 Z2.666
X720.537 Y0.775 Z2.551
X720.455 Y0.897 Z2.5
G3 X720.148 Y1.207 Z2.462 I-1.212 J-0.897
X718.338 Y-1.207 Z2.047 I-0.905 J-1.206
X720.148 Y1.207 Z1.633 I0.905 J1.207
X718.338 Y-1.207 Z1.218 I-0.905 J-1.207
X720.148 Y1.207 Z0.804 I0.905 J1.207
X718.338 Y-1.207 Z0.389 I-0.905 J-1.207
X720.148 Y1.207 Z-0.025 I0.905 J1.207
X718.338 Y-1.207 Z-0.44 I-0.905 J-1.207
X720.148 Y1.207 Z-0.854 I0.905 J1.207
X718.338 Y-1.207 Z-1.269 I-0.905 J-1.207
X720.148 Y1.207 Z-1.683 I0.905 J1.207
X718.338 Y-1.207 Z-2.098 I-0.905 J-1.207
X720.148 Y1.207 Z-2.512 I0.905 J1.207
X718.338 Y-1.207 Z-2.927 I-0.905 J-1.207
X720.148 Y1.207 Z-3.341 I0.905 J1.207
X718.338 Y-1.207 Z-3.756 I-0.905 J-1.207
X720.148 Y1.207 Z-4.17 I0.905 J1.207
X718.338 Y-1.207 Z-4.585 I-0.905 J-1.207
X720.148 Y1.207 Z-5 I0.905 J1.207
X718.338 Y-1.207 Z-5.414 I-0.905 J-1.207
X720.148 Y1.207 Z-5.829 I0.905 J1.207
X718.338 Y-1.207 Z-6.243 I-0.905 J-1.207
X720.148 Y1.207 Z-6.658 I0.905 J1.207
X718.338 Y-1.207 Z-7.072 I-0.905 J-1.207
X720.148 Y1.207 Z-7.487 I0.905 J1.207
X718.338 Y-1.207 Z-7.901 I-0.905 J-1.207
X720.148 Y1.207 Z-8.316 I0.905 J1.207
X718.338 Y-1.207 Z-8.73 I-0.905 J-1.207
X720.148 Y1.207 Z-9.145 I0.905 J1.207
X718.338 Y-1.207 Z-9.559 I-0.905 J-1.207
X720.148 Y1.207 Z-9.974 I0.905 J1.207
X718.338 Y-1.207 Z-10.388 I-0.905 J-1.207
X720.148 Y1.207 Z-10.803 I0.905 J1.207
X718.338 Y-1.207 Z-11.217 I-0.905 J-1.207
X720.148 Y1.207 Z-11.632 I0.905 J1.207
X718.338 Y-1.207 Z-12.046 I-0.905 J-1.207
X720.148 Y1.207 Z-12.461 I0.905 J1.207
X718.338 Y-1.207 Z-12.875 I-0.905 J-1.207
X720.148 Y1.207 Z-13.29 I0.905 J1.207
X718.338 Y-1.207 Z-13.704 I-0.905 J-1.207
X720.148 Y1.207 Z-14.119 I0.905 J1.207
X718.338 Y-1.207 Z-14.533 I-0.905 J-1.207
X720.148 Y1.207 Z-14.948 I0.905 J1.207
X717.735 Y0 Z-15.24 I-0.905 J-1.207
X720.407 Y0 I1.336 J0
X719.593 Y0 I-0.407 J0 F2160
X722.313 Y0 I1.36 J0
X717.688 Y0 I-2.313 J0
X722.313 Y0 I2.313 J0
G1 X722.307 Y0.06 Z-15.228
X722.29 Y0.119 Z-15.216
X722.267 Y0.165 Z-15.181
X722.236 Y0.206 Z-15.147
X722.186 Y0.253 Z-15.044
X722.167 Y0.267 Z-14.923
G0 Z11
X722.035 Y-0.817
Z5
G1 Z1 F1080
Z-9.842 F2160
X722.041 Y-0.812 Z-9.913
X722.06 Y-0.798 Z-9.98
X722.091 Y-0.776 Z-10.04
X722.131 Y-0.746 Z-10.091
X722.18 Y-0.711 Z-10.129
X722.234 Y-0.671 Z-10.152
X722.292 Y-0.63 Z-10.16
G3 X722.612 Y0 I-0.458 J0.63
X717.388 Y0 I-2.612 J0
X722.612 Y0 I2.612 J0
G1 X722.606 Y0.066
X722.585 Y0.129
X722.552 Y0.187
X721.619 Y1.471
X721.577 Y1.528 Z-10.152
X721.538 Y1.582 Z-10.129
X721.502 Y1.631 Z-10.091
X721.473 Y1.672 Z-10.04
X721.451 Y1.702 Z-9.98
X721.437 Y1.721 Z-9.913
X721.432 Y1.728 Z-9.842
G0 Z11
X724.066 Y-0.961
Z5
G1 Z2.816 F1080
X724.09 Y-0.932 Z2.666
X724.152 Y-0.847 Z2.551
X724.229 Y-0.722 Z2.5
G3 X721.58 Y0.722 Z2.085 I-1.324 J0.722
X724.229 Y-0.722 Z1.671 I1.324 J-0.722
X721.58 Y0.722 Z1.256 I-1.324 J0.722
X724.229 Y-0.722 Z0.842 I1.324 J-0.722
X721.58 Y0.722 Z0.427 I-1.324 J0.722
X724.229 Y-0.722 Z0.013 I1.324 J-0.722
X721.58 Y0.722 Z-0.402 I-1.324 J0.722
X724.229 Y-0.722 Z-0.816 I1.324 J-0.722
X721.58 Y0.722 Z-1.231 I-1.324 J0.722
X724.229 Y-0.722 Z-1.645 I1.324 J-0.722
X721.58 Y0.722 Z-2.06 I-1.324 J0.722
X724.229 Y-0.722 Z-2.474 I1.324 J-0.722
X724.412 Y0 Z-2.54 I-1.324 J0.722
X715.588 Y0 I-4.412 J0 F2160
X724.412 Y0 I4.412 J0
X724.145 Y0.314 I-0.318 J0
G1 X722.638 Y0.552
X722.568 Y0.563 Z-2.532
X722.502 Y0.574 Z-2.509
X722.442 Y0.583 Z-2.471
X722.393 Y0.591 Z-2.42
X722.355 Y0.597 Z-2.36
X722.332 Y0.601 Z-2.293
X722.324 Y0.602 Z-2.223
G0 Z11
X720.604 Y80.649
Z5
G1 Z2.816 F1080
X720.588 Y80.684 Z2.666
X720.537 Y80.775 Z2.551
X720.455 Y80.897 Z2.5
G3 X720.148 Y81.206 Z2.462 I-1.212 J-0.897
X718.338 Y78.794 Z2.047 I-0.905 J-1.206
X720.148 Y81.206 Z1.633 I0.905 J1.206
X718.338 Y78.793 Z1.218 I-0.905 J-1.206
X720.148 Y81.207 Z0.804 I0.905 J1.207
X718.338 Y78.793 Z0.389 I-0.905 J-1.207
X720.148 Y81.207 Z-0.025 I0.905 J1.207
X718.338 Y78.793 Z-0.44 I-0.905 J-1.207
X720.148 Y81.207 Z-0.854 I0.905 J1.207
X718.338 Y78.793 Z-1.269 I-0.905 J-1.207
X720.148 Y81.207 Z-1.683 I0.905 J1.207
X718.338 Y78.793 Z-2.098 I-0.905 J-1.207
X720.148 Y81.207 Z-2.512 I0.905 J1.207
X718.338 Y78.793 Z-2.927 I-0.905 J-1.207
X720.148 Y81.207 Z-3.341 I0.905 J1.207
X718.338 Y78.793 Z-3.756 I-0.905 J-1.207
X720.148 Y81.207 Z-4.17 I0.905 J1.207
X718.338 Y78.793 Z-4.585 I-0.905 J-1.207
X720.148 Y81.207 Z-5 I0.905 J1.207
X718.338 Y78.793 Z-5.414 I-0.905 J-1.207
X720.148 Y81.207 Z-5.829 I0.905 J1.207
X718.338 Y78.793 Z-6.243 I-0.905 J-1.207
X720.148 Y81.207 Z-6.658 I0.905 J1.207
X718.338 Y78.793 Z-7.072 I-0.905 J-1.207
X720.148 Y81.207 Z-7.487 I0.905 J1.207
X718.338 Y78.793 Z-7.901 I-0.905 J-1.207
X720.148 Y81.207 Z-8.316 I0.905 J1.207
X718.338 Y78.793 Z-8.73 I-0.905 J-1.207
X720.148 Y81.207 Z-9.145 I0.905 J1.207
X718.338 Y78.793 Z-9.559 I-0.905 J-1.207
X720.148 Y81.207 Z-9.974 I0.905 J1.207
X718.338 Y78.793 Z-10.388 I-0.905 J-1.207
X720.148 Y81.207 Z-10.803 I0.905 J1.207
X718.338 Y78.793 Z-11.217 I-0.905 J-1.207
X720.148 Y81.207 Z-11.632 I0.905 J1.207
X718.338 Y78.793 Z-12.046 I-0.905 J-1.207
X720.148 Y81.207 Z-12.461 I0.905 J1.207
X718.338 Y78.793 Z-12.875 I-0.905 J-1.207
X720.148 Y81.207 Z-13.29 I0.905 J1.207
X718.338 Y78.793 Z-13.704 I-0.905 J-1.207
X720.148 Y81.207 Z-14.119 I0.905 J1.207
X718.338 Y78.793 Z-14.533 I-0.905 J-1.207
X720.148 Y81.207 Z-14.948 I0.905 J1.207
X717.735 Y80 Z-15.24 I-0.905 J-1.207
X720.407 Y80 I1.336 J0
X719.593 Y80 I-0.407 J0 F2160
X722.313 Y80 I1.36 J0
X717.688 Y80 I-2.313 J0
X722.313 Y80 I2.313 J0
G1 X722.307 Y80.06 Z-15.228
X722.29 Y80.119 Z-15.216
X722.267 Y80.165 Z-15.181
X722.236 Y80.206 Z-15.147
X722.186 Y80.253 Z-15.044
X722.167 Y80.267 Z-14.923
G0 Z11
X722.035 Y79.183
Z5
G1 Z1 F1080
Z-9.842 F2160
X722.041 Y79.188 Z-9.913
X722.06 Y79.202 Z-9.98
X722.091 Y79.224 Z-10.04
X722.131 Y79.254 Z-10.091
X722.18 Y79.289 Z-10.129
X722.234 Y79.329 Z-10.152
X722.292 Y79.37 Z-10.16
G3 X722.612 Y80 I-0.458 J0.63
X717.388 Y80 I-2.612 J0
X722.612 Y80 I2.612 J0
G1 X722.606 Y80.066
X722.585 Y80.129
X722.552 Y80.187
X721.619 Y81.471
X721.577 Y81.528 Z-10.152
X721.538 Y81.582 Z-10.129
X721.502 Y81.631 Z-10.091
X721.473 Y81.672 Z-10.04
X721.451 Y81.702 Z-9.98
X721.437 Y81.721 Z-9.913
X721.432 Y81.728 Z-9.842
G0 Z11
X724.066 Y79.039
Z5
G1 Z2.816 F1080
X724.09 Y79.068 Z2.666
X724.152 Y79.153 Z2.551
X724.229 Y79.278 Z2.5
G3 X721.58 Y80.722 Z2.085 I-1.324 J0.722
X724.229 Y79.278 Z1.671 I1.324 J-0.722
X721.58 Y80.722 Z1.256 I-1.324 J0.722
X724.229 Y79.278 Z0.842 I1.324 J-0.722
X721.58 Y80.722 Z0.427 I-1.324 J0.722
X724.229 Y79.278 Z0.013 I1.324 J-0.722
X721.58 Y80.722 Z-0.402 I-1.324 J0.722
X724.229 Y79.278 Z-0.816 I1.324 J-0.722
X721.58 Y80.722 Z-1.231 I-1.324 J0.722
X724.229 Y79.278 Z-1.645 I1.324 J-0.722
X721.58 Y80.722 Z-2.06 I-1.324 J0.722
X724.229 Y79.278 Z-2.474 I1.324 J-0.722
X724.412 Y80 Z-2.54 I-1.324 J0.722
X715.588 Y80 I-4.412 J0 F2160
X724.412 Y80 I4.412 J0
X724.145 Y80.314 I-0.318 J0
G1 X722.638 Y80.552
X722.568 Y80.563 Z-2.532
X722.502 Y80.574 Z-2.509
X722.442 Y80.583 Z-2.471
X722.393 Y80.591 Z-2.42
X722.355 Y80.597 Z-2.36
X722.332 Y80.601 Z-2.293
X722.324 Y80.602 Z-2.223
G0 Z11
G0 X0 Y0
M5
M30
