(0.25_With Extension Track 48in Boring)
(T6  D=6.35 CR=0 - ZMIN=-15.24 - flat end mill)
G90 G94
G17
G21

(0.25_With Extension Track 48in Boring)
T6
S12000 M3
G54
G0 Z11
X-0.363 Y0.59
Z2
G1 Z0.635 F2190
G19 G2 Y-0.045 Z0 J-0.635 K0
G1 Y-0.363
G17 G3 X0 Y-0.725 I0.363 J0
X0 Y0.725 Z-0.341 I0 J0.725
X0 Y-0.725 Z-0.682 I0 J-0.725
X0 Y0.725 Z-1.024 I0 J0.725
X0 Y-0.725 Z-1.365 I0 J-0.725
X0 Y0.725 Z-1.706 I0 J0.725
X0 Y-0.725 Z-2.047 I0 J-0.725
X0 Y0.725 Z-2.388 I0 J0.725
X0 Y-0.725 Z-2.73 I0 J-0.725
X0 Y0.725 Z-3.071 I0 J0.725
X0 Y-0.725 Z-3.412 I0 J-0.725
X0 Y0.725 Z-3.753 I0 J0.725
X0 Y-0.725 Z-4.094 I0 J-0.725
X0 Y0.725 Z-4.436 I0 J0.725
X0 Y-0.725 Z-4.777 I0 J-0.725
X0 Y0.725 Z-5.118 I0 J0.725
X0 Y-0.725 Z-5.459 I0 J-0.725
X0 Y0.725 Z-5.8 I0 J0.725
X0 Y-0.725 Z-6.142 I0 J-0.725
X0 Y0.725 Z-6.483 I0 J0.725
X0 Y-0.725 Z-6.824 I0 J-0.725
X0 Y0.725 Z-7.165 I0 J0.725
X0 Y-0.725 Z-7.507 I0 J-0.725
X0 Y0.725 Z-7.848 I0 J0.725
X0 Y-0.725 Z-8.189 I0 J-0.725
X0 Y0.725 Z-8.53 I0 J0.725
X0 Y-0.725 Z-8.871 I0 J-0.725
X0 Y0.725 Z-9.213 I0 J0.725
X0 Y-0.725 Z-9.554 I0 J-0.725
X0 Y0.725 Z-9.895 I0 J0.725
X0 Y-0.725 Z-10.236 I0 J-0.725
X0 Y0.725 Z-10.577 I0 J0.725
X0 Y-0.725 Z-10.919 I0 J-0.725
X0 Y0.725 Z-11.26 I0 J0.725
X0 Y-0.725 Z-11.601 I0 J-0.725
X0 Y0.725 Z-11.942 I0 J0.725
X0 Y-0.725 Z-12.283 I0 J-0.725
X0 Y0.725 Z-12.625 I0 J0.725
X0 Y-0.725 Z-12.966 I0 J-0.725
X0 Y0.725 Z-13.307 I0 J0.725
X0 Y-0.725 Z-13.648 I0 J-0.725
X0 Y0.725 Z-13.989 I0 J0.725
X0 Y-0.725 Z-14.331 I0 J-0.725
X0 Y0.725 Z-14.672 I0 J0.725
X0 Y-0.725 Z-15.013 I0 J-0.725
X0.63 Y0.359 Z-15.24 I0 J0.725
X-0.63 Y-0.359 I-0.63 J-0.359
X0.63 Y0.359 I0.63 J0.359
X0.135 Y0.495 I-0.315 J-0.18
G1 X-0.141 Y0.337
X-0.227 Y0.288 Z-15.232
X-0.311 Y0.24 Z-15.209
X-0.391 Y0.194 Z-15.171
X-0.465 Y0.152 Z-15.119
X-0.531 Y0.114 Z-15.054
X-0.587 Y0.082 Z-14.978
X-0.632 Y0.057 Z-14.893
X-0.665 Y0.038 Z-14.801
X-0.685 Y0.026 Z-14.704
X-0.692 Y0.022 Z-14.605
G0 Z5
X-0.635 Y-1.237
Z2
G1 Z0.635 F2190
G19 G2 Y-1.872 Z0 J-0.635 K0
G1 Y-2.19
G17 G3 X0 Y-2.825 I0.635 J0
X0 Y2.825 Z-0.525 I0 J2.825
X0 Y-2.825 Z-1.05 I0 J-2.825
X0 Y2.825 Z-1.575 I0 J2.825
X0 Y-2.825 Z-2.1 I0 J-2.825
X1.371 Y2.47 Z-2.54 I0 J2.825
X-1.371 Y-2.47 I-1.371 J-2.47
X1.371 Y2.47 I1.371 J2.47
X0.508 Y2.223 I-0.308 J-0.555
G1 X0.353 Y1.945
X0.305 Y1.859 Z-2.532
X0.258 Y1.774 Z-2.509
X0.214 Y1.693 Z-2.471
X0.172 Y1.619 Z-2.419
X0.136 Y1.553 Z-2.354
X0.104 Y1.496 Z-2.278
X0.079 Y1.451 Z-2.193
X0.06 Y1.417 Z-2.101
X0.049 Y1.397 Z-2.004
X0.045 Y1.39 Z-1.905
G0 Z5
X-0.512 Y0.44
Z2
G1 Z0.635 F2190
G19 G2 Y-0.195 Z0 J-0.635 K0
G1 Y-0.512
G17 G3 X0 Y-1.025 I0.512 J0
X0 Y1.025 Z-0.367 I0 J1.025
X0 Y-1.025 Z-0.735 I0 J-1.025
X0 Y1.025 Z-1.102 I0 J1.025
X0 Y-1.025 Z-1.47 I0 J-1.025
X0 Y1.025 Z-1.837 I0 J1.025
X0 Y-1.025 Z-2.205 I0 J-1.025
X0 Y1.025 Z-2.572 I0 J1.025
X0 Y-1.025 Z-2.94 I0 J-1.025
X0 Y1.025 Z-3.307 I0 J1.025
X0 Y-1.025 Z-3.675 I0 J-1.025
X0 Y1.025 Z-4.042 I0 J1.025
X0 Y-1.025 Z-4.409 I0 J-1.025
X0 Y1.025 Z-4.777 I0 J1.025
X0 Y-1.025 Z-5.144 I0 J-1.025
X0 Y1.025 Z-5.512 I0 J1.025
X0 Y-1.025 Z-5.879 I0 J-1.025
X0 Y1.025 Z-6.247 I0 J1.025
X0 Y-1.025 Z-6.614 I0 J-1.025
X0 Y1.025 Z-6.982 I0 J1.025
X0 Y-1.025 Z-7.349 I0 J-1.025
X0 Y1.025 Z-7.717 I0 J1.025
X0 Y-1.025 Z-8.084 I0 J-1.025
X0 Y1.025 Z-8.451 I0 J1.025
X0 Y-1.025 Z-8.819 I0 J-1.025
X0 Y1.025 Z-9.186 I0 J1.025
X0 Y-1.025 Z-9.554 I0 J-1.025
X0 Y1.025 Z-9.921 I0 J1.025
X-0.914 Y-0.465 Z-10.16 I0 J-1.025
X0.914 Y0.465 I0.914 J0.465
X-0.914 Y-0.465 I-0.914 J-0.465
X-0.224 Y-0.689 I0.457 J0.232
G1 X0.059 Y-0.545
X0.147 Y-0.5 Z-10.152
X0.234 Y-0.456 Z-10.129
X0.316 Y-0.414 Z-10.091
X0.391 Y-0.376 Z-10.039
X0.459 Y-0.342 Z-9.974
X0.517 Y-0.312 Z-9.898
X0.563 Y-0.289 Z-9.813
X0.597 Y-0.271 Z-9.721
X0.618 Y-0.261 Z-9.624
X0.625 Y-0.257 Z-9.525
G0 Z5
X-0.512 Y80.44
Z2
G1 Z0.635 F2190
G19 G2 Y79.805 Z0 J-0.635 K0
G1 Y79.488
G17 G3 X0 Y78.975 I0.512 J0
X0 Y81.025 Z-0.367 I0 J1.025
X0 Y78.975 Z-0.735 I0 J-1.025
X0 Y81.025 Z-1.102 I0 J1.025
X0 Y78.975 Z-1.47 I0 J-1.025
X0 Y81.025 Z-1.837 I0 J1.025
X0 Y78.975 Z-2.205 I0 J-1.025
X0 Y81.025 Z-2.572 I0 J1.025
X0 Y78.975 Z-2.94 I0 J-1.025
X0 Y81.025 Z-3.307 I0 J1.025
X0 Y78.975 Z-3.675 I0 J-1.025
X0 Y81.025 Z-4.042 I0 J1.025
X0 Y78.975 Z-4.409 I0 J-1.025
X0 Y81.025 Z-4.777 I0 J1.025
X0 Y78.975 Z-5.144 I0 J-1.025
X0 Y81.025 Z-5.512 I0 J1.025
X0 Y78.975 Z-5.879 I0 J-1.025
X0 Y81.025 Z-6.247 I0 J1.025
X0 Y78.975 Z-6.614 I0 J-1.025
X0 Y81.025 Z-6.982 I0 J1.025
X0 Y78.975 Z-7.349 I0 J-1.025
X0 Y81.025 Z-7.717 I0 J1.025
X0 Y78.975 Z-8.084 I0 J-1.025
X0 Y81.025 Z-8.451 I0 J1.025
X0 Y78.975 Z-8.819 I0 J-1.025
X0 Y81.025 Z-9.186 I0 J1.025
X0 Y78.975 Z-9.554 I0 J-1.025
X0 Y81.025 Z-9.921 I0 J1.025
X-0.914 Y79.535 Z-10.16 I0 J-1.025
X0.914 Y80.465 I0.914 J0.465
X-0.914 Y79.535 I-0.914 J-0.465
X-0.224 Y79.311 I0.457 J0.232
G1 X0.059 Y79.455
X0.147 Y79.5 Z-10.152
X0.234 Y79.544 Z-10.129
X0.316 Y79.586 Z-10.091
X0.391 Y79.624 Z-10.039
X0.459 Y79.658 Z-9.974
X0.517 Y79.688 Z-9.898
X0.563 Y79.711 Z-9.813
X0.597 Y79.729 Z-9.721
X0.618 Y79.739 Z-9.624
X0.625 Y79.743 Z-9.525
G0 Z5
X-0.635 Y78.762
Z2
G1 Z0.635 F2190
G19 G2 Y78.128 Z0 J-0.635 K0
G1 Y77.81
G17 G3 X0 Y77.175 I0.635 J0
X0 Y82.825 Z-0.525 I0 J2.825
X0 Y77.175 Z-1.05 I0 J-2.825
X0 Y82.825 Z-1.575 I0 J2.825
X0 Y77.175 Z-2.1 I0 J-2.825
X1.371 Y82.47 Z-2.54 I0 J2.825
X-1.371 Y77.53 I-1.371 J-2.47
X1.371 Y82.47 I1.371 J2.47
X0.508 Y82.223 I-0.308 J-0.555
G1 X0.353 Y81.945
X0.305 Y81.859 Z-2.532
X0.258 Y81.774 Z-2.509
X0.214 Y81.693 Z-2.471
X0.172 Y81.619 Z-2.419
X0.136 Y81.553 Z-2.354
X0.104 Y81.496 Z-2.278
X0.079 Y81.451 Z-2.193
X0.06 Y81.417 Z-2.101
X0.049 Y81.397 Z-2.004
X0.045 Y81.39 Z-1.905
G0 Z5
X-0.363 Y80.59
Z2
G1 Z0.635 F2190
G19 G2 Y79.955 Z0 J-0.635 K0
G1 Y79.637
G17 G3 X0 Y79.275 I0.363 J0
X0 Y80.725 Z-0.341 I0 J0.725
X0 Y79.275 Z-0.682 I0 J-0.725
X0 Y80.725 Z-1.024 I0 J0.725
X0 Y79.275 Z-1.365 I0 J-0.725
X0 Y80.725 Z-1.706 I0 J0.725
X0 Y79.275 Z-2.047 I0 J-0.725
X0 Y80.725 Z-2.388 I0 J0.725
X0 Y79.275 Z-2.73 I0 J-0.725
X0 Y80.725 Z-3.071 I0 J0.725
X0 Y79.275 Z-3.412 I0 J-0.725
X0 Y80.725 Z-3.753 I0 J0.725
X0 Y79.275 Z-4.094 I0 J-0.725
X0 Y80.725 Z-4.436 I0 J0.725
X0 Y79.275 Z-4.777 I0 J-0.725
X0 Y80.725 Z-5.118 I0 J0.725
X0 Y79.275 Z-5.459 I0 J-0.725
X0 Y80.725 Z-5.8 I0 J0.725
X0 Y79.275 Z-6.142 I0 J-0.725
X0 Y80.725 Z-6.483 I0 J0.725
X0 Y79.275 Z-6.824 I0 J-0.725
X0 Y80.725 Z-7.165 I0 J0.725
X0 Y79.275 Z-7.507 I0 J-0.725
X0 Y80.725 Z-7.848 I0 J0.725
X0 Y79.275 Z-8.189 I0 J-0.725
X0 Y80.725 Z-8.53 I0 J0.725
X0 Y79.275 Z-8.871 I0 J-0.725
X0 Y80.725 Z-9.213 I0 J0.725
X0 Y79.275 Z-9.554 I0 J-0.725
X0 Y80.725 Z-9.895 I0 J0.725
X0 Y79.275 Z-10.236 I0 J-0.725
X0 Y80.725 Z-10.577 I0 J0.725
X0 Y79.275 Z-10.919 I0 J-0.725
X0 Y80.725 Z-11.26 I0 J0.725
X0 Y79.275 Z-11.601 I0 J-0.725
X0 Y80.725 Z-11.942 I0 J0.725
X0 Y79.275 Z-12.283 I0 J-0.725
X0 Y80.725 Z-12.625 I0 J0.725
X0 Y79.275 Z-12.966 I0 J-0.725
X0 Y80.725 Z-13.307 I0 J0.725
X0 Y79.275 Z-13.648 I0 J-0.725
X0 Y80.725 Z-13.989 I0 J0.725
X0 Y79.275 Z-14.331 I0 J-0.725
X0 Y80.725 Z-14.672 I0 J0.725
X0 Y79.275 Z-15.013 I0 J-0.725
X0.63 Y80.359 Z-15.24 I0 J0.725
X-0.63 Y79.641 I-0.63 J-0.359
X0.63 Y80.359 I0.63 J0.359
X0.135 Y80.495 I-0.315 J-0.18
G1 X-0.141 Y80.337
X-0.227 Y80.288 Z-15.232
X-0.311 Y80.24 Z-15.209
X-0.391 Y80.194 Z-15.171
X-0.465 Y80.152 Z-15.119
X-0.531 Y80.114 Z-15.054
X-0.587 Y80.082 Z-14.978
X-0.632 Y80.057 Z-14.893
X-0.665 Y80.038 Z-14.801
X-0.685 Y80.026 Z-14.704
X-0.692 Y80.022 Z-14.605
G0 Z5
X359.638 Y80.59
Z2
G1 Z0.635 F2190
G19 G2 Y79.955 Z0 J-0.635 K0
G1 Y79.637
G17 G3 X360 Y79.275 I0.362 J0
X360 Y80.725 Z-0.341 I0 J0.725
X360 Y79.275 Z-0.682 I0 J-0.725
X360 Y80.725 Z-1.024 I0 J0.725
X360 Y79.275 Z-1.365 I0 J-0.725
X360 Y80.725 Z-1.706 I0 J0.725
X360 Y79.275 Z-2.047 I0 J-0.725
X360 Y80.725 Z-2.388 I0 J0.725
X360 Y79.275 Z-2.73 I0 J-0.725
X360 Y80.725 Z-3.071 I0 J0.725
X360 Y79.275 Z-3.412 I0 J-0.725
X360 Y80.725 Z-3.753 I0 J0.725
X360 Y79.275 Z-4.094 I0 J-0.725
X360 Y80.725 Z-4.436 I0 J0.725
X360 Y79.275 Z-4.777 I0 J-0.725
X360 Y80.725 Z-5.118 I0 J0.725
X360 Y79.275 Z-5.459 I0 J-0.725
X360 Y80.725 Z-5.8 I0 J0.725
X360 Y79.275 Z-6.142 I0 J-0.725
X360 Y80.725 Z-6.483 I0 J0.725
X360 Y79.275 Z-6.824 I0 J-0.725
X360 Y80.725 Z-7.165 I0 J0.725
X360 Y79.275 Z-7.507 I0 J-0.725
X360 Y80.725 Z-7.848 I0 J0.725
X360 Y79.275 Z-8.189 I0 J-0.725
X360 Y80.725 Z-8.53 I0 J0.725
X360 Y79.275 Z-8.871 I0 J-0.725
X360 Y80.725 Z-9.213 I0 J0.725
X360 Y79.275 Z-9.554 I0 J-0.725
X360 Y80.725 Z-9.895 I0 J0.725
X360 Y79.275 Z-10.236 I0 J-0.725
X360 Y80.725 Z-10.577 I0 J0.725
X360 Y79.275 Z-10.919 I0 J-0.725
X360 Y80.725 Z-11.26 I0 J0.725
X360 Y79.275 Z-11.601 I0 J-0.725
X360 Y80.725 Z-11.942 I0 J0.725
X360 Y79.275 Z-12.283 I0 J-0.725
X360 Y80.725 Z-12.625 I0 J0.725
X360 Y79.275 Z-12.966 I0 J-0.725
X360 Y80.725 Z-13.307 I0 J0.725
X360 Y79.275 Z-13.648 I0 J-0.725
X360 Y80.725 Z-13.989 I0 J0.725
X360 Y79.275 Z-14.331 I0 J-0.725
X360 Y80.725 Z-14.672 I0 J0.725
X360 Y79.275 Z-15.013 I0 J-0.725
X360.63 Y80.359 Z-15.24 I0 J0.725
X359.37 Y79.641 I-0.63 J-0.359
X360.63 Y80.359 I0.63 J0.359
X360.135 Y80.495 I-0.315 J-0.18
G1 X359.859 Y80.337
X359.773 Y80.288 Z-15.232
X359.689 Y80.24 Z-15.209
X359.609 Y80.194 Z-15.171
X359.535 Y80.152 Z-15.119
X359.469 Y80.114 Z-15.054
X359.413 Y80.082 Z-14.978
X359.368 Y80.057 Z-14.893
X359.335 Y80.038 Z-14.801
X359.315 Y80.026 Z-14.704
X359.308 Y80.022 Z-14.605
G0 Z5
X359.365 Y78.762
Z2
G1 Z0.635 F2190
G19 G2 Y78.128 Z0 J-0.635 K0
G1 Y77.81
G17 G3 X360 Y77.175 I0.635 J0
X360 Y82.825 Z-0.525 I0 J2.825
X360 Y77.175 Z-1.05 I0 J-2.825
X360 Y82.825 Z-1.575 I0 J2.825
X360 Y77.175 Z-2.1 I0 J-2.825
X361.371 Y82.47 Z-2.54 I0 J2.825
X358.629 Y77.53 I-1.371 J-2.47
X361.371 Y82.47 I1.371 J2.47
X360.508 Y82.223 I-0.308 J-0.555
G1 X360.353 Y81.945
X360.305 Y81.859 Z-2.532
X360.258 Y81.774 Z-2.509
X360.214 Y81.693 Z-2.471
X360.172 Y81.619 Z-2.419
X360.136 Y81.553 Z-2.354
X360.104 Y81.496 Z-2.278
X360.079 Y81.451 Z-2.193
X360.06 Y81.417 Z-2.101
X360.049 Y81.397 Z-2.004
X360.045 Y81.39 Z-1.905
G0 Z5
X359.487 Y80.44
Z2
G1 Z0.635 F2190
G19 G2 Y79.805 Z0 J-0.635 K0
G1 Y79.488
G17 G3 X360 Y78.975 I0.513 J0
X360 Y81.025 Z-0.367 I0 J1.025
X360 Y78.975 Z-0.735 I0 J-1.025
X360 Y81.025 Z-1.102 I0 J1.025
X360 Y78.975 Z-1.47 I0 J-1.025
X360 Y81.025 Z-1.837 I0 J1.025
X360 Y78.975 Z-2.205 I0 J-1.025
X360 Y81.025 Z-2.572 I0 J1.025
X360 Y78.975 Z-2.94 I0 J-1.025
X360 Y81.025 Z-3.307 I0 J1.025
X360 Y78.975 Z-3.675 I0 J-1.025
X360 Y81.025 Z-4.042 I0 J1.025
X360 Y78.975 Z-4.409 I0 J-1.025
X360 Y81.025 Z-4.777 I0 J1.025
X360 Y78.975 Z-5.144 I0 J-1.025
X360 Y81.025 Z-5.512 I0 J1.025
X360 Y78.975 Z-5.879 I0 J-1.025
X360 Y81.025 Z-6.247 I0 J1.025
X360 Y78.975 Z-6.614 I0 J-1.025
X360 Y81.025 Z-6.982 I0 J1.025
X360 Y78.975 Z-7.349 I0 J-1.025
X360 Y81.025 Z-7.717 I0 J1.025
X360 Y78.975 Z-8.084 I0 J-1.025
X360 Y81.025 Z-8.451 I0 J1.025
X360 Y78.975 Z-8.819 I0 J-1.025
X360 Y81.025 Z-9.186 I0 J1.025
X360 Y78.975 Z-9.554 I0 J-1.025
X360 Y81.025 Z-9.921 I0 J1.025
X359.086 Y79.535 Z-10.16 I0 J-1.025
X360.914 Y80.465 I0.914 J0.465
X359.086 Y79.535 I-0.914 J-0.465
X359.776 Y79.311 I0.457 J0.232
G1 X360.059 Y79.455
X360.147 Y79.5 Z-10.152
X360.234 Y79.544 Z-10.129
X360.316 Y79.586 Z-10.091
X360.391 Y79.624 Z-10.039
X360.459 Y79.658 Z-9.974
X360.516 Y79.688 Z-9.898
X360.563 Y79.711 Z-9.813
X360.597 Y79.729 Z-9.721
X360.618 Y79.739 Z-9.624
X360.625 Y79.743 Z-9.525
G0 Z5
X359.487 Y0.44
Z2
G1 Z0.635 F2190
G19 G2 Y-0.195 Z0 J-0.635 K0
G1 Y-0.512
G17 G3 X360 Y-1.025 I0.513 J0
X360 Y1.025 Z-0.367 I0 J1.025
X360 Y-1.025 Z-0.735 I0 J-1.025
X360 Y1.025 Z-1.102 I0 J1.025
X360 Y-1.025 Z-1.47 I0 J-1.025
X360 Y1.025 Z-1.837 I0 J1.025
X360 Y-1.025 Z-2.205 I0 J-1.025
X360 Y1.025 Z-2.572 I0 J1.025
X360 Y-1.025 Z-2.94 I0 J-1.025
X360 Y1.025 Z-3.307 I0 J1.025
X360 Y-1.025 Z-3.675 I0 J-1.025
X360 Y1.025 Z-4.042 I0 J1.025
X360 Y-1.025 Z-4.409 I0 J-1.025
X360 Y1.025 Z-4.777 I0 J1.025
X360 Y-1.025 Z-5.144 I0 J-1.025
X360 Y1.025 Z-5.512 I0 J1.025
X360 Y-1.025 Z-5.879 I0 J-1.025
X360 Y1.025 Z-6.247 I0 J1.025
X360 Y-1.025 Z-6.614 I0 J-1.025
X360 Y1.025 Z-6.982 I0 J1.025
X360 Y-1.025 Z-7.349 I0 J-1.025
X360 Y1.025 Z-7.716 I0 J1.025
X360 Y-1.025 Z-8.084 I0 J-1.025
X360 Y1.025 Z-8.451 I0 J1.025
X360 Y-1.025 Z-8.819 I0 J-1.025
X360 Y1.025 Z-9.186 I0 J1.025
X360 Y-1.025 Z-9.554 I0 J-1.025
X360 Y1.025 Z-9.921 I0 J1.025
X359.086 Y-0.465 Z-10.16 I0 J-1.025
X360.914 Y0.465 I0.914 J0.465
X359.086 Y-0.465 I-0.914 J-0.465
X359.776 Y-0.689 I0.457 J0.232
G1 X360.059 Y-0.545
X360.147 Y-0.5 Z-10.152
X360.234 Y-0.456 Z-10.129
X360.316 Y-0.414 Z-10.091
X360.391 Y-0.376 Z-10.039
X360.459 Y-0.342 Z-9.974
X360.516 Y-0.312 Z-9.898
X360.563 Y-0.289 Z-9.813
X360.597 Y-0.271 Z-9.721
X360.618 Y-0.261 Z-9.624
X360.625 Y-0.257 Z-9.525
G0 Z5
X359.365 Y-1.237
Z2
G1 Z0.635 F2190
G19 G2 Y-1.872 Z0 J-0.635 K0
G1 Y-2.19
G17 G3 X360 Y-2.825 I0.635 J0
X360 Y2.825 Z-0.525 I0 J2.825
X360 Y-2.825 Z-1.05 I0 J-2.825
X360 Y2.825 Z-1.575 I0 J2.825
X360 Y-2.825 Z-2.1 I0 J-2.825
X361.371 Y2.47 Z-2.54 I0 J2.825
X358.629 Y-2.47 I-1.371 J-2.47
X361.371 Y2.47 I1.371 J2.47
X360.508 Y2.223 I-0.308 J-0.555
G1 X360.353 Y1.945
X360.305 Y1.859 Z-2.532
X360.258 Y1.774 Z-2.509
X360.214 Y1.693 Z-2.471
X360.172 Y1.619 Z-2.419
X360.136 Y1.553 Z-2.354
X360.104 Y1.496 Z-2.278
X360.079 Y1.451 Z-2.193
X360.06 Y1.417 Z-2.101
X360.049 Y1.397 Z-2.004
X360.045 Y1.39 Z-1.905
G0 Z5
X359.638 Y0.59
Z2
G1 Z0.635 F2190
G19 G2 Y-0.045 Z0 J-0.635 K0
G1 Y-0.363
G17 G3 X360 Y-0.725 I0.362 J0
X360 Y0.725 Z-0.341 I0 J0.725
X360 Y-0.725 Z-0.682 I0 J-0.725
X360 Y0.725 Z-1.024 I0 J0.725
X360 Y-0.725 Z-1.365 I0 J-0.725
X360 Y0.725 Z-1.706 I0 J0.725
X360 Y-0.725 Z-2.047 I0 J-0.725
X360 Y0.725 Z-2.388 I0 J0.725
X360 Y-0.725 Z-2.73 I0 J-0.725
X360 Y0.725 Z-3.071 I0 J0.725
X360 Y-0.725 Z-3.412 I0 J-0.725
X360 Y0.725 Z-3.753 I0 J0.725
X360 Y-0.725 Z-4.094 I0 J-0.725
X360 Y0.725 Z-4.436 I0 J0.725
X360 Y-0.725 Z-4.777 I0 J-0.725
X360 Y0.725 Z-5.118 I0 J0.725
X360 Y-0.725 Z-5.459 I0 J-0.725
X360 Y0.725 Z-5.8 I0 J0.725
X360 Y-0.725 Z-6.142 I0 J-0.725
X360 Y0.725 Z-6.483 I0 J0.725
X360 Y-0.725 Z-6.824 I0 J-0.725
X360 Y0.725 Z-7.165 I0 J0.725
X360 Y-0.725 Z-7.507 I0 J-0.725
X360 Y0.725 Z-7.848 I0 J0.725
X360 Y-0.725 Z-8.189 I0 J-0.725
X360 Y0.725 Z-8.53 I0 J0.725
X360 Y-0.725 Z-8.871 I0 J-0.725
X360 Y0.725 Z-9.213 I0 J0.725
X360 Y-0.725 Z-9.554 I0 J-0.725
X360 Y0.725 Z-9.895 I0 J0.725
X360 Y-0.725 Z-10.236 I0 J-0.725
X360 Y0.725 Z-10.577 I0 J0.725
X360 Y-0.725 Z-10.919 I0 J-0.725
X360 Y0.725 Z-11.26 I0 J0.725
X360 Y-0.725 Z-11.601 I0 J-0.725
X360 Y0.725 Z-11.942 I0 J0.725
X360 Y-0.725 Z-12.283 I0 J-0.725
X360 Y0.725 Z-12.625 I0 J0.725
X360 Y-0.725 Z-12.966 I0 J-0.725
X360 Y0.725 Z-13.307 I0 J0.725
X360 Y-0.725 Z-13.648 I0 J-0.725
X360 Y0.725 Z-13.989 I0 J0.725
X360 Y-0.725 Z-14.331 I0 J-0.725
X360 Y0.725 Z-14.672 I0 J0.725
X360 Y-0.725 Z-15.013 I0 J-0.725
X360.63 Y0.359 Z-15.24 I0 J0.725
X359.37 Y-0.359 I-0.63 J-0.359
X360.63 Y0.359 I0.63 J0.359
X360.135 Y0.495 I-0.315 J-0.18
G1 X359.859 Y0.337
X359.773 Y0.288 Z-15.232
X359.689 Y0.24 Z-15.209
X359.609 Y0.194 Z-15.171
X359.535 Y0.152 Z-15.119
X359.469 Y0.114 Z-15.054
X359.413 Y0.082 Z-14.978
X359.368 Y0.057 Z-14.893
X359.335 Y0.038 Z-14.801
X359.315 Y0.026 Z-14.704
X359.308 Y0.022 Z-14.605
G0 Z5
X719.638 Y0.59
Z2
G1 Z0.635 F2190
G19 G2 Y-0.045 Z0 J-0.635 K0
G1 Y-0.363
G17 G3 X720 Y-0.725 I0.362 J0
X720 Y0.725 Z-0.341 I0 J0.725
X720 Y-0.725 Z-0.682 I0 J-0.725
X720 Y0.725 Z-1.024 I0 J0.725
X720 Y-0.725 Z-1.365 I0 J-0.725
X720 Y0.725 Z-1.706 I0 J0.725
X720 Y-0.725 Z-2.047 I0 J-0.725
X720 Y0.725 Z-2.388 I0 J0.725
X720 Y-0.725 Z-2.73 I0 J-0.725
X720 Y0.725 Z-3.071 I0 J0.725
X720 Y-0.725 Z-3.412 I0 J-0.725
X720 Y0.725 Z-3.753 I0 J0.725
X720 Y-0.725 Z-4.094 I0 J-0.725
X720 Y0.725 Z-4.436 I0 J0.725
X720 Y-0.725 Z-4.777 I0 J-0.725
X720 Y0.725 Z-5.118 I0 J0.725
X720 Y-0.725 Z-5.459 I0 J-0.725
X720 Y0.725 Z-5.8 I0 J0.725
X720 Y-0.725 Z-6.142 I0 J-0.725
X720 Y0.725 Z-6.483 I0 J0.725
X720 Y-0.725 Z-6.824 I0 J-0.725
X720 Y0.725 Z-7.165 I0 J0.725
X720 Y-0.725 Z-7.507 I0 J-0.725
X720 Y0.725 Z-7.848 I0 J0.725
X720 Y-0.725 Z-8.189 I0 J-0.725
X720 Y0.725 Z-8.53 I0 J0.725
X720 Y-0.725 Z-8.871 I0 J-0.725
X720 Y0.725 Z-9.213 I0 J0.725
X720 Y-0.725 Z-9.554 I0 J-0.725
X720 Y0.725 Z-9.895 I0 J0.725
X720 Y-0.725 Z-10.236 I0 J-0.725
X720 Y0.725 Z-10.577 I0 J0.725
X720 Y-0.725 Z-10.919 I0 J-0.725
X720 Y0.725 Z-11.26 I0 J0.725
X720 Y-0.725 Z-11.601 I0 J-0.725
X720 Y0.725 Z-11.942 I0 J0.725
X720 Y-0.725 Z-12.283 I0 J-0.725
X720 Y0.725 Z-12.625 I0 J0.725
X720 Y-0.725 Z-12.966 I0 J-0.725
X720 Y0.725 Z-13.307 I0 J0.725
X720 Y-0.725 Z-13.648 I0 J-0.725
X720 Y0.725 Z-13.989 I0 J0.725
X720 Y-0.725 Z-14.331 I0 J-0.725
X720 Y0.725 Z-14.672 I0 J0.725
X720 Y-0.725 Z-15.013 I0 J-0.725
X720.63 Y0.359 Z-15.24 I0 J0.725
X719.37 Y-0.359 I-0.63 J-0.359
X720.63 Y0.359 I0.63 J0.359
X720.135 Y0.495 I-0.315 J-0.18
G1 X719.859 Y0.337
X719.773 Y0.288 Z-15.232
X719.689 Y0.24 Z-15.209
X719.609 Y0.194 Z-15.171
X719.535 Y0.152 Z-15.119
X719.469 Y0.114 Z-15.054
X719.413 Y0.082 Z-14.978
X719.368 Y0.057 Z-14.893
X719.335 Y0.038 Z-14.801
X719.315 Y0.026 Z-14.704
X719.308 Y0.022 Z-14.605
G0 Z5
X719.365 Y-1.237
Z2
G1 Z0.635 F2190
G19 G2 Y-1.872 Z0 J-0.635 K0
G1 Y-2.19
G17 G3 X720 Y-2.825 I0.635 J0
X720 Y2.825 Z-0.525 I0 J2.825
X720 Y-2.825 Z-1.05 I0 J-2.825
X720 Y2.825 Z-1.575 I0 J2.825
X720 Y-2.825 Z-2.1 I0 J-2.825
X721.371 Y2.47 Z-2.54 I0 J2.825
X718.629 Y-2.47 I-1.371 J-2.47
X721.371 Y2.47 I1.371 J2.47
X720.508 Y2.223 I-0.308 J-0.555
G1 X720.353 Y1.945
X720.305 Y1.859 Z-2.532
X720.258 Y1.774 Z-2.509
X720.214 Y1.693 Z-2.471
X720.172 Y1.619 Z-2.419
X720.136 Y1.553 Z-2.354
X720.104 Y1.496 Z-2.278
X720.079 Y1.451 Z-2.193
X720.06 Y1.417 Z-2.101
X720.049 Y1.397 Z-2.004
X720.045 Y1.39 Z-1.905
G0 Z5
X719.487 Y0.44
Z2
G1 Z0.635 F2190
G19 G2 Y-0.195 Z0 J-0.635 K0
G1 Y-0.512
G17 G3 X720 Y-1.025 I0.513 J0
X720 Y1.025 Z-0.367 I0 J1.025
X720 Y-1.025 Z-0.735 I0 J-1.025
X720 Y1.025 Z-1.102 I0 J1.025
X720 Y-1.025 Z-1.47 I0 J-1.025
X720 Y1.025 Z-1.837 I0 J1.025
X720 Y-1.025 Z-2.205 I0 J-1.025
X720 Y1.025 Z-2.572 I0 J1.025
X720 Y-1.025 Z-2.94 I0 J-1.025
X720 Y1.025 Z-3.307 I0 J1.025
X720 Y-1.025 Z-3.675 I0 J-1.025
X720 Y1.025 Z-4.042 I0 J1.025
X720 Y-1.025 Z-4.409 I0 J-1.025
X720 Y1.025 Z-4.777 I0 J1.025
X720 Y-1.025 Z-5.144 I0 J-1.025
X720 Y1.025 Z-5.512 I0 J1.025
X720 Y-1.025 Z-5.879 I0 J-1.025
X720 Y1.025 Z-6.247 I0 J1.025
X720 Y-1.025 Z-6.614 I0 J-1.025
X720 Y1.025 Z-6.982 I0 J1.025
X720 Y-1.025 Z-7.349 I0 J-1.025
X720 Y1.025 Z-7.716 I0 J1.025
X720 Y-1.025 Z-8.084 I0 J-1.025
X720 Y1.025 Z-8.451 I0 J1.025
X720 Y-1.025 Z-8.819 I0 J-1.025
X720 Y1.025 Z-9.186 I0 J1.025
X720 Y-1.025 Z-9.554 I0 J-1.025
X720 Y1.025 Z-9.921 I0 J1.025
X719.086 Y-0.465 Z-10.16 I0 J-1.025
X720.914 Y0.465 I0.914 J0.465
X719.086 Y-0.465 I-0.914 J-0.465
X719.776 Y-0.689 I0.457 J0.232
G1 X720.059 Y-0.545
X720.147 Y-0.5 Z-10.152
X720.234 Y-0.456 Z-10.129
X720.316 Y-0.414 Z-10.091
X720.391 Y-0.376 Z-10.039
X720.459 Y-0.342 Z-9.974
X720.516 Y-0.312 Z-9.898
X720.563 Y-0.289 Z-9.813
X720.597 Y-0.271 Z-9.721
X720.618 Y-0.261 Z-9.624
X720.625 Y-0.257 Z-9.525
G0 Z5
X799.638 Y0.59
Z2
G1 Z0.635 F2190
G19 G2 Y-0.045 Z0 J-0.635 K0
G1 Y-0.363
G17 G3 X800 Y-0.725 I0.362 J0
X800 Y0.725 Z-0.341 I0 J0.725
X800 Y-0.725 Z-0.682 I0 J-0.725
X800 Y0.725 Z-1.024 I0 J0.725
X800 Y-0.725 Z-1.365 I0 J-0.725
X800 Y0.725 Z-1.706 I0 J0.725
X800 Y-0.725 Z-2.047 I0 J-0.725
X800 Y0.725 Z-2.388 I0 J0.725
X800 Y-0.725 Z-2.73 I0 J-0.725
X800 Y0.725 Z-3.071 I0 J0.725
X800 Y-0.725 Z-3.412 I0 J-0.725
X800 Y0.725 Z-3.753 I0 J0.725
X800 Y-0.725 Z-4.094 I0 J-0.725
X800 Y0.725 Z-4.436 I0 J0.725
X800 Y-0.725 Z-4.777 I0 J-0.725
X800 Y0.725 Z-5.118 I0 J0.725
X800 Y-0.725 Z-5.459 I0 J-0.725
X800 Y0.725 Z-5.8 I0 J0.725
X800 Y-0.725 Z-6.142 I0 J-0.725
X800 Y0.725 Z-6.483 I0 J0.725
X800 Y-0.725 Z-6.824 I0 J-0.725
X800 Y0.725 Z-7.165 I0 J0.725
X800 Y-0.725 Z-7.507 I0 J-0.725
X800 Y0.725 Z-7.848 I0 J0.725
X800 Y-0.725 Z-8.189 I0 J-0.725
X800 Y0.725 Z-8.53 I0 J0.725
X800 Y-0.725 Z-8.871 I0 J-0.725
X800 Y0.725 Z-9.213 I0 J0.725
X800 Y-0.725 Z-9.554 I0 J-0.725
X800 Y0.725 Z-9.895 I0 J0.725
X800 Y-0.725 Z-10.236 I0 J-0.725
X800 Y0.725 Z-10.577 I0 J0.725
X800 Y-0.725 Z-10.919 I0 J-0.725
X800 Y0.725 Z-11.26 I0 J0.725
X800 Y-0.725 Z-11.601 I0 J-0.725
X800 Y0.725 Z-11.942 I0 J0.725
X800 Y-0.725 Z-12.283 I0 J-0.725
X800 Y0.725 Z-12.625 I0 J0.725
X800 Y-0.725 Z-12.966 I0 J-0.725
X800 Y0.725 Z-13.307 I0 J0.725
X800 Y-0.725 Z-13.648 I0 J-0.725
X800 Y0.725 Z-13.989 I0 J0.725
X800 Y-0.725 Z-14.331 I0 J-0.725
X800 Y0.725 Z-14.672 I0 J0.725
X800 Y-0.725 Z-15.013 I0 J-0.725
X800.63 Y0.359 Z-15.24 I0 J0.725
X799.37 Y-0.359 I-0.63 J-0.359
X800.63 Y0.359 I0.63 J0.359
X800.135 Y0.495 I-0.315 J-0.18
G1 X799.859 Y0.337
X799.773 Y0.288 Z-15.232
X799.689 Y0.24 Z-15.209
X799.609 Y0.194 Z-15.171
X799.535 Y0.152 Z-15.119
X799.469 Y0.114 Z-15.054
X799.413 Y0.082 Z-14.978
X799.368 Y0.057 Z-14.893
X799.335 Y0.038 Z-14.801
X799.315 Y0.026 Z-14.704
X799.308 Y0.022 Z-14.605
G0 Z5
X799.365 Y-1.237
Z2
G1 Z0.635 F2190
G19 G2 Y-1.872 Z0 J-0.635 K0
G1 Y-2.19
G17 G3 X800 Y-2.825 I0.635 J0
X800 Y2.825 Z-0.525 I0 J2.825
X800 Y-2.825 Z-1.05 I0 J-2.825
X800 Y2.825 Z-1.575 I0 J2.825
X800 Y-2.825 Z-2.1 I0 J-2.825
X801.371 Y2.47 Z-2.54 I0 J2.825
X798.629 Y-2.47 I-1.371 J-2.47
X801.371 Y2.47 I1.371 J2.47
X800.508 Y2.223 I-0.308 J-0.555
G1 X800.353 Y1.945
X800.305 Y1.859 Z-2.532
X800.258 Y1.774 Z-2.509
X800.214 Y1.693 Z-2.471
X800.172 Y1.619 Z-2.419
X800.136 Y1.553 Z-2.354
X800.104 Y1.496 Z-2.278
X800.079 Y1.451 Z-2.193
X800.06 Y1.417 Z-2.101
X800.049 Y1.397 Z-2.004
X800.045 Y1.39 Z-1.905
G0 Z5
X799.487 Y0.44
Z2
G1 Z0.635 F2190
G19 G2 Y-0.195 Z0 J-0.635 K0
G1 Y-0.512
G17 G3 X800 Y-1.025 I0.513 J0
X800 Y1.025 Z-0.367 I0 J1.025
X800 Y-1.025 Z-0.735 I0 J-1.025
X800 Y1.025 Z-1.102 I0 J1.025
X800 Y-1.025 Z-1.47 I0 J-1.025
X800 Y1.025 Z-1.837 I0 J1.025
X800 Y-1.025 Z-2.205 I0 J-1.025
X800 Y1.025 Z-2.572 I0 J1.025
X800 Y-1.025 Z-2.94 I0 J-1.025
X800 Y1.025 Z-3.307 I0 J1.025
X800 Y-1.025 Z-3.675 I0 J-1.025
X800 Y1.025 Z-4.042 I0 J1.025
X800 Y-1.025 Z-4.409 I0 J-1.025
X800 Y1.025 Z-4.777 I0 J1.025
X800 Y-1.025 Z-5.144 I0 J-1.025
X800 Y1.025 Z-5.512 I0 J1.025
X800 Y-1.025 Z-5.879 I0 J-1.025
X800 Y1.025 Z-6.247 I0 J1.025
X800 Y-1.025 Z-6.614 I0 J-1.025
X800 Y1.025 Z-6.982 I0 J1.025
X800 Y-1.025 Z-7.349 I0 J-1.025
X800 Y1.025 Z-7.716 I0 J1.025
X800 Y-1.025 Z-8.084 I0 J-1.025
X800 Y1.025 Z-8.451 I0 J1.025
X800 Y-1.025 Z-8.819 I0 J-1.025
X800 Y1.025 Z-9.186 I0 J1.025
X800 Y-1.025 Z-9.554 I0 J-1.025
X800 Y1.025 Z-9.921 I0 J1.025
X799.086 Y-0.465 Z-10.16 I0 J-1.025
X800.914 Y0.465 I0.914 J0.465
X799.086 Y-0.465 I-0.914 J-0.465
X799.776 Y-0.689 I0.457 J0.232
G1 X800.059 Y-0.545
X800.147 Y-0.5 Z-10.152
X800.234 Y-0.456 Z-10.129
X800.316 Y-0.414 Z-10.091
X800.391 Y-0.376 Z-10.039
X800.459 Y-0.342 Z-9.974
X800.516 Y-0.312 Z-9.898
X800.563 Y-0.289 Z-9.813
X800.597 Y-0.271 Z-9.721
X800.618 Y-0.261 Z-9.624
X800.625 Y-0.257 Z-9.525
G0 Z5
X799.487 Y80.44
Z2
G1 Z0.635 F2190
G19 G2 Y79.805 Z0 J-0.635 K0
G1 Y79.488
G17 G3 X800 Y78.975 I0.513 J0
X800 Y81.025 Z-0.367 I0 J1.025
X800 Y78.975 Z-0.735 I0 J-1.025
X800 Y81.025 Z-1.102 I0 J1.025
X800 Y78.975 Z-1.47 I0 J-1.025
X800 Y81.025 Z-1.837 I0 J1.025
X800 Y78.975 Z-2.205 I0 J-1.025
X800 Y81.025 Z-2.572 I0 J1.025
X800 Y78.975 Z-2.94 I0 J-1.025
X800 Y81.025 Z-3.307 I0 J1.025
X800 Y78.975 Z-3.675 I0 J-1.025
X800 Y81.025 Z-4.042 I0 J1.025
X800 Y78.975 Z-4.409 I0 J-1.025
X800 Y81.025 Z-4.777 I0 J1.025
X800 Y78.975 Z-5.144 I0 J-1.025
X800 Y81.025 Z-5.512 I0 J1.025
X800 Y78.975 Z-5.879 I0 J-1.025
X800 Y81.025 Z-6.247 I0 J1.025
X800 Y78.975 Z-6.614 I0 J-1.025
X800 Y81.025 Z-6.982 I0 J1.025
X800 Y78.975 Z-7.349 I0 J-1.025
X800 Y81.025 Z-7.717 I0 J1.025
X800 Y78.975 Z-8.084 I0 J-1.025
X800 Y81.025 Z-8.451 I0 J1.025
X800 Y78.975 Z-8.819 I0 J-1.025
X800 Y81.025 Z-9.186 I0 J1.025
X800 Y78.975 Z-9.554 I0 J-1.025
X800 Y81.025 Z-9.921 I0 J1.025
X799.086 Y79.535 Z-10.16 I0 J-1.025
X800.914 Y80.465 I0.914 J0.465
X799.086 Y79.535 I-0.914 J-0.465
X799.776 Y79.311 I0.457 J0.232
G1 X800.059 Y79.455
X800.147 Y79.5 Z-10.152
X800.234 Y79.544 Z-10.129
X800.316 Y79.586 Z-10.091
X800.391 Y79.624 Z-10.039
X800.459 Y79.658 Z-9.974
X800.516 Y79.688 Z-9.898
X800.563 Y79.711 Z-9.813
X800.597 Y79.729 Z-9.721
X800.618 Y79.739 Z-9.624
X800.625 Y79.743 Z-9.525
G0 Z5
X799.638 Y80.59
Z2
G1 Z0.635 F2190
G19 G2 Y79.955 Z0 J-0.635 K0
G1 Y79.637
G17 G3 X800 Y79.275 I0.362 J0
X800 Y80.725 Z-0.341 I0 J0.725
X800 Y79.275 Z-0.682 I0 J-0.725
X800 Y80.725 Z-1.024 I0 J0.725
X800 Y79.275 Z-1.365 I0 J-0.725
X800 Y80.725 Z-1.706 I0 J0.725
X800 Y79.275 Z-2.047 I0 J-0.725
X800 Y80.725 Z-2.388 I0 J0.725
X800 Y79.275 Z-2.73 I0 J-0.725
X800 Y80.725 Z-3.071 I0 J0.725
X800 Y79.275 Z-3.412 I0 J-0.725
X800 Y80.725 Z-3.753 I0 J0.725
X800 Y79.275 Z-4.094 I0 J-0.725
X800 Y80.725 Z-4.436 I0 J0.725
X800 Y79.275 Z-4.777 I0 J-0.725
X800 Y80.725 Z-5.118 I0 J0.725
X800 Y79.275 Z-5.459 I0 J-0.725
X800 Y80.725 Z-5.8 I0 J0.725
X800 Y79.275 Z-6.142 I0 J-0.725
X800 Y80.725 Z-6.483 I0 J0.725
X800 Y79.275 Z-6.824 I0 J-0.725
X800 Y80.725 Z-7.165 I0 J0.725
X800 Y79.275 Z-7.507 I0 J-0.725
X800 Y80.725 Z-7.848 I0 J0.725
X800 Y79.275 Z-8.189 I0 J-0.725
X800 Y80.725 Z-8.53 I0 J0.725
X800 Y79.275 Z-8.871 I0 J-0.725
X800 Y80.725 Z-9.213 I0 J0.725
X800 Y79.275 Z-9.554 I0 J-0.725
X800 Y80.725 Z-9.895 I0 J0.725
X800 Y79.275 Z-10.236 I0 J-0.725
X800 Y80.725 Z-10.577 I0 J0.725
X800 Y79.275 Z-10.919 I0 J-0.725
X800 Y80.725 Z-11.26 I0 J0.725
X800 Y79.275 Z-11.601 I0 J-0.725
X800 Y80.725 Z-11.942 I0 J0.725
X800 Y79.275 Z-12.283 I0 J-0.725
X800 Y80.725 Z-12.625 I0 J0.725
X800 Y79.275 Z-12.966 I0 J-0.725
X800 Y80.725 Z-13.307 I0 J0.725
X800 Y79.275 Z-13.648 I0 J-0.725
X800 Y80.725 Z-13.989 I0 J0.725
X800 Y79.275 Z-14.331 I0 J-0.725
X800 Y80.725 Z-14.672 I0 J0.725
X800 Y79.275 Z-15.013 I0 J-0.725
X800.63 Y80.359 Z-15.24 I0 J0.725
X799.37 Y79.641 I-0.63 J-0.359
X800.63 Y80.359 I0.63 J0.359
X800.135 Y80.495 I-0.315 J-0.18
G1 X799.859 Y80.337
X799.773 Y80.288 Z-15.232
X799.689 Y80.24 Z-15.209
X799.609 Y80.194 Z-15.171
X799.535 Y80.152 Z-15.119
X799.469 Y80.114 Z-15.054
X799.413 Y80.082 Z-14.978
X799.368 Y80.057 Z-14.893
X799.335 Y80.038 Z-14.801
X799.315 Y80.026 Z-14.704
X799.308 Y80.022 Z-14.605
G0 Z5
X799.365 Y78.762
Z2
G1 Z0.635 F2190
G19 G2 Y78.128 Z0 J-0.635 K0
G1 Y77.81
G17 G3 X800 Y77.175 I0.635 J0
X800 Y82.825 Z-0.525 I0 J2.825
X800 Y77.175 Z-1.05 I0 J-2.825
X800 Y82.825 Z-1.575 I0 J2.825
X800 Y77.175 Z-2.1 I0 J-2.825
X801.371 Y82.47 Z-2.54 I0 J2.825
X798.629 Y77.53 I-1.371 J-2.47
X801.371 Y82.47 I1.371 J2.47
X800.508 Y82.223 I-0.308 J-0.555
G1 X800.353 Y81.945
X800.305 Y81.859 Z-2.532
X800.258 Y81.774 Z-2.509
X800.214 Y81.693 Z-2.471
X800.172 Y81.619 Z-2.419
X800.136 Y81.553 Z-2.354
X800.104 Y81.496 Z-2.278
X800.079 Y81.451 Z-2.193
X800.06 Y81.417 Z-2.101
X800.049 Y81.397 Z-2.004
X800.045 Y81.39 Z-1.905
G0 Z5
X719.487 Y80.44
Z2
G1 Z0.635 F2190
G19 G2 Y79.805 Z0 J-0.635 K0
G1 Y79.488
G17 G3 X720 Y78.975 I0.513 J0
X720 Y81.025 Z-0.367 I0 J1.025
X720 Y78.975 Z-0.735 I0 J-1.025
X720 Y81.025 Z-1.102 I0 J1.025
X720 Y78.975 Z-1.47 I0 J-1.025
X720 Y81.025 Z-1.837 I0 J1.025
X720 Y78.975 Z-2.205 I0 J-1.025
X720 Y81.025 Z-2.572 I0 J1.025
X720 Y78.975 Z-2.94 I0 J-1.025
X720 Y81.025 Z-3.307 I0 J1.025
X720 Y78.975 Z-3.675 I0 J-1.025
X720 Y81.025 Z-4.042 I0 J1.025
X720 Y78.975 Z-4.409 I0 J-1.025
X720 Y81.025 Z-4.777 I0 J1.025
X720 Y78.975 Z-5.144 I0 J-1.025
X720 Y81.025 Z-5.512 I0 J1.025
X720 Y78.975 Z-5.879 I0 J-1.025
X720 Y81.025 Z-6.247 I0 J1.025
X720 Y78.975 Z-6.614 I0 J-1.025
X720 Y81.025 Z-6.982 I0 J1.025
X720 Y78.975 Z-7.349 I0 J-1.025
X720 Y81.025 Z-7.717 I0 J1.025
X720 Y78.975 Z-8.084 I0 J-1.025
X720 Y81.025 Z-8.451 I0 J1.025
X720 Y78.975 Z-8.819 I0 J-1.025
X720 Y81.025 Z-9.186 I0 J1.025
X720 Y78.975 Z-9.554 I0 J-1.025
X720 Y81.025 Z-9.921 I0 J1.025
X719.086 Y79.535 Z-10.16 I0 J-1.025
X720.914 Y80.465 I0.914 J0.465
X719.086 Y79.535 I-0.914 J-0.465
X719.776 Y79.311 I0.457 J0.232
G1 X720.059 Y79.455
X720.147 Y79.5 Z-10.152
X720.234 Y79.544 Z-10.129
X720.316 Y79.586 Z-10.091
X720.391 Y79.624 Z-10.039
X720.459 Y79.658 Z-9.974
X720.516 Y79.688 Z-9.898
X720.563 Y79.711 Z-9.813
X720.597 Y79.729 Z-9.721
X720.618 Y79.739 Z-9.624
X720.625 Y79.743 Z-9.525
G0 Z5
X719.365 Y78.762
Z2
G1 Z0.635 F2190
G19 G2 Y78.128 Z0 J-0.635 K0
G1 Y77.81
G17 G3 X720 Y77.175 I0.635 J0
X720 Y82.825 Z-0.525 I0 J2.825
X720 Y77.175 Z-1.05 I0 J-2.825
X720 Y82.825 Z-1.575 I0 J2.825
X720 Y77.175 Z-2.1 I0 J-2.825
X721.371 Y82.47 Z-2.54 I0 J2.825
X718.629 Y77.53 I-1.371 J-2.47
X721.371 Y82.47 I1.371 J2.47
X720.508 Y82.223 I-0.308 J-0.555
G1 X720.353 Y81.945
X720.305 Y81.859 Z-2.532
X720.258 Y81.774 Z-2.509
X720.214 Y81.693 Z-2.471
X720.172 Y81.619 Z-2.419
X720.136 Y81.553 Z-2.354
X720.104 Y81.496 Z-2.278
X720.079 Y81.451 Z-2.193
X720.06 Y81.417 Z-2.101
X720.049 Y81.397 Z-2.004
X720.045 Y81.39 Z-1.905
G0 Z5
X719.638 Y80.59
Z2
G1 Z0.635 F2190
G19 G2 Y79.955 Z0 J-0.635 K0
G1 Y79.637
G17 G3 X720 Y79.275 I0.362 J0
X720 Y80.725 Z-0.341 I0 J0.725
X720 Y79.275 Z-0.682 I0 J-0.725
X720 Y80.725 Z-1.024 I0 J0.725
X720 Y79.275 Z-1.365 I0 J-0.725
X720 Y80.725 Z-1.706 I0 J0.725
X720 Y79.275 Z-2.047 I0 J-0.725
X720 Y80.725 Z-2.388 I0 J0.725
X720 Y79.275 Z-2.73 I0 J-0.725
X720 Y80.725 Z-3.071 I0 J0.725
X720 Y79.275 Z-3.412 I0 J-0.725
X720 Y80.725 Z-3.753 I0 J0.725
X720 Y79.275 Z-4.094 I0 J-0.725
X720 Y80.725 Z-4.436 I0 J0.725
X720 Y79.275 Z-4.777 I0 J-0.725
X720 Y80.725 Z-5.118 I0 J0.725
X720 Y79.275 Z-5.459 I0 J-0.725
X720 Y80.725 Z-5.8 I0 J0.725
X720 Y79.275 Z-6.142 I0 J-0.725
X720 Y80.725 Z-6.483 I0 J0.725
X720 Y79.275 Z-6.824 I0 J-0.725
X720 Y80.725 Z-7.165 I0 J0.725
X720 Y79.275 Z-7.507 I0 J-0.725
X720 Y80.725 Z-7.848 I0 J0.725
X720 Y79.275 Z-8.189 I0 J-0.725
X720 Y80.725 Z-8.53 I0 J0.725
X720 Y79.275 Z-8.871 I0 J-0.725
X720 Y80.725 Z-9.213 I0 J0.725
X720 Y79.275 Z-9.554 I0 J-0.725
X720 Y80.725 Z-9.895 I0 J0.725
X720 Y79.275 Z-10.236 I0 J-0.725
X720 Y80.725 Z-10.577 I0 J0.725
X720 Y79.275 Z-10.919 I0 J-0.725
X720 Y80.725 Z-11.26 I0 J0.725
X720 Y79.275 Z-11.601 I0 J-0.725
X720 Y80.725 Z-11.942 I0 J0.725
X720 Y79.275 Z-12.283 I0 J-0.725
X720 Y80.725 Z-12.625 I0 J0.725
X720 Y79.275 Z-12.966 I0 J-0.725
X720 Y80.725 Z-13.307 I0 J0.725
X720 Y79.275 Z-13.648 I0 J-0.725
X720 Y80.725 Z-13.989 I0 J0.725
X720 Y79.275 Z-14.331 I0 J-0.725
X720 Y80.725 Z-14.672 I0 J0.725
X720 Y79.275 Z-15.013 I0 J-0.725
X720.63 Y80.359 Z-15.24 I0 J0.725
X719.37 Y79.641 I-0.63 J-0.359
X720.63 Y80.359 I0.63 J0.359
X720.135 Y80.495 I-0.315 J-0.18
G1 X719.859 Y80.337
X719.773 Y80.288 Z-15.232
X719.689 Y80.24 Z-15.209
X719.609 Y80.194 Z-15.171
X719.535 Y80.152 Z-15.119
X719.469 Y80.114 Z-15.054
X719.413 Y80.082 Z-14.978
X719.368 Y80.057 Z-14.893
X719.335 Y80.038 Z-14.801
X719.315 Y80.026 Z-14.704
X719.308 Y80.022 Z-14.605
G0 Z5
X1179.365 Y78.762
Z2
G1 Z0.635 F2190
G19 G2 Y78.128 Z0 J-0.635 K0
G1 Y77.81
G17 G3 X1180 Y77.175 I0.635 J0
X1180 Y82.825 Z-0.525 I0 J2.825
X1180 Y77.175 Z-1.05 I0 J-2.825
X1180 Y82.825 Z-1.575 I0 J2.825
X1180 Y77.175 Z-2.1 I0 J-2.825
X1181.371 Y82.47 Z-2.54 I0 J2.825
X1178.629 Y77.53 I-1.371 J-2.47
X1181.371 Y82.47 I1.371 J2.47
X1180.508 Y82.223 I-0.308 J-0.555
G1 X1180.353 Y81.945
X1180.305 Y81.859 Z-2.532
X1180.258 Y81.774 Z-2.509
X1180.214 Y81.693 Z-2.471
X1180.172 Y81.619 Z-2.419
X1180.136 Y81.553 Z-2.354
X1180.104 Y81.496 Z-2.278
X1180.079 Y81.451 Z-2.193
X1180.06 Y81.417 Z-2.101
X1180.049 Y81.397 Z-2.004
X1180.045 Y81.39 Z-1.905
G0 Z5
X1179.637 Y80.59
Z2
G1 Z0.635 F2190
G19 G2 Y79.955 Z0 J-0.635 K0
G1 Y79.637
G17 G3 X1180 Y79.275 I0.363 J0
X1180 Y80.725 Z-0.341 I0 J0.725
X1180 Y79.275 Z-0.682 I0 J-0.725
X1180 Y80.725 Z-1.024 I0 J0.725
X1180 Y79.275 Z-1.365 I0 J-0.725
X1180 Y80.725 Z-1.706 I0 J0.725
X1180 Y79.275 Z-2.047 I0 J-0.725
X1180 Y80.725 Z-2.388 I0 J0.725
X1180 Y79.275 Z-2.73 I0 J-0.725
X1180 Y80.725 Z-3.071 I0 J0.725
X1180 Y79.275 Z-3.412 I0 J-0.725
X1180 Y80.725 Z-3.753 I0 J0.725
X1180 Y79.275 Z-4.094 I0 J-0.725
X1180 Y80.725 Z-4.436 I0 J0.725
X1180 Y79.275 Z-4.777 I0 J-0.725
X1180 Y80.725 Z-5.118 I0 J0.725
X1180 Y79.275 Z-5.459 I0 J-0.725
X1180 Y80.725 Z-5.8 I0 J0.725
X1180 Y79.275 Z-6.142 I0 J-0.725
X1180 Y80.725 Z-6.483 I0 J0.725
X1180 Y79.275 Z-6.824 I0 J-0.725
X1180 Y80.725 Z-7.165 I0 J0.725
X1180 Y79.275 Z-7.507 I0 J-0.725
X1180 Y80.725 Z-7.848 I0 J0.725
X1180 Y79.275 Z-8.189 I0 J-0.725
X1180 Y80.725 Z-8.53 I0 J0.725
X1180 Y79.275 Z-8.871 I0 J-0.725
X1180 Y80.725 Z-9.213 I0 J0.725
X1180 Y79.275 Z-9.554 I0 J-0.725
X1180 Y80.725 Z-9.895 I0 J0.725
X1180 Y79.275 Z-10.236 I0 J-0.725
X1180 Y80.725 Z-10.577 I0 J0.725
X1180 Y79.275 Z-10.919 I0 J-0.725
X1180 Y80.725 Z-11.26 I0 J0.725
X1180 Y79.275 Z-11.601 I0 J-0.725
X1180 Y80.725 Z-11.942 I0 J0.725
X1180 Y79.275 Z-12.283 I0 J-0.725
X1180 Y80.725 Z-12.625 I0 J0.725
X1180 Y79.275 Z-12.966 I0 J-0.725
X1180 Y80.725 Z-13.307 I0 J0.725
X1180 Y79.275 Z-13.648 I0 J-0.725
X1180 Y80.725 Z-13.989 I0 J0.725
X1180 Y79.275 Z-14.331 I0 J-0.725
X1180 Y80.725 Z-14.672 I0 J0.725
X1180 Y79.275 Z-15.013 I0 J-0.725
X1180.63 Y80.359 Z-15.24 I0 J0.725
X1179.37 Y79.641 I-0.63 J-0.359
X1180.63 Y80.359 I0.63 J0.359
X1180.135 Y80.495 I-0.315 J-0.18
G1 X1179.859 Y80.337
X1179.773 Y80.288 Z-15.232
X1179.689 Y80.24 Z-15.209
X1179.609 Y80.194 Z-15.171
X1179.535 Y80.152 Z-15.119
X1179.469 Y80.114 Z-15.054
X1179.413 Y80.082 Z-14.978
X1179.368 Y80.057 Z-14.893
X1179.335 Y80.038 Z-14.801
X1179.315 Y80.026 Z-14.704
X1179.308 Y80.022 Z-14.605
G0 Z5
X1179.488 Y80.44
Z2
G1 Z0.635 F2190
G19 G2 Y79.805 Z0 J-0.635 K0
G1 Y79.488
G17 G3 X1180 Y78.975 I0.512 J0
X1180 Y81.025 Z-0.367 I0 J1.025
X1180 Y78.975 Z-0.735 I0 J-1.025
X1180 Y81.025 Z-1.102 I0 J1.025
X1180 Y78.975 Z-1.47 I0 J-1.025
X1180 Y81.025 Z-1.837 I0 J1.025
X1180 Y78.975 Z-2.205 I0 J-1.025
X1180 Y81.025 Z-2.572 I0 J1.025
X1180 Y78.975 Z-2.94 I0 J-1.025
X1180 Y81.025 Z-3.307 I0 J1.025
X1180 Y78.975 Z-3.675 I0 J-1.025
X1180 Y81.025 Z-4.042 I0 J1.025
X1180 Y78.975 Z-4.409 I0 J-1.025
X1180 Y81.025 Z-4.777 I0 J1.025
X1180 Y78.975 Z-5.144 I0 J-1.025
X1180 Y81.025 Z-5.512 I0 J1.025
X1180 Y78.975 Z-5.879 I0 J-1.025
X1180 Y81.025 Z-6.247 I0 J1.025
X1180 Y78.975 Z-6.614 I0 J-1.025
X1180 Y81.025 Z-6.982 I0 J1.025
X1180 Y78.975 Z-7.349 I0 J-1.025
X1180 Y81.025 Z-7.717 I0 J1.025
X1180 Y78.975 Z-8.084 I0 J-1.025
X1180 Y81.025 Z-8.451 I0 J1.025
X1180 Y78.975 Z-8.819 I0 J-1.025
X1180 Y81.025 Z-9.186 I0 J1.025
X1180 Y78.975 Z-9.554 I0 J-1.025
X1180 Y81.025 Z-9.921 I0 J1.025
X1179.086 Y79.535 Z-10.16 I0 J-1.025
X1180.914 Y80.465 I0.914 J0.465
X1179.086 Y79.535 I-0.914 J-0.465
X1179.776 Y79.311 I0.457 J0.232
G1 X1180.059 Y79.455
X1180.147 Y79.5 Z-10.152
X1180.233 Y79.544 Z-10.129
X1180.316 Y79.586 Z-10.091
X1180.391 Y79.624 Z-10.039
X1180.459 Y79.658 Z-9.974
X1180.516 Y79.688 Z-9.898
X1180.563 Y79.711 Z-9.813
X1180.597 Y79.729 Z-9.721
X1180.618 Y79.739 Z-9.624
X1180.625 Y79.743 Z-9.525
G0 Z5
X1179.488 Y0.44
Z2
G1 Z0.635 F2190
G19 G2 Y-0.195 Z0 J-0.635 K0
G1 Y-0.512
G17 G3 X1180 Y-1.025 I0.512 J0
X1180 Y1.025 Z-0.367 I0 J1.025
X1180 Y-1.025 Z-0.735 I0 J-1.025
X1180 Y1.025 Z-1.102 I0 J1.025
X1180 Y-1.025 Z-1.47 I0 J-1.025
X1180 Y1.025 Z-1.837 I0 J1.025
X1180 Y-1.025 Z-2.205 I0 J-1.025
X1180 Y1.025 Z-2.572 I0 J1.025
X1180 Y-1.025 Z-2.94 I0 J-1.025
X1180 Y1.025 Z-3.307 I0 J1.025
X1180 Y-1.025 Z-3.675 I0 J-1.025
X1180 Y1.025 Z-4.042 I0 J1.025
X1180 Y-1.025 Z-4.409 I0 J-1.025
X1180 Y1.025 Z-4.777 I0 J1.025
X1180 Y-1.025 Z-5.144 I0 J-1.025
X1180 Y1.025 Z-5.512 I0 J1.025
X1180 Y-1.025 Z-5.879 I0 J-1.025
X1180 Y1.025 Z-6.247 I0 J1.025
X1180 Y-1.025 Z-6.614 I0 J-1.025
X1180 Y1.025 Z-6.982 I0 J1.025
X1180 Y-1.025 Z-7.349 I0 J-1.025
X1180 Y1.025 Z-7.717 I0 J1.025
X1180 Y-1.025 Z-8.084 I0 J-1.025
X1180 Y1.025 Z-8.451 I0 J1.025
X1180 Y-1.025 Z-8.819 I0 J-1.025
X1180 Y1.025 Z-9.186 I0 J1.025
X1180 Y-1.025 Z-9.554 I0 J-1.025
X1180 Y1.025 Z-9.921 I0 J1.025
X1179.086 Y-0.465 Z-10.16 I0 J-1.025
X1180.914 Y0.465 I0.914 J0.465
X1179.086 Y-0.465 I-0.914 J-0.465
X1179.776 Y-0.689 I0.457 J0.232
G1 X1180.059 Y-0.545
X1180.147 Y-0.5 Z-10.152
X1180.233 Y-0.456 Z-10.129
X1180.316 Y-0.414 Z-10.091
X1180.391 Y-0.376 Z-10.039
X1180.459 Y-0.342 Z-9.974
X1180.516 Y-0.312 Z-9.898
X1180.563 Y-0.289 Z-9.813
X1180.597 Y-0.271 Z-9.721
X1180.618 Y-0.261 Z-9.624
X1180.625 Y-0.257 Z-9.525
G0 Z5
X1179.637 Y0.59
Z2
G1 Z0.635 F2190
G19 G2 Y-0.045 Z0 J-0.635 K0
G1 Y-0.363
G17 G3 X1180 Y-0.725 I0.363 J0
X1180 Y0.725 Z-0.341 I0 J0.725
X1180 Y-0.725 Z-0.682 I0 J-0.725
X1180 Y0.725 Z-1.024 I0 J0.725
X1180 Y-0.725 Z-1.365 I0 J-0.725
X1180 Y0.725 Z-1.706 I0 J0.725
X1180 Y-0.725 Z-2.047 I0 J-0.725
X1180 Y0.725 Z-2.388 I0 J0.725
X1180 Y-0.725 Z-2.73 I0 J-0.725
X1180 Y0.725 Z-3.071 I0 J0.725
X1180 Y-0.725 Z-3.412 I0 J-0.725
X1180 Y0.725 Z-3.753 I0 J0.725
X1180 Y-0.725 Z-4.094 I0 J-0.725
X1180 Y0.725 Z-4.436 I0 J0.725
X1180 Y-0.725 Z-4.777 I0 J-0.725
X1180 Y0.725 Z-5.118 I0 J0.725
X1180 Y-0.725 Z-5.459 I0 J-0.725
X1180 Y0.725 Z-5.8 I0 J0.725
X1180 Y-0.725 Z-6.142 I0 J-0.725
X1180 Y0.725 Z-6.483 I0 J0.725
X1180 Y-0.725 Z-6.824 I0 J-0.725
X1180 Y0.725 Z-7.165 I0 J0.725
X1180 Y-0.725 Z-7.507 I0 J-0.725
X1180 Y0.725 Z-7.848 I0 J0.725
X1180 Y-0.725 Z-8.189 I0 J-0.725
X1180 Y0.725 Z-8.53 I0 J0.725
X1180 Y-0.725 Z-8.871 I0 J-0.725
X1180 Y0.725 Z-9.213 I0 J0.725
X1180 Y-0.725 Z-9.554 I0 J-0.725
X1180 Y0.725 Z-9.895 I0 J0.725
X1180 Y-0.725 Z-10.236 I0 J-0.725
X1180 Y0.725 Z-10.577 I0 J0.725
X1180 Y-0.725 Z-10.919 I0 J-0.725
X1180 Y0.725 Z-11.26 I0 J0.725
X1180 Y-0.725 Z-11.601 I0 J-0.725
X1180 Y0.725 Z-11.942 I0 J0.725
X1180 Y-0.725 Z-12.283 I0 J-0.725
X1180 Y0.725 Z-12.625 I0 J0.725
X1180 Y-0.725 Z-12.966 I0 J-0.725
X1180 Y0.725 Z-13.307 I0 J0.725
X1180 Y-0.725 Z-13.648 I0 J-0.725
X1180 Y0.725 Z-13.989 I0 J0.725
X1180 Y-0.725 Z-14.331 I0 J-0.725
X1180 Y0.725 Z-14.672 I0 J0.725
X1180 Y-0.725 Z-15.013 I0 J-0.725
X1180.63 Y0.359 Z-15.24 I0 J0.725
X1179.37 Y-0.359 I-0.63 J-0.359
X1180.63 Y0.359 I0.63 J0.359
X1180.135 Y0.495 I-0.315 J-0.18
G1 X1179.859 Y0.337
X1179.773 Y0.288 Z-15.232
X1179.689 Y0.24 Z-15.209
X1179.609 Y0.194 Z-15.171
X1179.535 Y0.152 Z-15.119
X1179.469 Y0.114 Z-15.054
X1179.413 Y0.082 Z-14.978
X1179.368 Y0.057 Z-14.893
X1179.335 Y0.038 Z-14.801
X1179.315 Y0.026 Z-14.704
X1179.308 Y0.022 Z-14.605
G0 Z5
X1179.365 Y-1.237
Z2
G1 Z0.635 F2190
G19 G2 Y-1.872 Z0 J-0.635 K0
G1 Y-2.19
G17 G3 X1180 Y-2.825 I0.635 J0
X1180 Y2.825 Z-0.525 I0 J2.825
X1180 Y-2.825 Z-1.05 I0 J-2.825
X1180 Y2.825 Z-1.575 I0 J2.825
X1180 Y-2.825 Z-2.1 I0 J-2.825
X1181.371 Y2.47 Z-2.54 I0 J2.825
X1178.629 Y-2.47 I-1.371 J-2.47
X1181.371 Y2.47 I1.371 J2.47
X1180.508 Y2.223 I-0.308 J-0.555
G1 X1180.353 Y1.945
X1180.305 Y1.859 Z-2.532
X1180.258 Y1.774 Z-2.509
X1180.214 Y1.693 Z-2.471
X1180.172 Y1.619 Z-2.419
X1180.136 Y1.553 Z-2.354
X1180.104 Y1.496 Z-2.278
X1180.079 Y1.451 Z-2.193
X1180.06 Y1.417 Z-2.101
X1180.049 Y1.397 Z-2.004
X1180.045 Y1.39 Z-1.905
G0 Z11
G0 X0 Y0
M5
M30
