(4001)
(T2  D=6. CR=0. - flat end mill)
G90
G17
G21
G53 G0 Z-3.

(2D Contour Spiral Flutes)
T2 M6 (flat end mill D=6. 6.0mm Flat Endmill 3F)
S13500 M3
G54
G0 A51.487
G0 X37.932 Y0.
Z40.
A51.487
Z30.
G1 Z25. F796.1
Z24.2
X38.093 A53.191 F2000
X38.254 A54.896
X38.255 A54.899
X38.416 A56.605
X38.577 A58.309
X38.738 A60.014
A60.016
X38.899 A61.723
X39.06 A63.427
X39.221 A65.135
X39.382 A66.84
X39.543 A68.548
X39.705 A70.255
X39.866 A71.96
X40.027 A73.668
X40.188 A75.375
X40.349 A77.08
X40.51 A78.785
X40.671 A80.493
X40.832 A82.197
X40.994 A83.902
X41.155 A85.61
X41.316 A87.315
X41.477 A89.02
X41.638 A90.728
X41.799 A92.433
X41.96 A94.137
X42.121 A95.842
X42.122 A95.845
X42.283 A97.551
X42.444 A99.255
X42.605 A100.963
X42.766 A102.668
X42.927 A104.377
X43.088 A106.083
X43.249 A107.787
X43.25 A107.79
X43.411 A109.497
X43.572 A111.203
X43.733 A112.907
A112.91
X43.894 A114.616
X44.055 A116.32
X44.216 A118.024
X44.377 A119.73
X44.538 A121.438
X44.7 A123.142
X44.861 A124.848
X45.022 A126.556
X45.183 A128.26
X45.344 A129.966
X45.505 A131.671
X45.667 A133.379
X45.828 A135.083
X45.989 A136.791
X46.15 A138.495
A138.498
X46.311 A140.205
X46.472 A141.911
X46.633 A143.615
A143.618
X46.795 A145.325
X46.955 A147.031
X47.117 A148.735
A148.738
X47.278 A150.444
X47.439 A152.148
X47.6 A153.853
A153.855
X47.761 A155.562
X47.922 A157.266
X48.083 A158.97
X48.245 A160.676
X48.406 A162.384
X48.567 A164.088
X48.728 A165.794
X48.889 A167.502
X49.05 A169.206
X49.211 A170.912
X49.372 A172.62
X49.534 A174.323
A174.326
X49.695 A176.034
X49.856 A177.74
X50.017 A179.443
A179.446
X50.178 A181.153
X50.339 A182.859
X50.5 A184.563
X50.501 A184.566
X50.662 A186.272
X50.823 A187.976
X50.984 A189.681
A189.684
X51.145 A191.39
X51.306 A193.094
X51.467 A194.799
X51.628 A196.505
X51.789 A198.212
X51.951 A199.916
X52.112 A201.622
X52.273 A203.33
X52.434 A205.034
X52.595 A206.74
X52.756 A208.448
X52.917 A210.152
X52.918 A210.154
X53.079 A211.862
X53.24 A213.568
X53.401 A215.271
A215.274
X53.562 A216.982
X53.723 A218.688
X53.884 A220.392
X54.045 A222.1
X54.206 A223.805
X54.368 A225.51
X54.529 A227.218
X54.69 A228.923
X54.851 A230.628
X55.012 A232.336
X55.173 A234.04
X55.334 A235.745
X55.495 A237.45
X55.496 A237.452
X55.657 A239.159
X55.818 A240.863
X55.979 A242.567
A242.57
X56.14 A244.276
X56.301 A245.981
X56.462 A247.689
X56.624 A249.396
X56.785 A251.101
X56.946 A252.809
X57.107 A254.516
X57.268 A256.22
X57.429 A257.928
X57.59 A259.633
X57.751 A261.341
X57.912 A263.045
X58.074 A264.751
X58.235 A266.456
X58.396 A268.164
X58.557 A269.869
X58.718 A271.574
X58.879 A273.281
X59.04 A274.986
X59.202 A276.691
X59.363 A278.395
A278.398
X59.524 A280.105
X59.685 A281.809
X59.846 A283.517
X60.007 A285.225
X60.168 A286.929
X60.33 A288.637
X60.491 A290.344
X60.652 A292.049
X60.813 A293.757
X60.974 A295.461
X61.135 A297.169
X61.296 A298.873
X61.457 A300.579
X61.619 A302.284
X61.78 A303.992
X61.941 A305.697
X62.102 A307.402
X62.263 A309.11
X62.424 A310.814
X62.585 A312.519
X62.747 A314.227
X62.908 A315.932
X63.069 A317.64
X63.23 A319.343
A319.346
X63.391 A321.053
X63.552 A322.757
X63.713 A324.466
X63.875 A326.172
X64.036 A327.877
X64.197 A329.585
X64.358 A331.289
A331.291
X64.519 A332.998
X64.68 A334.702
X64.841 A336.406
A336.409
X65.002 A338.115
X65.163 A339.819
X65.325 A341.524
A341.527
X65.486 A343.233
X65.647 A344.937
X65.808 A346.641
X65.969 A348.347
X66.13 A350.055
X66.291 A351.759
X66.292 A351.762
X66.453 A353.468
X66.614 A355.173
X66.775 A356.88
X66.936 A358.585
X67.097 A360.294
X67.258 A362.
X67.419 A363.705
X67.58 A365.413
X67.742 A367.117
A367.119
X67.903 A368.826
X68.064 A370.53
X68.225 A372.234
A372.237
X68.386 A373.944
X68.547 A375.647
X68.708 A377.352
X68.709 A377.355
X68.87 A379.061
X69.031 A380.765
X69.192 A382.47
X69.353 A384.176
X69.514 A385.884
X69.675 A387.587
A387.59
X69.836 A389.297
X69.997 A391.001
X70.159 A392.709
X70.32 A394.413
X70.481 A396.122
X70.642 A397.829
X70.803 A399.533
X70.964 A401.241
X71.125 A402.945
X71.126 A402.948
X71.287 A404.654
X71.448 A406.358
X71.609 A408.066
X71.77 A409.771
X71.931 A411.476
X72.092 A413.18
A413.183
X72.253 A414.889
X72.414 A416.593
X72.576 A418.298
X72.737 A420.004
X72.898 A421.712
X73.059 A423.416
A423.418
X73.22 A425.125
X73.381 A426.829
X73.542 A428.537
X73.704 A430.242
X73.865 A431.95
X74.026 A433.657
X74.187 A435.361
X74.348 A437.071
X74.509 A438.777
X74.67 A440.481
X74.831 A442.187
X74.993 A443.895
X75.154 A445.598
X75.315 A447.304
X75.476 A449.009
X75.637 A450.717
X75.798 A452.422
X75.959 A454.127
X76.121 A455.835
X76.282 A457.54
X76.443 A459.245
X76.604 A460.953
X76.765 A462.657
X76.926 A464.365
X77.087 A466.069
X77.088 A466.072
X77.249 A467.779
X77.41 A469.485
X77.571 A471.189
A471.192
X77.732 A472.899
X77.893 A474.605
X78.054 A476.309
X78.215 A478.015
X78.376 A479.723
X78.537 A481.426
X78.699 A483.132
X78.86 A484.837
X79.021 A486.545
X79.182 A488.25
X79.343 A489.955
X79.504 A491.663
X79.665 A493.368
X79.827 A495.073
X79.988 A496.781
X80.149 A498.485
X80.31 A500.194
X80.471 A501.901
X80.632 A503.605
X80.793 A505.314
X80.955 A507.021
X81.116 A508.725
X81.277 A510.433
X81.438 A512.137
A512.14
X81.599 A513.846
X81.76 A515.55
X81.921 A517.255
X82.082 A518.961
X82.244 A520.668
X82.405 A522.372
X82.566 A524.078
X82.727 A525.786
X82.888 A527.49
X83.049 A529.196
X83.21 A530.901
X83.372 A532.609
X83.533 A534.314
X83.694 A536.022
X83.855 A537.729
X84.016 A539.434
X84.177 A541.143
X84.338 A542.849
X84.499 A544.553
X84.5 A544.555
X84.661 A546.262
X84.822 A547.966
X84.983 A549.674
X85.144 A551.379
X85.305 A553.083
X85.466 A554.788
A554.791
X85.627 A556.497
X85.788 A558.201
X85.95 A559.906
A559.908
X86.111 A561.615
X86.272 A563.319
X86.433 A565.023
X86.594 A566.729
X86.755 A568.437
X86.916 A570.141
X86.917 A570.144
X87.078 A571.851
X87.239 A573.557
X87.4 A575.261
A575.264
X87.561 A576.971
X87.722 A578.677
X87.883 A580.381
A580.384
X88.044 A582.09
X88.205 A583.794
X88.367 A585.502
X88.528 A587.207
X88.689 A588.912
X88.85 A590.62
X89.011 A592.324
X89.172 A594.029
X89.333 A595.734
X89.334 A595.737
X89.495 A597.443
X89.656 A599.147
X89.817 A600.852
X89.978 A602.557
X90.139 A604.265
X90.3 A605.969
A605.972
X90.461 A607.678
X90.622 A609.383
X90.784 A611.091
X90.945 A612.799
X91.106 A614.505
X91.267 A616.209
A616.212
X91.428 A617.918
X91.589 A619.622
X91.75 A621.33
X91.912 A623.035
X92.073 A624.743
X92.234 A626.447
X92.395 A628.153
X92.556 A629.858
X92.717 A631.566
X92.878 A633.27
X93.039 A634.975
X93.201 A636.68
A636.682
X93.362 A638.389
X93.523 A640.093
X93.684 A641.797
A641.8
X93.845 A643.507
X94.006 A645.211
X94.168 A646.919
X94.329 A648.626
X94.49 A650.331
X94.651 A652.039
X94.812 A653.746
X94.973 A655.451
X95.134 A657.159
X95.295 A658.862
X95.296 A658.865
X95.457 A660.572
X95.618 A662.275
X95.779 A663.98
X95.94 A665.686
X96.101 A667.394
X96.262 A669.098
X96.423 A670.804
X96.584 A672.512
X96.745 A674.215
X96.907 A675.921
X97.068 A677.629
X97.229 A679.333
X97.39 A681.039
X97.551 A682.748
X97.712 A684.454
X97.873 A686.159
X98.035 A687.868
X98.196 A689.574
X98.357 A691.279
X98.518 A692.987
X98.679 A694.69
A694.693
X98.84 A696.4
X99.001 A698.103
X99.162 A699.808
X99.163 A699.811
X99.324 A701.517
X99.485 A703.221
X99.646 A704.926
A704.929
X99.807 A706.635
X99.968 A708.339
X100.129 A710.043
X100.29 A711.749
X100.452 A713.457
X100.613 A715.161
A715.164
X100.774 A716.87
X100.935 A718.575
X101.096 A720.282
X101.257 A721.987
X101.418 A723.696
X101.58 A725.402
X101.741 A727.107
X101.902 A728.815
X102.063 A730.519
A730.521
X102.224 A732.228
X102.385 A733.932
X102.546 A735.636
X102.547 A735.639
X102.708 A737.346
X102.868 A739.048
X103.03 A740.751
A740.758
X103.191 A742.464
X103.312 A743.743
X103.433 A745.021
X103.553 A746.3
X103.674 A747.579
X103.835 A749.287
X103.996 A750.988
X104.157 A752.692
X104.158 A752.698
X104.319 A754.404
X104.48 A756.112
X104.641 A757.816
X104.802 A759.525
X104.963 A761.232
X105.124 A762.933
X105.285 A764.637
X105.286 A764.643
X105.447 A766.349
X105.608 A768.057
X105.769 A769.761
X105.93 A771.469
X106.091 A773.174
X106.252 A774.879
X106.413 A776.581
X106.574 A778.285
X106.575 A778.291
X106.736 A779.996
X106.897 A781.702
X107.058 A783.41
X107.219 A785.115
X107.38 A786.819
X107.541 A788.523
X107.702 A790.223
X107.703 A790.234
X107.864 A791.94
X108.025 A793.644
X108.186 A795.354
X108.347 A797.06
X108.508 A798.764
X108.669 A800.474
X108.83 A802.176
X108.991 A803.876
X108.992 A803.884
X109.153 A805.589
X109.314 A807.298
X109.435 A808.576
X109.556 A809.855
X109.676 A811.134
X109.797 A812.412
X109.958 A814.116
X110.119 A815.816
X110.12 A815.825
X110.281 A817.53
X110.442 A819.238
X110.603 A820.943
X110.764 A822.647
X110.925 A824.356
X111.086 A826.06
X111.247 A827.764
X111.408 A829.464
X111.409 A829.474
X111.57 A831.182
X111.731 A832.888
X111.892 A834.592
X112.053 A836.302
X112.214 A838.008
X112.375 A839.712
X112.536 A841.414
X112.697 A843.118
X112.698 A843.125
X112.859 A844.83
X113.02 A846.535
X113.181 A848.244
X113.342 A849.948
X113.503 A851.653
X113.664 A853.357
X113.825 A855.057
X113.826 A855.065
X113.987 A856.771
X114.148 A858.476
X114.309 A860.184
X114.47 A861.888
X114.631 A863.597
X114.792 A865.301
X114.953 A867.006
X115.114 A868.709
X115.115 A868.716
X115.276 A870.421
X115.437 A872.13
X115.598 A873.836
X115.759 A875.541
X115.92 A877.249
X116.081 A878.949
X116.242 A880.65
X116.243 A880.658
X116.404 A882.363
X116.565 A884.072
X116.726 A885.776
X116.887 A887.481
X117.048 A889.189
X117.209 A890.894
X117.37 A892.594
X117.531 A894.295
X117.532 A894.306
X117.693 A896.012
X117.854 A897.716
X118.015 A899.425
X118.176 A901.129
X118.337 A902.838
X118.498 A904.54
X118.659 A906.24
X118.66 A906.251
X118.821 A907.958
X118.982 A909.665
X119.143 A911.369
X119.304 A913.077
X119.465 A914.782
X119.626 A916.486
X119.787 A918.19
X119.948 A919.89
X119.949 A919.899
X120.11 A921.604
X120.271 A923.309
X120.432 A925.018
X120.593 A926.722
X120.754 A928.427
X120.915 A930.131
X121.076 A931.831
X121.077 A931.839
X121.238 A933.545
X121.399 A935.253
X121.56 A936.957
X121.721 A938.666
X121.882 A940.373
X122.043 A942.077
X122.204 A943.782
X122.365 A945.485
X122.366 A945.492
X122.527 A947.197
X122.688 A948.905
X122.849 A950.61
X123.01 A952.315
X123.171 A954.023
X123.332 A955.723
X123.493 A957.424
X123.494 A957.434
X123.655 A959.141
X123.776 A960.419
X123.897 A961.698
X124.017 A962.976
X124.138 A964.255
X124.299 A965.963
X124.46 A967.668
X124.621 A969.369
X124.782 A971.073
X124.783 A971.08
X124.944 A972.785
X125.105 A974.495
X125.266 A976.201
X125.427 A977.905
X125.588 A979.615
X125.749 A981.317
X125.91 A983.017
X125.911 A983.027
X126.072 A984.734
X126.233 A986.438
X126.394 A988.143
X126.555 A989.851
X126.716 A991.556
X126.877 A993.261
X127.038 A994.965
X127.199 A996.664
X127.2 A996.673
X127.361 A998.378
X127.522 A1000.083
X127.683 A1001.792
X127.844 A1003.496
X128.005 A1005.201
X128.166 A1006.905
X128.327 A1008.605
X128.328 A1008.615
X128.489 A1010.323
X128.65 A1012.029
X128.811 A1013.733
X128.972 A1015.443
X129.133 A1017.149
X129.294 A1018.853
X129.455 A1020.557
X129.616 A1022.257
X129.617 A1022.268
X129.778 A1023.974
X129.899 A1025.253
X130.02 A1026.531
X130.14 A1027.81
X130.261 A1029.089
X130.422 A1030.797
X130.583 A1032.501
X130.744 A1034.203
X130.905 A1035.907
X130.906 A1035.914
X131.067 A1037.619
X131.228 A1039.324
X131.389 A1041.032
X131.55 A1042.737
X131.711 A1044.445
X131.872 A1046.146
X132.033 A1047.85
X132.034 A1047.857
X132.195 A1049.562
X132.356 A1051.271
X132.517 A1052.977
X132.678 A1054.682
X132.839 A1056.39
X133. A1058.094
X133.161 A1059.798
X133.322 A1061.498
X133.323 A1061.507
X133.484 A1063.212
X133.645 A1064.917
X133.806 A1066.625
X133.967 A1068.33
X134.128 A1070.035
X134.289 A1071.739
X134.45 A1073.438
X134.451 A1073.447
X134.612 A1075.152
X134.773 A1076.861
X134.934 A1078.565
X135.095 A1080.273
X135.256 A1081.977
X135.417 A1083.686
X135.578 A1085.386
X135.739 A1087.09
X135.74 A1087.099
X135.901 A1088.806
X136.062 A1090.51
X136.223 A1092.218
X136.384 A1093.922
X136.545 A1095.631
X136.706 A1097.331
X136.867 A1099.031
X136.868 A1099.042
X137.029 A1100.748
X137.19 A1102.453
X137.351 A1104.158
X137.512 A1105.866
X137.673 A1107.571
X137.834 A1109.275
X137.995 A1110.977
X138.156 A1112.681
X138.157 A1112.688
X138.318 A1114.393
X138.479 A1116.101
X138.64 A1117.805
X138.801 A1119.514
X138.962 A1121.218
X139.123 A1122.923
X139.285 A1124.626
A1124.633
X139.446 A1126.338
X139.607 A1128.046
X139.768 A1129.751
X139.929 A1131.459
X140.09 A1133.164
X140.251 A1134.868
X140.412 A1136.572
X140.573 A1138.272
X140.574 A1138.281
X140.735 A1139.986
X140.896 A1141.694
X141.017 A1142.973
X141.138 A1144.251
X141.258 A1145.53
X141.379 A1146.809
X141.54 A1148.513
X141.701 A1150.212
X141.702 A1150.223
X141.863 A1151.929
X142.024 A1153.634
X142.185 A1155.343
X142.346 A1157.049
X142.507 A1158.754
X142.668 A1160.462
X142.829 A1162.163
X142.99 A1163.867
X142.991 A1163.875
X143.152 A1165.582
X143.313 A1167.287
X143.474 A1168.991
X143.635 A1170.7
X143.796 A1172.404
X143.957 A1174.105
X144.118 A1175.805
X144.119 A1175.816
X144.28 A1177.522
X144.441 A1179.227
X144.602 A1180.932
X144.763 A1182.64
X144.924 A1184.345
X145.085 A1186.049
X145.246 A1187.753
X145.407 A1189.453
X145.408 A1189.464
X145.569 A1191.171
X145.73 A1192.878
X145.891 A1194.582
X146.052 A1196.291
X146.213 A1197.998
X146.374 A1199.698
X146.535 A1201.402
X146.536 A1201.409
X146.697 A1203.114
X146.858 A1204.819
X147.019 A1206.528
X147.14 A1207.806
X147.261 A1209.085
X147.381 A1210.364
X147.502 A1211.642
X147.663 A1213.346
X147.824 A1215.046
X147.825 A1215.055
X147.986 A1216.76
X148.147 A1218.468
X148.308 A1220.173
X148.469 A1221.878
X148.63 A1223.586
X148.791 A1225.287
X148.952 A1226.991
X148.953 A1226.999
X149.114 A1228.706
X149.275 A1230.41
X149.436 A1232.119
X149.597 A1233.826
X149.758 A1235.53
X149.919 A1237.238
X150.08 A1238.939
X150.242 A1240.643
A1240.65
X150.363 A1241.929
X150.484 A1243.208
X150.604 A1244.486
X150.725 A1245.765
X150.886 A1247.474
X151.047 A1249.178
X151.208 A1250.883
X151.369 A1252.585
X151.53 A1254.289
X151.531 A1254.296
X151.692 A1256.001
X151.853 A1257.706
X152.014 A1259.414
X152.175 A1261.118
X152.336 A1262.828
X152.497 A1264.53
X152.658 A1266.23
X152.659 A1266.24
X152.82 A1267.948
X152.981 A1269.654
X153.142 A1271.358
X153.303 A1273.067
X153.464 A1274.771
X153.625 A1276.479
X153.786 A1278.179
X153.947 A1279.88
X153.948 A1279.888
X154.109 A1281.593
X154.27 A1283.302
X154.431 A1285.006
X154.592 A1286.711
X154.753 A1288.42
X154.914 A1290.119
X155.075 A1291.82
X155.076 A1291.829
X155.237 A1293.534
X155.398 A1295.242
X155.559 A1296.946
X155.72 A1298.656
X155.881 A1300.362
X156.042 A1302.066
X156.203 A1303.771
X156.364 A1305.475
X156.365 A1305.481
X156.526 A1307.186
X156.687 A1308.895
X156.848 A1310.599
X157.009 A1312.307
X157.17 A1314.011
X157.331 A1315.713
X157.492 A1317.417
X157.493 A1317.424
X157.614 A1318.703
X157.735 A1319.982
X157.855 A1321.261
X157.976 A1322.539
X158.137 A1324.248
X158.298 A1325.952
X158.459 A1327.657
X158.62 A1329.361
X158.781 A1331.061
X158.782 A1331.07
X158.943 A1332.775
X159.104 A1334.484
X159.265 A1336.19
X159.426 A1337.895
X159.587 A1339.604
X159.748 A1341.306
X159.909 A1343.006
X159.91 A1343.016
X160.071 A1344.723
X160.232 A1346.427
X160.393 A1348.135
X160.554 A1349.84
X160.715 A1351.545
X160.876 A1353.253
X161.037 A1354.953
X161.198 A1356.654
X161.199 A1356.664
X161.36 A1358.371
X161.481 A1359.649
X161.602 A1360.928
X161.722 A1362.207
X161.843 A1363.485
X162.004 A1365.194
X162.165 A1366.893
X162.326 A1368.594
X162.327 A1368.605
X162.488 A1370.312
X162.649 A1372.019
X162.81 A1373.723
X162.971 A1375.432
X163.132 A1377.139
X163.293 A1378.843
X163.454 A1380.547
X163.615 A1382.247
X163.616 A1382.257
X163.777 A1383.964
X163.938 A1385.668
X164.099 A1387.373
X164.26 A1389.081
X164.421 A1390.785
X164.582 A1392.487
X164.743 A1394.191
X164.744 A1394.198
X164.905 A1395.903
X165.066 A1397.608
X165.227 A1399.313
X165.388 A1401.022
X165.549 A1402.726
X165.71 A1404.434
X165.871 A1406.135
X166.032 A1407.839
X166.033 A1407.846
X166.194 A1409.551
X166.355 A1411.26
X166.516 A1412.967
X166.677 A1414.671
X166.838 A1416.379
X166.999 A1418.08
X167.16 A1419.784
X167.161 A1419.791
X167.322 A1421.496
X167.483 A1423.204
X167.604 A1424.483
X167.725 A1425.762
X167.845 A1427.04
X167.966 A1428.319
X168.127 A1430.027
X168.288 A1431.727
X168.449 A1433.428
X168.45 A1433.438
X168.611 A1435.145
X168.772 A1436.849
X168.933 A1438.554
X169.094 A1440.262
X169.255 A1441.967
X169.416 A1443.671
X169.577 A1445.371
X169.578 A1445.381
X169.739 A1447.088
X169.9 A1448.795
X170.061 A1450.499
X170.222 A1452.208
X170.383 A1453.912
X170.544 A1455.62
X170.705 A1457.321
X170.867 A1459.025
A1459.032
X170.988 A1460.31
X171.109 A1461.589
X171.229 A1462.868
X171.35 A1464.147
X171.511 A1465.855
X171.672 A1467.56
X171.833 A1469.261
X171.994 A1470.965
X171.995 A1470.972
X172.156 A1472.677
X172.317 A1474.382
X172.478 A1476.091
X172.639 A1477.795
X172.8 A1479.503
X172.961 A1481.207
X173.122 A1482.912
X173.283 A1484.615
X173.284 A1484.622
X173.445 A1486.327
X173.606 A1488.036
X173.767 A1489.74
X173.928 A1491.448
X174.089 A1493.152
X174.25 A1494.861
X174.411 A1496.561
X174.572 A1498.261
X174.573 A1498.272
X174.734 A1499.978
X174.895 A1501.683
X175.056 A1503.388
X175.217 A1505.096
X175.378 A1506.8
X175.539 A1508.501
X175.7 A1510.202
X175.701 A1510.212
X175.862 A1511.919
X176.023 A1513.623
X176.184 A1515.331
X176.345 A1517.036
X176.506 A1518.745
X176.667 A1520.451
X176.828 A1522.152
X176.989 A1523.856
X176.99 A1523.865
X177.151 A1525.571
X177.312 A1527.276
X177.473 A1528.984
X177.634 A1530.689
X177.795 A1532.393
X177.956 A1534.097
X178.117 A1535.797
X178.118 A1535.806
X178.279 A1537.511
X178.44 A1539.216
X178.601 A1540.924
X178.722 A1542.203
X178.843 A1543.482
X178.963 A1544.76
X179.084 A1546.039
X179.245 A1547.743
X179.406 A1549.443
X179.407 A1549.453
X179.568 A1551.16
X179.729 A1552.864
X179.89 A1554.572
X180.051 A1556.276
X180.212 A1557.986
X180.373 A1559.688
X180.534 A1561.388
X180.535 A1561.398
X180.696 A1563.106
X180.857 A1564.812
X181.018 A1566.517
X181.179 A1568.221
X181.34 A1569.929
X181.501 A1571.634
X181.662 A1573.335
X181.823 A1575.037
X181.824 A1575.046
X181.985 A1576.752
X182.146 A1578.457
X182.307 A1580.163
X182.468 A1581.869
X182.629 A1583.575
X182.79 A1585.277
X182.951 A1586.978
X182.952 A1586.987
X183.073 A1588.267
X183.194 A1589.547
X183.314 A1590.827
X183.435 A1592.107
X183.596 A1593.814
X183.757 A1595.52
X183.918 A1597.227
X184.079 A1598.929
X184.24 A1600.631
X184.241 A1600.639
X184.402 A1602.346
X184.563 A1604.051
X184.724 A1605.757
X184.885 A1607.463
X185.046 A1609.168
X185.207 A1610.87
X185.368 A1612.572
X185.369 A1612.58
X185.53 A1614.286
X185.691 A1615.992
X185.852 A1617.697
X186.013 A1619.403
X186.174 A1621.109
X186.335 A1622.815
X186.496 A1624.518
X186.657 A1626.22
X186.658 A1626.228
X186.819 A1627.935
X186.98 A1629.642
X187.141 A1631.349
X187.302 A1633.055
X187.463 A1634.761
X187.624 A1636.463
X187.785 A1638.165
X187.786 A1638.174
X187.947 A1639.88
X188.108 A1641.585
X188.269 A1643.291
X188.43 A1644.996
X188.591 A1646.702
X188.752 A1648.409
X188.913 A1650.11
X189.074 A1651.811
X189.075 A1651.82
X189.236 A1653.526
X189.397 A1655.231
X189.558 A1656.937
X189.719 A1658.643
X189.88 A1660.35
X190.041 A1662.052
X190.202 A1663.755
X190.203 A1663.763
X190.364 A1665.47
X190.525 A1667.177
X190.686 A1668.883
X190.847 A1670.59
X191.008 A1672.296
X191.169 A1674.002
X191.33 A1675.704
X191.491 A1677.406
X191.492 A1677.414
X191.653 A1679.12
X191.774 A1680.399
X191.895 A1681.678
X192.015 A1682.958
X192.136 A1684.237
X192.297 A1685.943
X192.458 A1687.644
X192.619 A1689.346
X192.62 A1689.354
X192.781 A1691.06
X192.942 A1692.766
X193.103 A1694.472
X193.264 A1696.178
X193.425 A1697.884
X193.586 A1699.591
X193.747 A1701.293
X193.908 A1702.996
X193.909 A1703.005
X194.07 A1704.711
X194.231 A1706.418
X194.392 A1708.124
X194.553 A1709.83
X194.714 A1711.537
X194.875 A1713.243
X195.036 A1714.944
X195.197 A1716.645
X195.198 A1716.654
X195.359 A1718.36
X195.52 A1720.065
X195.681 A1721.772
X195.842 A1723.477
X196.003 A1725.183
X196.164 A1726.884
X196.325 A1728.586
X196.326 A1728.594
X196.487 A1730.3
X196.648 A1732.006
X196.809 A1733.713
X196.97 A1735.419
X197. A1735.735
A1694.852
X196.912 A1693.92
X196.756 A1692.27
X196.755 A1692.261
X196.599 A1690.607
X196.443 A1688.952
X196.287 A1687.302
X196.131 A1685.652
X196.13 A1685.643
X195.974 A1683.989
X195.818 A1682.335
X195.662 A1680.685
X195.506 A1679.034
X195.505 A1679.026
X195.349 A1677.371
X195.193 A1675.717
X195.037 A1674.067
X194.881 A1672.417
X194.88 A1672.408
X194.724 A1670.754
X194.568 A1669.1
X194.412 A1667.45
X194.256 A1665.801
X194.255 A1665.792
X194.099 A1664.138
X193.943 A1662.483
X193.787 A1660.833
X193.631 A1659.183
X193.63 A1659.174
X193.474 A1657.52
X193.318 A1655.865
X193.162 A1654.214
X193.005 A1652.564
A1652.555
X192.849 A1650.9
X192.693 A1649.245
X192.537 A1647.595
X192.381 A1645.945
X192.38 A1645.936
X192.224 A1644.282
X192.068 A1642.627
X191.912 A1640.978
X191.756 A1639.328
X191.755 A1639.319
X191.599 A1637.665
X191.443 A1636.011
X191.287 A1634.361
X191.131 A1632.712
X191.13 A1632.703
X190.974 A1631.049
X190.818 A1629.395
X190.662 A1627.745
X190.506 A1626.095
X190.505 A1626.086
X190.349 A1624.432
X190.193 A1622.777
X190.037 A1621.127
X189.881 A1619.477
X189.88 A1619.468
X189.724 A1617.813
X189.568 A1616.158
X189.412 A1614.507
X189.255 A1612.857
A1612.848
X189.099 A1611.193
X188.943 A1609.539
X188.787 A1607.889
X188.631 A1606.239
X188.63 A1606.23
X188.474 A1604.576
X188.318 A1602.922
X188.162 A1601.273
X188.006 A1599.623
X188.005 A1599.614
X187.849 A1597.96
X187.693 A1596.306
X187.537 A1594.656
X187.381 A1593.007
X187.38 A1592.998
X187.224 A1591.344
X187.068 A1589.689
X186.912 A1588.039
X186.756 A1586.389
X186.755 A1586.38
X186.599 A1584.725
X186.443 A1583.071
X186.287 A1581.42
X186.13 A1579.77
A1579.761
X185.974 A1578.106
X185.818 A1576.451
X185.662 A1574.8
X185.506 A1573.15
X185.505 A1573.142
X185.349 A1571.488
X185.193 A1569.833
X185.037 A1568.183
X184.881 A1566.536
X184.88 A1566.526
X184.724 A1564.871
X184.568 A1563.216
X184.412 A1561.567
X184.256 A1559.92
X184.255 A1559.909
X184.099 A1558.254
X183.943 A1556.6
X183.787 A1554.95
X183.631 A1553.303
X183.63 A1553.293
X183.474 A1551.638
X183.318 A1549.983
X183.162 A1548.333
X183.006 A1546.683
X183.005 A1546.674
X182.849 A1545.019
X182.693 A1543.364
X182.537 A1541.714
X182.381 A1540.064
X182.38 A1540.055
X182.224 A1538.4
X182.068 A1536.746
X181.912 A1535.095
X181.756 A1533.445
X181.755 A1533.436
X181.599 A1531.781
X181.443 A1530.128
X181.287 A1528.48
X181.131 A1526.829
X181.13 A1526.82
X180.974 A1525.165
X180.818 A1523.511
X180.662 A1521.863
X180.506 A1520.212
X180.505 A1520.203
X180.349 A1518.549
X180.193 A1516.898
X180.037 A1515.246
X179.881 A1513.595
X179.88 A1513.587
X179.724 A1511.932
X179.568 A1510.277
X179.412 A1508.626
X179.255 A1506.972
A1506.966
X179.099 A1505.311
X178.943 A1503.656
X178.787 A1502.006
X178.631 A1500.356
X178.63 A1500.347
X178.474 A1498.693
X178.318 A1497.042
X178.162 A1495.389
X178.006 A1493.739
X178.005 A1493.732
X177.849 A1492.08
X177.693 A1490.423
X177.537 A1488.773
X177.381 A1487.123
X177.38 A1487.116
X177.224 A1485.463
X177.068 A1483.807
X176.912 A1482.156
X176.756 A1480.506
X176.755 A1480.497
X176.599 A1478.843
X176.443 A1477.192
X176.287 A1475.539
X176.13 A1473.885
A1473.878
X175.974 A1472.224
X175.818 A1470.569
X175.662 A1468.919
X175.506 A1467.268
X175.505 A1467.26
X175.349 A1465.605
X175.193 A1463.95
X175.037 A1462.3
X174.881 A1460.65
X174.88 A1460.643
X174.724 A1458.99
X174.568 A1457.334
X174.412 A1455.684
X174.256 A1454.037
X174.255 A1454.026
X174.099 A1452.372
X173.943 A1450.717
X173.787 A1449.068
X173.631 A1447.421
X173.63 A1447.41
X173.474 A1445.755
X173.318 A1444.101
X173.162 A1442.45
X173.006 A1440.8
X173.005 A1440.791
X172.849 A1439.136
X172.693 A1437.482
X172.537 A1435.832
X172.381 A1434.181
X172.38 A1434.172
X172.224 A1432.518
X172.068 A1430.863
X171.912 A1429.213
X171.756 A1427.562
X171.755 A1427.554
X171.599 A1425.899
X171.443 A1424.244
X171.287 A1422.595
X171.131 A1420.948
X171.13 A1420.937
X170.974 A1419.282
X170.818 A1417.629
X170.662 A1415.981
X170.506 A1414.329
X170.505 A1414.321
X170.349 A1412.666
X170.193 A1411.012
X170.037 A1409.364
X169.881 A1407.713
X169.88 A1407.704
X169.724 A1406.049
X169.568 A1404.395
X169.412 A1402.744
X169.256 A1401.094
X169.255 A1401.085
X169.099 A1399.43
X168.943 A1397.776
X168.787 A1396.126
X168.631 A1394.475
X168.63 A1394.466
X168.474 A1392.812
X168.318 A1391.157
X168.162 A1389.507
X168.006 A1387.856
X168.005 A1387.848
X167.849 A1386.194
X167.693 A1384.542
X167.537 A1382.89
X167.381 A1381.24
X167.38 A1381.231
X167.224 A1379.577
X167.068 A1377.926
X166.912 A1376.274
X166.756 A1374.623
X166.755 A1374.615
X166.599 A1372.961
X166.443 A1371.309
X166.287 A1369.657
X166.131 A1368.007
X166.13 A1367.998
X165.974 A1366.343
X165.818 A1364.689
X165.662 A1363.038
X165.506 A1361.388
X165.504 A1361.377
X165.349 A1359.721
X165.193 A1358.068
X165.037 A1356.417
X164.881 A1354.767
X164.88 A1354.76
X164.724 A1353.108
X164.568 A1351.451
X164.412 A1349.801
X164.256 A1348.15
X164.255 A1348.144
X164.099 A1346.491
X163.943 A1344.834
X163.787 A1343.184
X163.631 A1341.534
X163.63 A1341.527
X163.474 A1339.875
X163.318 A1338.218
X163.162 A1336.568
X163.006 A1334.917
X163.005 A1334.91
X162.849 A1333.258
X162.693 A1331.601
X162.537 A1329.951
X162.381 A1328.301
X162.379 A1328.29
X162.224 A1326.634
X162.068 A1324.98
X161.912 A1323.33
X161.756 A1321.68
X161.755 A1321.671
X161.599 A1320.016
X161.443 A1318.362
X161.287 A1316.712
X161.131 A1315.065
X161.13 A1315.054
X160.974 A1313.4
X160.818 A1311.746
X160.662 A1310.098
X160.506 A1308.447
X160.505 A1308.438
X160.349 A1306.783
X160.193 A1305.129
X160.037 A1303.482
X159.881 A1301.83
X159.88 A1301.821
X159.724 A1300.167
X159.568 A1298.512
X159.412 A1296.862
X159.256 A1295.211
X159.255 A1295.203
X159.099 A1293.548
X158.943 A1291.893
X158.787 A1290.243
X158.631 A1288.593
X158.63 A1288.584
X158.474 A1286.929
X158.318 A1285.274
X158.162 A1283.624
X158.006 A1281.974
X158.005 A1281.965
X157.849 A1280.31
X157.693 A1278.657
X157.537 A1277.009
X157.381 A1275.357
X157.38 A1275.348
X157.224 A1273.695
X157.068 A1272.043
X156.912 A1270.391
X156.756 A1268.741
X156.755 A1268.732
X156.599 A1267.078
X156.443 A1265.427
X156.287 A1263.775
X156.131 A1262.124
X156.13 A1262.115
X155.974 A1260.461
X155.818 A1258.806
X155.662 A1257.156
X155.506 A1255.506
X155.505 A1255.497
X155.349 A1253.842
X155.193 A1252.187
X155.037 A1250.537
X154.881 A1248.887
X154.88 A1248.878
X154.724 A1247.223
X154.568 A1245.568
X154.412 A1243.918
X154.256 A1242.268
X154.255 A1242.261
X154.099 A1240.609
X153.943 A1238.952
X153.787 A1237.302
X153.631 A1235.651
X153.63 A1235.644
X153.474 A1233.992
X153.318 A1232.335
X153.162 A1230.685
X153.006 A1229.035
X153.005 A1229.028
X152.849 A1227.375
X152.693 A1225.719
X152.537 A1224.069
X152.381 A1222.418
X152.38 A1222.409
X152.224 A1220.755
X152.068 A1219.1
X151.912 A1217.45
X151.756 A1215.8
X151.755 A1215.791
X151.599 A1214.136
X151.443 A1212.478
X151.287 A1210.83
X151.131 A1209.183
X151.13 A1209.172
X150.974 A1207.517
X150.818 A1205.862
X150.662 A1204.213
X150.506 A1202.566
X150.505 A1202.555
X150.349 A1200.901
X150.193 A1199.246
X150.037 A1197.597
X149.881 A1195.95
X149.88 A1195.939
X149.724 A1194.284
X149.568 A1192.629
X149.412 A1190.98
X149.256 A1189.333
X149.255 A1189.322
X149.099 A1187.668
X148.943 A1186.013
X148.787 A1184.363
X148.631 A1182.712
X148.629 A1182.702
X148.474 A1181.045
X148.318 A1179.392
X148.162 A1177.742
X148.006 A1176.091
X148.005 A1176.082
X147.849 A1174.428
X147.693 A1172.774
X147.537 A1171.126
X147.381 A1169.475
X147.38 A1169.466
X147.224 A1167.811
X147.068 A1166.157
X146.912 A1164.509
X146.756 A1162.858
X146.755 A1162.849
X146.599 A1161.195
X146.443 A1159.541
X146.287 A1157.893
X146.131 A1156.242
X146.13 A1156.233
X145.974 A1154.578
X145.818 A1152.924
X145.662 A1151.276
X145.506 A1149.625
X145.504 A1149.614
X145.349 A1147.958
X145.193 A1146.305
X145.037 A1144.654
X144.881 A1143.004
X144.88 A1142.995
X144.724 A1141.341
X144.568 A1139.686
X144.412 A1138.036
X144.256 A1136.385
X144.255 A1136.376
X144.099 A1134.723
X143.943 A1133.071
X143.787 A1131.419
X143.631 A1129.769
X143.63 A1129.762
X143.474 A1128.109
X143.318 A1126.453
X143.162 A1124.803
X143.006 A1123.152
X143.005 A1123.145
X142.849 A1121.493
X142.693 A1119.836
X142.537 A1118.186
X142.381 A1116.536
X142.38 A1116.527
X142.224 A1114.872
X142.068 A1113.217
X141.912 A1111.567
X141.756 A1109.917
X141.755 A1109.908
X141.599 A1108.253
X141.443 A1106.599
X141.287 A1104.948
X141.131 A1103.298
X141.13 A1103.289
X140.974 A1101.635
X140.818 A1099.98
X140.662 A1098.33
X140.506 A1096.679
X140.505 A1096.67
X140.349 A1095.017
X140.193 A1093.365
X140.037 A1091.713
X139.881 A1090.063
X139.88 A1090.056
X139.724 A1088.403
X139.568 A1086.747
X139.412 A1085.097
X139.256 A1083.446
X139.255 A1083.439
X139.099 A1081.787
X138.943 A1080.13
X138.787 A1078.48
X138.631 A1076.83
X138.63 A1076.821
X138.474 A1075.166
X138.318 A1073.511
X138.162 A1071.861
X138.006 A1070.211
X138.005 A1070.202
X137.849 A1068.547
X137.693 A1066.893
X137.537 A1065.242
X137.381 A1063.592
X137.38 A1063.583
X137.224 A1061.929
X137.068 A1060.274
X136.912 A1058.625
X136.756 A1056.978
X136.755 A1056.967
X136.599 A1055.312
X136.443 A1053.657
X136.287 A1052.008
X136.131 A1050.361
X136.13 A1050.35
X135.974 A1048.696
X135.818 A1047.042
X135.662 A1045.394
X135.506 A1043.743
X135.505 A1043.734
X135.349 A1042.079
X135.193 A1040.424
X135.037 A1038.774
X134.881 A1037.124
X134.88 A1037.115
X134.724 A1035.46
X134.568 A1033.805
X134.412 A1032.155
X134.256 A1030.505
X134.254 A1030.494
X134.099 A1028.839
X133.943 A1027.189
X133.787 A1025.536
X133.631 A1023.886
X133.63 A1023.877
X133.474 A1022.223
X133.318 A1020.569
X133.162 A1018.921
X133.006 A1017.27
X133.005 A1017.261
X132.849 A1015.606
X132.693 A1013.952
X132.537 A1012.304
X132.381 A1010.653
X132.38 A1010.644
X132.224 A1008.99
X132.068 A1007.339
X131.912 A1005.687
X131.756 A1004.037
X131.755 A1004.028
X131.599 A1002.373
X131.443 A1000.718
X131.287 A999.067
X131.13 A997.414
A997.407
X130.974 A995.752
X130.818 A994.097
X130.662 A992.447
X130.506 A990.797
X130.505 A990.788
X130.349 A989.134
X130.193 A987.483
X130.037 A985.83
X129.881 A984.18
X129.88 A984.173
X129.724 A982.521
X129.568 A980.864
X129.412 A979.214
X129.256 A977.564
X129.255 A977.557
X129.099 A975.904
X128.943 A974.248
X128.787 A972.597
X128.631 A970.947
X128.63 A970.938
X128.474 A969.284
X128.318 A967.629
X128.162 A965.979
X128.006 A964.328
X128.005 A964.319
X127.849 A962.665
X127.693 A961.01
X127.537 A959.36
X127.381 A957.71
X127.38 A957.701
X127.224 A956.046
X127.068 A954.391
X126.912 A952.742
X126.756 A951.095
X126.755 A951.084
X126.599 A949.429
X126.443 A947.775
X126.287 A946.125
X126.131 A944.478
X126.13 A944.468
X125.974 A942.813
X125.818 A941.158
X125.662 A939.509
X125.506 A937.862
X125.505 A937.851
X125.349 A936.196
X125.193 A934.542
X125.037 A932.891
X124.881 A931.241
X124.88 A931.232
X124.724 A929.578
X124.568 A927.923
X124.412 A926.273
X124.256 A924.622
X124.255 A924.614
X124.099 A922.959
X123.943 A921.304
X123.787 A919.654
X123.631 A918.004
X123.63 A917.995
X123.474 A916.34
X123.318 A914.686
X123.162 A913.038
X123.006 A911.387
X123.005 A911.378
X122.849 A909.723
X122.693 A908.07
X122.537 A906.422
X122.381 A904.771
X122.38 A904.762
X122.224 A903.107
X122.068 A901.453
X121.912 A899.805
X121.756 A898.154
X121.755 A898.145
X121.599 A896.49
X121.443 A894.836
X121.287 A893.185
X121.131 A891.535
X121.13 A891.526
X120.974 A889.872
X120.818 A888.217
X120.662 A886.567
X120.506 A884.916
X120.505 A884.908
X120.349 A883.253
X120.193 A881.598
X120.037 A879.948
X119.881 A878.298
X119.88 A878.289
X119.724 A876.635
X119.568 A874.983
X119.412 A873.331
X119.256 A871.681
X119.255 A871.672
X119.099 A870.018
X118.943 A868.367
X118.787 A866.715
X118.631 A865.065
X118.63 A865.058
X118.474 A863.405
X118.318 A861.749
X118.162 A860.098
X118.006 A858.448
X118.005 A858.439
X117.849 A856.784
X117.693 A855.13
X117.537 A853.479
X117.38 A851.825
A851.818
X117.224 A850.163
X117.068 A848.509
X116.912 A846.858
X116.756 A845.208
X116.755 A845.201
X116.599 A843.549
X116.443 A841.892
X116.287 A840.243
X116.131 A838.596
X116.13 A838.585
X115.974 A836.93
X115.818 A835.276
X115.662 A833.626
X115.506 A831.979
X115.505 A831.969
X115.349 A830.314
X115.193 A828.659
X115.037 A827.009
X114.881 A825.359
X114.88 A825.352
X114.724 A823.699
X114.568 A822.043
X114.412 A820.391
X114.255 A818.738
A818.731
X114.099 A817.076
X113.943 A815.421
X113.787 A813.771
X113.631 A812.121
X113.63 A812.112
X113.474 A810.457
X113.318 A808.803
X113.162 A807.153
X113.006 A805.506
X113.005 A805.496
X112.849 A803.841
X112.693 A802.187
X112.537 A800.539
X112.381 A798.888
X112.38 A798.879
X112.224 A797.224
X112.068 A795.571
X111.912 A793.923
X111.756 A792.271
X111.755 A792.262
X111.599 A790.608
X111.443 A788.953
X111.287 A787.303
X111.131 A785.653
X111.13 A785.644
X110.974 A783.989
X110.818 A782.334
X110.662 A780.684
X110.506 A779.034
X110.505 A779.025
X110.349 A777.37
X110.193 A775.715
X110.037 A774.065
X109.881 A772.415
X109.88 A772.406
X109.724 A770.752
X109.568 A769.101
X109.412 A767.449
X109.256 A765.798
X109.255 A765.79
X109.099 A764.136
X108.943 A762.484
X108.787 A760.832
X108.631 A759.182
X108.63 A759.173
X108.474 A757.519
X108.318 A755.868
X108.162 A754.216
X108.006 A752.565
X108.005 A752.557
X107.849 A750.902
X107.693 A749.247
X107.537 A747.597
X107.381 A745.947
X107.38 A745.938
X107.224 A744.283
X107.068 A742.628
X106.912 A740.978
X106.756 A739.328
X106.755 A739.319
X106.599 A737.664
X106.443 A736.01
X106.287 A734.359
X106.131 A732.709
X106.13 A732.702
X105.974 A731.05
X105.818 A729.393
X105.662 A727.743
X105.506 A726.093
X105.505 A726.086
X105.349 A724.433
X105.193 A722.776
X105.037 A721.127
X104.881 A719.48
X104.88 A719.469
X104.724 A717.815
X104.568 A716.16
X104.412 A714.51
X104.256 A712.859
X104.255 A712.851
X104.099 A711.196
X103.943 A709.541
X103.787 A707.891
X103.631 A706.241
X103.629 A706.23
X103.474 A704.574
X103.318 A702.921
X103.162 A701.273
X103.006 A699.622
X103.005 A699.613
X102.849 A697.958
X102.693 A696.304
X102.537 A694.654
X102.381 A693.007
X102.38 A692.996
X102.224 A691.342
X102.068 A689.687
X101.912 A688.038
X101.756 A686.391
X101.755 A686.38
X101.599 A684.725
X101.443 A683.072
X101.287 A681.423
X101.131 A679.772
X101.13 A679.763
X100.974 A678.109
X100.818 A676.454
X100.662 A674.804
X100.506 A673.154
X100.504 A673.143
X100.349 A671.487
X100.193 A669.833
X100.037 A668.183
X99.881 A666.532
X99.88 A666.524
X99.724 A664.869
X99.568 A663.215
X99.412 A661.567
X99.256 A659.916
X99.255 A659.907
X99.099 A658.253
X98.943 A656.602
X98.787 A654.95
X98.631 A653.299
X98.63 A653.29
X98.474 A651.637
X98.318 A649.985
X98.162 A648.333
X98.006 A646.683
X98.005 A646.674
X97.849 A645.019
X97.693 A643.365
X97.537 A641.714
X97.381 A640.064
X97.38 A640.055
X97.224 A638.4
X97.068 A636.747
X96.912 A635.094
X96.755 A633.439
X96.599 A631.784
X96.443 A630.129
X96.287 A628.475
X96.13 A626.82
X95.974 A625.166
X95.818 A623.514
X95.662 A621.858
X95.505 A620.204
X95.349 A618.553
A618.55
X95.193 A616.896
X95.037 A615.242
X94.88 A613.588
X94.724 A611.937
A611.934
X94.568 A610.28
X94.412 A608.625
X94.255 A606.97
X94.099 A605.316
X93.943 A603.661
X93.787 A602.007
X93.63 A600.351
X93.474 A598.697
X93.318 A597.042
X93.162 A595.388
X93.005 A593.733
X92.849 A592.078
X92.693 A590.423
X92.537 A588.769
X92.38 A587.115
X92.224 A585.464
A585.461
X92.068 A583.807
X91.912 A582.153
X91.756 A580.501
X91.599 A578.845
X91.443 A577.19
X91.287 A575.536
X91.131 A573.885
X90.974 A572.229
X90.818 A570.574
X90.662 A568.919
X90.505 A567.264
X90.349 A565.61
X90.193 A563.955
X90.037 A562.301
X89.88 A560.645
X89.724 A558.991
X89.568 A557.336
X89.412 A555.682
X89.255 A554.027
X89.099 A552.372
X88.943 A550.718
X88.787 A549.067
A549.064
X88.63 A547.41
X88.474 A545.756
X88.318 A544.102
X88.162 A542.451
A542.448
X88.005 A540.794
X87.849 A539.14
X87.693 A537.488
X87.537 A535.832
X87.38 A534.177
X87.224 A532.523
X87.068 A530.868
X86.912 A529.213
X86.755 A527.558
X86.599 A525.904
A525.901
X86.443 A524.246
X86.287 A522.592
X86.13 A520.937
X85.974 A519.283
X85.818 A517.629
X85.662 A515.978
A515.975
X85.505 A514.321
X85.349 A512.667
X85.193 A511.015
X85.037 A509.359
X84.88 A507.704
X84.724 A506.05
X84.568 A504.398
X84.412 A502.743
X84.255 A501.088
X84.099 A499.434
X83.943 A497.782
X83.787 A496.126
X83.63 A494.471
X83.474 A492.817
X83.318 A491.161
X83.161 A489.504
X83.005 A487.85
X82.849 A486.196
X82.693 A484.541
X82.537 A482.886
X82.38 A481.232
X82.224 A479.581
A479.578
X82.068 A477.924
X81.912 A476.27
X81.755 A474.616
X81.599 A472.965
A472.962
X81.443 A471.308
X81.287 A469.653
X81.13 A467.999
X80.974 A466.348
A466.345
X80.818 A464.691
X80.662 A463.037
X80.505 A461.382
X80.349 A459.727
X80.193 A458.072
X80.037 A456.418
X79.88 A454.763
X79.724 A453.109
X79.568 A451.453
X79.412 A449.799
X79.255 A448.144
X79.099 A446.49
X78.943 A444.835
X78.787 A443.181
X78.631 A441.529
X78.474 A439.873
X78.318 A438.218
X78.162 A436.564
X78.006 A434.913
X77.849 A433.257
X77.693 A431.602
X77.537 A429.952
A429.949
X77.38 A428.294
X77.224 A426.64
X77.068 A424.985
X76.912 A423.331
X76.755 A421.676
X76.599 A420.021
X76.443 A418.366
X76.287 A416.712
X76.13 A415.057
X75.974 A413.403
X75.818 A411.747
X75.662 A410.093
X75.505 A408.438
X75.349 A406.784
X75.193 A405.13
X75.037 A403.479
A403.476
X74.88 A401.822
X74.724 A400.167
X74.568 A398.513
X74.412 A396.862
A396.859
X74.255 A395.205
X74.099 A393.551
X73.943 A391.899
X73.787 A390.244
X73.63 A388.589
X73.474 A386.934
X73.318 A385.279
X73.162 A383.625
X73.005 A381.97
X72.849 A380.315
X72.693 A378.66
X72.537 A377.006
X72.38 A375.351
X72.224 A373.697
X72.068 A372.041
X71.912 A370.387
X71.755 A368.733
X71.599 A367.082
A367.079
X71.443 A365.425
X71.287 A363.771
X71.13 A362.117
X70.974 A360.466
A360.463
X70.818 A358.808
X70.662 A357.154
X70.505 A355.5
X70.349 A353.849
A353.846
X70.193 A352.192
X70.037 A350.538
X69.88 A348.883
X69.724 A347.228
X69.568 A345.573
X69.411 A343.915
X69.255 A342.261
X69.099 A340.607
X68.943 A338.952
X68.787 A337.298
X68.631 A335.646
X68.474 A333.991
X68.318 A332.335
X68.162 A330.682
X68.006 A329.03
X67.849 A327.374
X67.693 A325.719
X67.537 A324.065
X67.381 A322.413
X67.224 A320.758
X67.068 A319.102
X66.912 A317.448
X66.755 A315.794
X66.599 A314.143
A314.138
X66.443 A312.483
X66.287 A310.829
X66.13 A309.174
X65.974 A307.52
X65.818 A305.865
X65.662 A304.211
X65.505 A302.555
X65.349 A300.901
X65.193 A299.247
X65.037 A297.596
A297.593
X64.88 A295.939
X64.724 A294.285
X64.568 A292.63
X64.412 A290.98
A290.977
X64.255 A289.322
X64.099 A287.668
X63.943 A286.014
X63.787 A284.363
A284.36
X63.63 A282.706
X63.474 A281.052
X63.318 A279.396
X63.162 A277.742
X63.005 A276.087
X62.849 A274.433
X62.693 A272.778
X62.537 A271.123
X62.38 A269.468
X62.224 A267.814
X62.068 A266.159
X61.912 A264.505
X61.755 A262.849
X61.599 A261.196
X61.443 A259.544
X61.287 A257.888
X61.13 A256.233
X60.974 A254.579
X60.818 A252.927
X60.662 A251.272
X60.505 A249.617
X60.349 A247.966
A247.964
X60.193 A246.309
X60.037 A244.655
X59.88 A243.
X59.724 A241.346
X59.568 A239.69
X59.412 A238.036
X59.255 A236.381
X59.099 A234.727
X58.943 A233.072
X58.787 A231.417
X58.63 A229.762
X58.474 A228.108
X58.318 A226.453
X58.162 A224.799
X58.005 A223.144
X57.849 A221.493
A221.491
X57.693 A219.836
X57.537 A218.182
X57.38 A216.528
X57.224 A214.877
A214.874
X57.068 A213.22
X56.912 A211.566
X56.756 A209.914
X56.599 A208.258
X56.443 A206.603
X56.287 A204.949
X56.13 A203.294
X55.974 A201.64
X55.818 A199.984
X55.661 A198.327
X55.505 A196.673
X55.349 A195.019
X55.193 A193.364
X55.037 A191.713
A191.711
X54.88 A190.056
X54.724 A188.402
X54.568 A186.748
X54.412 A185.097
A185.094
X54.255 A183.44
X54.099 A181.785
X53.943 A180.131
X53.787 A178.48
A178.478
X53.63 A176.823
X53.474 A175.169
X53.318 A173.515
X53.162 A171.864
A171.861
X53.005 A170.207
X52.849 A168.552
X52.693 A166.897
X52.536 A165.239
X52.38 A163.586
X52.224 A161.931
X52.068 A160.276
X51.912 A158.622
X51.755 A156.967
X51.599 A155.313
X51.443 A153.661
X51.287 A152.006
X51.13 A150.35
X50.974 A148.697
X50.818 A147.045
X50.662 A145.389
X50.505 A143.734
X50.349 A142.08
X50.193 A140.428
X50.037 A138.773
X49.88 A137.117
X49.724 A135.463
X49.568 A133.808
X49.412 A132.154
X49.255 A130.498
X49.099 A128.844
X48.943 A127.189
X48.787 A125.535
X48.63 A123.88
X48.474 A122.225
X48.318 A120.57
X48.162 A118.916
X48.005 A117.262
X47.849 A115.611
A115.608
X47.693 A113.953
X47.537 A112.299
X47.381 A110.646
X47.224 A108.994
A108.991
X47.068 A107.337
X46.912 A105.684
X46.756 A104.032
X46.599 A102.376
X46.443 A100.721
X46.287 A99.067
X46.13 A97.411
X45.974 A95.757
X45.818 A94.102
X45.662 A92.447
X45.505 A90.793
X45.349 A89.138
X45.193 A87.484
X45.037 A85.828
X44.88 A84.174
X44.724 A82.519
X44.568 A80.864
X44.412 A79.211
X44.256 A77.559
X44.099 A75.903
X43.943 A74.247
X43.787 A72.594
X43.631 A70.943
X43.63 A70.94
X43.474 A69.286
X43.318 A67.632
X43.162 A65.98
X43.005 A64.325
X42.849 A62.67
X42.693 A61.015
X42.537 A59.361
X42.38 A57.705
X42.224 A56.051
X42.068 A54.396
X41.912 A52.738
X41.755 A51.084
X41.599 A49.431
X41.443 A47.779
X41.287 A46.123
X41.13 A44.468
X40.974 A42.814
X40.818 A41.162
X40.662 A39.506
X40.505 A37.851
X40.349 A36.198
X40.193 A34.546
X40.037 A32.889
X39.88 A31.235
X39.724 A29.581
X39.568 A27.93
A27.927
X39.412 A26.273
X39.255 A24.618
X39.099 A22.964
X38.943 A21.308
X38.786 A19.651
X38.63 A17.997
X38.474 A16.343
X38.318 A14.687
X38.162 A13.033
X38.005 A11.379
X37.849 A9.727
X37.693 A8.072
X37.537 A6.416
X37.38 A4.763
X37.224 A3.111
X37.068 A1.455
X37.095 A3.019
X37.122 A4.582
X37.149 A6.146
X37.176 A7.709
X37.203 A9.273
X37.23 A10.836
X37.257 A12.4
X37.284 A13.963
X37.311 A15.527
X37.338 A17.09
X37.365 A18.653
X37.392 A20.217
X37.419 A21.78
X37.446 A23.344
X37.473 A24.907
X37.5 A26.471
X37.527 A28.034
X37.554 A29.598
X37.581 A31.161
X37.608 A32.725
X37.635 A34.288
X37.662 A35.852
X37.689 A37.415
X37.716 A38.979
X37.743 A40.542
X37.77 A42.106
X37.797 A43.669
X37.824 A45.233
X37.851 A46.796
X37.878 A48.36
X37.905 A49.923
X37.932 A51.487
Z23.4 F796.1
X38.093 A53.191 F2000
X38.254 A54.896
X38.255 A54.899
X38.416 A56.605
X38.577 A58.309
X38.738 A60.014
A60.016
X38.899 A61.723
X39.06 A63.427
X39.221 A65.135
X39.382 A66.84
X39.543 A68.548
X39.705 A70.255
X39.866 A71.96
X40.027 A73.668
X40.188 A75.375
X40.349 A77.08
X40.51 A78.785
X40.671 A80.493
X40.832 A82.197
X40.994 A83.902
X41.155 A85.61
X41.316 A87.315
X41.477 A89.02
X41.638 A90.728
X41.799 A92.433
X41.96 A94.137
X42.121 A95.842
X42.122 A95.845
X42.283 A97.551
X42.444 A99.255
X42.605 A100.963
X42.766 A102.668
X42.927 A104.377
X43.088 A106.083
X43.249 A107.787
X43.25 A107.79
X43.411 A109.497
X43.572 A111.203
X43.733 A112.907
A112.91
X43.894 A114.616
X44.055 A116.32
X44.216 A118.024
X44.377 A119.73
X44.538 A121.438
X44.7 A123.142
X44.861 A124.848
X45.022 A126.556
X45.183 A128.26
X45.344 A129.966
X45.505 A131.671
X45.667 A133.379
X45.828 A135.083
X45.989 A136.791
X46.15 A138.495
A138.498
X46.311 A140.205
X46.472 A141.911
X46.633 A143.615
A143.618
X46.795 A145.325
X46.955 A147.031
X47.117 A148.735
A148.738
X47.278 A150.444
X47.439 A152.148
X47.6 A153.853
A153.855
X47.761 A155.562
X47.922 A157.266
X48.083 A158.97
X48.245 A160.676
X48.406 A162.384
X48.567 A164.088
X48.728 A165.794
X48.889 A167.502
X49.05 A169.206
X49.211 A170.912
X49.372 A172.62
X49.534 A174.323
A174.326
X49.695 A176.034
X49.856 A177.74
X50.017 A179.443
A179.446
X50.178 A181.153
X50.339 A182.859
X50.5 A184.563
X50.501 A184.566
X50.662 A186.272
X50.823 A187.976
X50.984 A189.681
A189.684
X51.145 A191.39
X51.306 A193.094
X51.467 A194.799
X51.628 A196.505
X51.789 A198.212
X51.951 A199.916
X52.112 A201.622
X52.273 A203.33
X52.434 A205.034
X52.595 A206.74
X52.756 A208.448
X52.917 A210.152
X52.918 A210.154
X53.079 A211.862
X53.24 A213.568
X53.401 A215.271
A215.274
X53.562 A216.982
X53.723 A218.688
X53.884 A220.392
X54.045 A222.1
X54.206 A223.805
X54.368 A225.51
X54.529 A227.218
X54.69 A228.923
X54.851 A230.628
X55.012 A232.336
X55.173 A234.04
X55.334 A235.745
X55.495 A237.45
X55.496 A237.452
X55.657 A239.159
X55.818 A240.863
X55.979 A242.567
A242.57
X56.14 A244.276
X56.301 A245.981
X56.462 A247.689
X56.624 A249.396
X56.785 A251.101
X56.946 A252.809
X57.107 A254.516
X57.268 A256.22
X57.429 A257.928
X57.59 A259.633
X57.751 A261.341
X57.912 A263.045
X58.074 A264.751
X58.235 A266.456
X58.396 A268.164
X58.557 A269.869
X58.718 A271.574
X58.879 A273.281
X59.04 A274.986
X59.202 A276.691
X59.363 A278.395
A278.398
X59.524 A280.105
X59.685 A281.809
X59.846 A283.517
X60.007 A285.225
X60.168 A286.929
X60.33 A288.637
X60.491 A290.344
X60.652 A292.049
X60.813 A293.757
X60.974 A295.461
X61.135 A297.169
X61.296 A298.873
X61.457 A300.579
X61.619 A302.284
X61.78 A303.992
X61.941 A305.697
X62.102 A307.402
X62.263 A309.11
X62.424 A310.814
X62.585 A312.519
X62.747 A314.227
X62.908 A315.932
X63.069 A317.64
X63.23 A319.343
A319.346
X63.391 A321.053
X63.552 A322.757
X63.713 A324.466
X63.875 A326.172
X64.036 A327.877
X64.197 A329.585
X64.358 A331.289
A331.291
X64.519 A332.998
X64.68 A334.702
X64.841 A336.406
A336.409
X65.002 A338.115
X65.163 A339.819
X65.325 A341.524
A341.527
X65.486 A343.233
X65.647 A344.937
X65.808 A346.641
X65.969 A348.347
X66.13 A350.055
X66.291 A351.759
X66.292 A351.762
X66.453 A353.468
X66.614 A355.173
X66.775 A356.88
X66.936 A358.585
X67.097 A360.294
X67.258 A362.
X67.419 A363.705
X67.58 A365.413
X67.742 A367.117
A367.119
X67.903 A368.826
X68.064 A370.53
X68.225 A372.234
A372.237
X68.386 A373.944
X68.547 A375.647
X68.708 A377.352
X68.709 A377.355
X68.87 A379.061
X69.031 A380.765
X69.192 A382.47
X69.353 A384.176
X69.514 A385.884
X69.675 A387.587
A387.59
X69.836 A389.297
X69.997 A391.001
X70.159 A392.709
X70.32 A394.413
X70.481 A396.122
X70.642 A397.829
X70.803 A399.533
X70.964 A401.241
X71.125 A402.945
X71.126 A402.948
X71.287 A404.654
X71.448 A406.358
X71.609 A408.066
X71.77 A409.771
X71.931 A411.476
X72.092 A413.18
A413.183
X72.253 A414.889
X72.414 A416.593
X72.576 A418.298
X72.737 A420.004
X72.898 A421.712
X73.059 A423.416
A423.418
X73.22 A425.125
X73.381 A426.829
X73.542 A428.537
X73.704 A430.242
X73.865 A431.95
X74.026 A433.657
X74.187 A435.361
X74.348 A437.071
X74.509 A438.777
X74.67 A440.481
X74.831 A442.187
X74.993 A443.895
X75.154 A445.598
X75.315 A447.304
X75.476 A449.009
X75.637 A450.717
X75.798 A452.422
X75.959 A454.127
X76.121 A455.835
X76.282 A457.54
X76.443 A459.245
X76.604 A460.953
X76.765 A462.657
X76.926 A464.365
X77.087 A466.069
X77.088 A466.072
X77.249 A467.779
X77.41 A469.485
X77.571 A471.189
A471.192
X77.732 A472.899
X77.893 A474.605
X78.054 A476.309
X78.215 A478.015
X78.376 A479.723
X78.537 A481.426
X78.699 A483.132
X78.86 A484.837
X79.021 A486.545
X79.182 A488.25
X79.343 A489.955
X79.504 A491.663
X79.665 A493.368
X79.827 A495.073
X79.988 A496.781
X80.149 A498.485
X80.31 A500.194
X80.471 A501.901
X80.632 A503.605
X80.793 A505.314
X80.955 A507.021
X81.116 A508.725
X81.277 A510.433
X81.438 A512.137
A512.14
X81.599 A513.846
X81.76 A515.55
X81.921 A517.255
X82.082 A518.961
X82.244 A520.668
X82.405 A522.372
X82.566 A524.078
X82.727 A525.786
X82.888 A527.49
X83.049 A529.196
X83.21 A530.901
X83.372 A532.609
X83.533 A534.314
X83.694 A536.022
X83.855 A537.729
X84.016 A539.434
X84.177 A541.143
X84.338 A542.849
X84.499 A544.553
X84.5 A544.555
X84.661 A546.262
X84.822 A547.966
X84.983 A549.674
X85.144 A551.379
X85.305 A553.083
X85.466 A554.788
A554.791
X85.627 A556.497
X85.788 A558.201
X85.95 A559.906
A559.908
X86.111 A561.615
X86.272 A563.319
X86.433 A565.023
X86.594 A566.729
X86.755 A568.437
X86.916 A570.141
X86.917 A570.144
X87.078 A571.851
X87.239 A573.557
X87.4 A575.261
A575.264
X87.561 A576.971
X87.722 A578.677
X87.883 A580.381
A580.384
X88.044 A582.09
X88.205 A583.794
X88.367 A585.502
X88.528 A587.207
X88.689 A588.912
X88.85 A590.62
X89.011 A592.324
X89.172 A594.029
X89.333 A595.734
X89.334 A595.737
X89.495 A597.443
X89.656 A599.147
X89.817 A600.852
X89.978 A602.557
X90.139 A604.265
X90.3 A605.969
A605.972
X90.461 A607.678
X90.622 A609.383
X90.784 A611.091
X90.945 A612.799
X91.106 A614.505
X91.267 A616.209
A616.212
X91.428 A617.918
X91.589 A619.622
X91.75 A621.33
X91.912 A623.035
X92.073 A624.743
X92.234 A626.447
X92.395 A628.153
X92.556 A629.858
X92.717 A631.566
X92.878 A633.27
X93.039 A634.975
X93.201 A636.68
A636.682
X93.362 A638.389
X93.523 A640.093
X93.684 A641.797
A641.8
X93.845 A643.507
X94.006 A645.211
X94.168 A646.919
X94.329 A648.626
X94.49 A650.331
X94.651 A652.039
X94.812 A653.746
X94.973 A655.451
X95.134 A657.159
X95.295 A658.862
X95.296 A658.865
X95.457 A660.572
X95.618 A662.275
X95.779 A663.98
X95.94 A665.686
X96.101 A667.394
X96.262 A669.098
X96.423 A670.804
X96.584 A672.512
X96.745 A674.215
X96.907 A675.921
X97.068 A677.629
X97.229 A679.333
X97.39 A681.039
X97.551 A682.748
X97.712 A684.454
X97.873 A686.159
X98.035 A687.868
X98.196 A689.574
X98.357 A691.279
X98.518 A692.987
X98.679 A694.69
A694.693
X98.84 A696.4
X99.001 A698.103
X99.162 A699.808
X99.163 A699.811
X99.324 A701.517
X99.485 A703.221
X99.646 A704.926
A704.929
X99.807 A706.635
X99.968 A708.339
X100.129 A710.043
X100.29 A711.749
X100.452 A713.457
X100.613 A715.161
A715.164
X100.774 A716.87
X100.935 A718.575
X101.096 A720.282
X101.257 A721.987
X101.418 A723.696
X101.58 A725.402
X101.741 A727.107
X101.902 A728.815
X102.063 A730.519
A730.521
X102.224 A732.228
X102.385 A733.932
X102.546 A735.636
X102.547 A735.639
X102.708 A737.346
X102.868 A739.048
X103.03 A740.751
A740.758
X103.191 A742.464
X103.312 A743.743
X103.433 A745.021
X103.553 A746.3
X103.674 A747.579
X103.835 A749.287
X103.996 A750.988
X104.157 A752.692
X104.158 A752.698
X104.319 A754.404
X104.48 A756.112
X104.641 A757.816
X104.802 A759.525
X104.963 A761.232
X105.124 A762.933
X105.285 A764.637
X105.286 A764.643
X105.447 A766.349
X105.608 A768.057
X105.769 A769.761
X105.93 A771.469
X106.091 A773.174
X106.252 A774.879
X106.413 A776.581
X106.574 A778.285
X106.575 A778.291
X106.736 A779.996
X106.897 A781.702
X107.058 A783.41
X107.219 A785.115
X107.38 A786.819
X107.541 A788.523
X107.702 A790.223
X107.703 A790.234
X107.864 A791.94
X108.025 A793.644
X108.186 A795.354
X108.347 A797.06
X108.508 A798.764
X108.669 A800.474
X108.83 A802.176
X108.991 A803.876
X108.992 A803.884
X109.153 A805.589
X109.314 A807.298
X109.435 A808.576
X109.556 A809.855
X109.676 A811.134
X109.797 A812.412
X109.958 A814.116
X110.119 A815.816
X110.12 A815.825
X110.281 A817.53
X110.442 A819.238
X110.603 A820.943
X110.764 A822.647
X110.925 A824.356
X111.086 A826.06
X111.247 A827.764
X111.408 A829.464
X111.409 A829.474
X111.57 A831.182
X111.731 A832.888
X111.892 A834.592
X112.053 A836.302
X112.214 A838.008
X112.375 A839.712
X112.536 A841.414
X112.697 A843.118
X112.698 A843.125
X112.859 A844.83
X113.02 A846.535
X113.181 A848.244
X113.342 A849.948
X113.503 A851.653
X113.664 A853.357
X113.825 A855.057
X113.826 A855.065
X113.987 A856.771
X114.148 A858.476
X114.309 A860.184
X114.47 A861.888
X114.631 A863.597
X114.792 A865.301
X114.953 A867.006
X115.114 A868.709
X115.115 A868.716
X115.276 A870.421
X115.437 A872.13
X115.598 A873.836
X115.759 A875.541
X115.92 A877.249
X116.081 A878.949
X116.242 A880.65
X116.243 A880.658
X116.404 A882.363
X116.565 A884.072
X116.726 A885.776
X116.887 A887.481
X117.048 A889.189
X117.209 A890.894
X117.37 A892.594
X117.531 A894.295
X117.532 A894.306
X117.693 A896.012
X117.854 A897.716
X118.015 A899.425
X118.176 A901.129
X118.337 A902.838
X118.498 A904.54
X118.659 A906.24
X118.66 A906.251
X118.821 A907.958
X118.982 A909.665
X119.143 A911.369
X119.304 A913.077
X119.465 A914.782
X119.626 A916.486
X119.787 A918.19
X119.948 A919.89
X119.949 A919.899
X120.11 A921.604
X120.271 A923.309
X120.432 A925.018
X120.593 A926.722
X120.754 A928.427
X120.915 A930.131
X121.076 A931.831
X121.077 A931.839
X121.238 A933.545
X121.399 A935.253
X121.56 A936.957
X121.721 A938.666
X121.882 A940.373
X122.043 A942.077
X122.204 A943.782
X122.365 A945.485
X122.366 A945.492
X122.527 A947.197
X122.688 A948.905
X122.849 A950.61
X123.01 A952.315
X123.171 A954.023
X123.332 A955.723
X123.493 A957.424
X123.494 A957.434
X123.655 A959.141
X123.776 A960.419
X123.897 A961.698
X124.017 A962.976
X124.138 A964.255
X124.299 A965.963
X124.46 A967.668
X124.621 A969.369
X124.782 A971.073
X124.783 A971.08
X124.944 A972.785
X125.105 A974.495
X125.266 A976.201
X125.427 A977.905
X125.588 A979.615
X125.749 A981.317
X125.91 A983.017
X125.911 A983.027
X126.072 A984.734
X126.233 A986.438
X126.394 A988.143
X126.555 A989.851
X126.716 A991.556
X126.877 A993.261
X127.038 A994.965
X127.199 A996.664
X127.2 A996.673
X127.361 A998.378
X127.522 A1000.083
X127.683 A1001.792
X127.844 A1003.496
X128.005 A1005.201
X128.166 A1006.905
X128.327 A1008.605
X128.328 A1008.615
X128.489 A1010.323
X128.65 A1012.029
X128.811 A1013.733
X128.972 A1015.443
X129.133 A1017.149
X129.294 A1018.853
X129.455 A1020.557
X129.616 A1022.257
X129.617 A1022.268
X129.778 A1023.974
X129.899 A1025.253
X130.02 A1026.531
X130.14 A1027.81
X130.261 A1029.089
X130.422 A1030.797
X130.583 A1032.501
X130.744 A1034.203
X130.905 A1035.907
X130.906 A1035.914
X131.067 A1037.619
X131.228 A1039.324
X131.389 A1041.032
X131.55 A1042.737
X131.711 A1044.445
X131.872 A1046.146
X132.033 A1047.85
X132.034 A1047.857
X132.195 A1049.562
X132.356 A1051.271
X132.517 A1052.977
X132.678 A1054.682
X132.839 A1056.39
X133. A1058.094
X133.161 A1059.798
X133.322 A1061.498
X133.323 A1061.507
X133.484 A1063.212
X133.645 A1064.917
X133.806 A1066.625
X133.967 A1068.33
X134.128 A1070.035
X134.289 A1071.739
X134.45 A1073.438
X134.451 A1073.447
X134.612 A1075.152
X134.773 A1076.861
X134.934 A1078.565
X135.095 A1080.273
X135.256 A1081.977
X135.417 A1083.686
X135.578 A1085.386
X135.739 A1087.09
X135.74 A1087.099
X135.901 A1088.806
X136.062 A1090.51
X136.223 A1092.218
X136.384 A1093.922
X136.545 A1095.631
X136.706 A1097.331
X136.867 A1099.031
X136.868 A1099.042
X137.029 A1100.748
X137.19 A1102.453
X137.351 A1104.158
X137.512 A1105.866
X137.673 A1107.571
X137.834 A1109.275
X137.995 A1110.977
X138.156 A1112.681
X138.157 A1112.688
X138.318 A1114.393
X138.479 A1116.101
X138.64 A1117.805
X138.801 A1119.514
X138.962 A1121.218
X139.123 A1122.923
X139.285 A1124.626
A1124.633
X139.446 A1126.338
X139.607 A1128.046
X139.768 A1129.751
X139.929 A1131.459
X140.09 A1133.164
X140.251 A1134.868
X140.412 A1136.572
X140.573 A1138.272
X140.574 A1138.281
X140.735 A1139.986
X140.896 A1141.694
X141.017 A1142.973
X141.138 A1144.251
X141.258 A1145.53
X141.379 A1146.809
X141.54 A1148.513
X141.701 A1150.212
X141.702 A1150.223
X141.863 A1151.929
X142.024 A1153.634
X142.185 A1155.343
X142.346 A1157.049
X142.507 A1158.754
X142.668 A1160.462
X142.829 A1162.163
X142.99 A1163.867
X142.991 A1163.875
X143.152 A1165.582
X143.313 A1167.287
X143.474 A1168.991
X143.635 A1170.7
X143.796 A1172.404
X143.957 A1174.105
X144.118 A1175.805
X144.119 A1175.816
X144.28 A1177.522
X144.441 A1179.227
X144.602 A1180.932
X144.763 A1182.64
X144.924 A1184.345
X145.085 A1186.049
X145.246 A1187.753
X145.407 A1189.453
X145.408 A1189.464
X145.569 A1191.171
X145.73 A1192.878
X145.891 A1194.582
X146.052 A1196.291
X146.213 A1197.998
X146.374 A1199.698
X146.535 A1201.402
X146.536 A1201.409
X146.697 A1203.114
X146.858 A1204.819
X147.019 A1206.528
X147.14 A1207.806
X147.261 A1209.085
X147.381 A1210.364
X147.502 A1211.642
X147.663 A1213.346
X147.824 A1215.046
X147.825 A1215.055
X147.986 A1216.76
X148.147 A1218.468
X148.308 A1220.173
X148.469 A1221.878
X148.63 A1223.586
X148.791 A1225.287
X148.952 A1226.991
X148.953 A1226.999
X149.114 A1228.706
X149.275 A1230.41
X149.436 A1232.119
X149.597 A1233.826
X149.758 A1235.53
X149.919 A1237.238
X150.08 A1238.939
X150.242 A1240.643
A1240.65
X150.363 A1241.929
X150.484 A1243.208
X150.604 A1244.486
X150.725 A1245.765
X150.886 A1247.474
X151.047 A1249.178
X151.208 A1250.883
X151.369 A1252.585
X151.53 A1254.289
X151.531 A1254.296
X151.692 A1256.001
X151.853 A1257.706
X152.014 A1259.414
X152.175 A1261.118
X152.336 A1262.828
X152.497 A1264.53
X152.658 A1266.23
X152.659 A1266.24
X152.82 A1267.948
X152.981 A1269.654
X153.142 A1271.358
X153.303 A1273.067
X153.464 A1274.771
X153.625 A1276.479
X153.786 A1278.179
X153.947 A1279.88
X153.948 A1279.888
X154.109 A1281.593
X154.27 A1283.302
X154.431 A1285.006
X154.592 A1286.711
X154.753 A1288.42
X154.914 A1290.119
X155.075 A1291.82
X155.076 A1291.829
X155.237 A1293.534
X155.398 A1295.242
X155.559 A1296.946
X155.72 A1298.656
X155.881 A1300.362
X156.042 A1302.066
X156.203 A1303.771
X156.364 A1305.475
X156.365 A1305.481
X156.526 A1307.186
X156.687 A1308.895
X156.848 A1310.599
X157.009 A1312.307
X157.17 A1314.011
X157.331 A1315.713
X157.492 A1317.417
X157.493 A1317.424
X157.614 A1318.703
X157.735 A1319.982
X157.855 A1321.261
X157.976 A1322.539
X158.137 A1324.248
X158.298 A1325.952
X158.459 A1327.657
X158.62 A1329.361
X158.781 A1331.061
X158.782 A1331.07
X158.943 A1332.775
X159.104 A1334.484
X159.265 A1336.19
X159.426 A1337.895
X159.587 A1339.604
X159.748 A1341.306
X159.909 A1343.006
X159.91 A1343.016
X160.071 A1344.723
X160.232 A1346.427
X160.393 A1348.135
X160.554 A1349.84
X160.715 A1351.545
X160.876 A1353.253
X161.037 A1354.953
X161.198 A1356.654
X161.199 A1356.664
X161.36 A1358.371
X161.481 A1359.649
X161.602 A1360.928
X161.722 A1362.207
X161.843 A1363.485
X162.004 A1365.194
X162.165 A1366.893
X162.326 A1368.594
X162.327 A1368.605
X162.488 A1370.312
X162.649 A1372.019
X162.81 A1373.723
X162.971 A1375.432
X163.132 A1377.139
X163.293 A1378.843
X163.454 A1380.547
X163.615 A1382.247
X163.616 A1382.257
X163.777 A1383.964
X163.938 A1385.668
X164.099 A1387.373
X164.26 A1389.081
X164.421 A1390.785
X164.582 A1392.487
X164.743 A1394.191
X164.744 A1394.198
X164.905 A1395.903
X165.066 A1397.608
X165.227 A1399.313
X165.388 A1401.022
X165.549 A1402.726
X165.71 A1404.434
X165.871 A1406.135
X166.032 A1407.839
X166.033 A1407.846
X166.194 A1409.551
X166.355 A1411.26
X166.516 A1412.967
X166.677 A1414.671
X166.838 A1416.379
X166.999 A1418.08
X167.16 A1419.784
X167.161 A1419.791
X167.322 A1421.496
X167.483 A1423.204
X167.604 A1424.483
X167.725 A1425.762
X167.845 A1427.04
X167.966 A1428.319
X168.127 A1430.027
X168.288 A1431.727
X168.449 A1433.428
X168.45 A1433.438
X168.611 A1435.145
X168.772 A1436.849
X168.933 A1438.554
X169.094 A1440.262
X169.255 A1441.967
X169.416 A1443.671
X169.577 A1445.371
X169.578 A1445.381
X169.739 A1447.088
X169.9 A1448.795
X170.061 A1450.499
X170.222 A1452.208
X170.383 A1453.912
X170.544 A1455.62
X170.705 A1457.321
X170.867 A1459.025
A1459.032
X170.988 A1460.31
X171.109 A1461.589
X171.229 A1462.868
X171.35 A1464.147
X171.511 A1465.855
X171.672 A1467.56
X171.833 A1469.261
X171.994 A1470.965
X171.995 A1470.972
X172.156 A1472.677
X172.317 A1474.382
X172.478 A1476.091
X172.639 A1477.795
X172.8 A1479.503
X172.961 A1481.207
X173.122 A1482.912
X173.283 A1484.615
X173.284 A1484.622
X173.445 A1486.327
X173.606 A1488.036
X173.767 A1489.74
X173.928 A1491.448
X174.089 A1493.152
X174.25 A1494.861
X174.411 A1496.561
X174.572 A1498.261
X174.573 A1498.272
X174.734 A1499.978
X174.895 A1501.683
X175.056 A1503.388
X175.217 A1505.096
X175.378 A1506.8
X175.539 A1508.501
X175.7 A1510.202
X175.701 A1510.212
X175.862 A1511.919
X176.023 A1513.623
X176.184 A1515.331
X176.345 A1517.036
X176.506 A1518.745
X176.667 A1520.451
X176.828 A1522.152
X176.989 A1523.856
X176.99 A1523.865
X177.151 A1525.571
X177.312 A1527.276
X177.473 A1528.984
X177.634 A1530.689
X177.795 A1532.393
X177.956 A1534.097
X178.117 A1535.797
X178.118 A1535.806
X178.279 A1537.511
X178.44 A1539.216
X178.601 A1540.924
X178.722 A1542.203
X178.843 A1543.482
X178.963 A1544.76
X179.084 A1546.039
X179.245 A1547.743
X179.406 A1549.443
X179.407 A1549.453
X179.568 A1551.16
X179.729 A1552.864
X179.89 A1554.572
X180.051 A1556.276
X180.212 A1557.986
X180.373 A1559.688
X180.534 A1561.388
X180.535 A1561.398
X180.696 A1563.106
X180.857 A1564.812
X181.018 A1566.517
X181.179 A1568.221
X181.34 A1569.929
X181.501 A1571.634
X181.662 A1573.335
X181.823 A1575.037
X181.824 A1575.046
X181.985 A1576.752
X182.146 A1578.457
X182.307 A1580.163
X182.468 A1581.869
X182.629 A1583.575
X182.79 A1585.277
X182.951 A1586.978
X182.952 A1586.987
X183.073 A1588.267
X183.194 A1589.547
X183.314 A1590.827
X183.435 A1592.107
X183.596 A1593.814
X183.757 A1595.52
X183.918 A1597.227
X184.079 A1598.929
X184.24 A1600.631
X184.241 A1600.639
X184.402 A1602.346
X184.563 A1604.051
X184.724 A1605.757
X184.885 A1607.463
X185.046 A1609.168
X185.207 A1610.87
X185.368 A1612.572
X185.369 A1612.58
X185.53 A1614.286
X185.691 A1615.992
X185.852 A1617.697
X186.013 A1619.403
X186.174 A1621.109
X186.335 A1622.815
X186.496 A1624.518
X186.657 A1626.22
X186.658 A1626.228
X186.819 A1627.935
X186.98 A1629.642
X187.141 A1631.349
X187.302 A1633.055
X187.463 A1634.761
X187.624 A1636.463
X187.785 A1638.165
X187.786 A1638.174
X187.947 A1639.88
X188.108 A1641.585
X188.269 A1643.291
X188.43 A1644.996
X188.591 A1646.702
X188.752 A1648.409
X188.913 A1650.11
X189.074 A1651.811
X189.075 A1651.82
X189.236 A1653.526
X189.397 A1655.231
X189.558 A1656.937
X189.719 A1658.643
X189.88 A1660.35
X190.041 A1662.052
X190.202 A1663.755
X190.203 A1663.763
X190.364 A1665.47
X190.525 A1667.177
X190.686 A1668.883
X190.847 A1670.59
X191.008 A1672.296
X191.169 A1674.002
X191.33 A1675.704
X191.491 A1677.406
X191.492 A1677.414
X191.653 A1679.12
X191.774 A1680.399
X191.895 A1681.678
X192.015 A1682.958
X192.136 A1684.237
X192.297 A1685.943
X192.458 A1687.644
X192.619 A1689.346
X192.62 A1689.354
X192.781 A1691.06
X192.942 A1692.766
X193.103 A1694.472
X193.264 A1696.178
X193.425 A1697.884
X193.586 A1699.591
X193.747 A1701.293
X193.908 A1702.996
X193.909 A1703.005
X194.07 A1704.711
X194.231 A1706.418
X194.392 A1708.124
X194.553 A1709.83
X194.714 A1711.537
X194.875 A1713.243
X195.036 A1714.944
X195.197 A1716.645
X195.198 A1716.654
X195.359 A1718.36
X195.52 A1720.065
X195.681 A1721.772
X195.842 A1723.477
X196.003 A1725.183
X196.164 A1726.884
X196.325 A1728.586
X196.326 A1728.594
X196.487 A1730.3
X196.648 A1732.006
X196.809 A1733.713
X196.97 A1735.419
X197. A1735.735
A1694.852
X196.912 A1693.92
X196.756 A1692.27
X196.755 A1692.261
X196.599 A1690.607
X196.443 A1688.952
X196.287 A1687.302
X196.131 A1685.652
X196.13 A1685.643
X195.974 A1683.989
X195.818 A1682.335
X195.662 A1680.685
X195.506 A1679.034
X195.505 A1679.026
X195.349 A1677.371
X195.193 A1675.717
X195.037 A1674.067
X194.881 A1672.417
X194.88 A1672.408
X194.724 A1670.754
X194.568 A1669.1
X194.412 A1667.45
X194.256 A1665.801
X194.255 A1665.792
X194.099 A1664.138
X193.943 A1662.483
X193.787 A1660.833
X193.631 A1659.183
X193.63 A1659.174
X193.474 A1657.52
X193.318 A1655.865
X193.162 A1654.214
X193.005 A1652.564
A1652.555
X192.849 A1650.9
X192.693 A1649.245
X192.537 A1647.595
X192.381 A1645.945
X192.38 A1645.936
X192.224 A1644.282
X192.068 A1642.627
X191.912 A1640.978
X191.756 A1639.328
X191.755 A1639.319
X191.599 A1637.665
X191.443 A1636.011
X191.287 A1634.361
X191.131 A1632.712
X191.13 A1632.703
X190.974 A1631.049
X190.818 A1629.395
X190.662 A1627.745
X190.506 A1626.095
X190.505 A1626.086
X190.349 A1624.432
X190.193 A1622.777
X190.037 A1621.127
X189.881 A1619.477
X189.88 A1619.468
X189.724 A1617.813
X189.568 A1616.158
X189.412 A1614.507
X189.255 A1612.857
A1612.848
X189.099 A1611.193
X188.943 A1609.539
X188.787 A1607.889
X188.631 A1606.239
X188.63 A1606.23
X188.474 A1604.576
X188.318 A1602.922
X188.162 A1601.273
X188.006 A1599.623
X188.005 A1599.614
X187.849 A1597.96
X187.693 A1596.306
X187.537 A1594.656
X187.381 A1593.007
X187.38 A1592.998
X187.224 A1591.344
X187.068 A1589.689
X186.912 A1588.039
X186.756 A1586.389
X186.755 A1586.38
X186.599 A1584.725
X186.443 A1583.071
X186.287 A1581.42
X186.13 A1579.77
A1579.761
X185.974 A1578.106
X185.818 A1576.451
X185.662 A1574.8
X185.506 A1573.15
X185.505 A1573.142
X185.349 A1571.488
X185.193 A1569.833
X185.037 A1568.183
X184.881 A1566.536
X184.88 A1566.526
X184.724 A1564.871
X184.568 A1563.216
X184.412 A1561.567
X184.256 A1559.92
X184.255 A1559.909
X184.099 A1558.254
X183.943 A1556.6
X183.787 A1554.95
X183.631 A1553.303
X183.63 A1553.293
X183.474 A1551.638
X183.318 A1549.983
X183.162 A1548.333
X183.006 A1546.683
X183.005 A1546.674
X182.849 A1545.019
X182.693 A1543.364
X182.537 A1541.714
X182.381 A1540.064
X182.38 A1540.055
X182.224 A1538.4
X182.068 A1536.746
X181.912 A1535.095
X181.756 A1533.445
X181.755 A1533.436
X181.599 A1531.781
X181.443 A1530.128
X181.287 A1528.48
X181.131 A1526.829
X181.13 A1526.82
X180.974 A1525.165
X180.818 A1523.511
X180.662 A1521.863
X180.506 A1520.212
X180.505 A1520.203
X180.349 A1518.549
X180.193 A1516.898
X180.037 A1515.246
X179.881 A1513.595
X179.88 A1513.587
X179.724 A1511.932
X179.568 A1510.277
X179.412 A1508.626
X179.255 A1506.972
A1506.966
X179.099 A1505.311
X178.943 A1503.656
X178.787 A1502.006
X178.631 A1500.356
X178.63 A1500.347
X178.474 A1498.693
X178.318 A1497.042
X178.162 A1495.389
X178.006 A1493.739
X178.005 A1493.732
X177.849 A1492.08
X177.693 A1490.423
X177.537 A1488.773
X177.381 A1487.123
X177.38 A1487.116
X177.224 A1485.463
X177.068 A1483.807
X176.912 A1482.156
X176.756 A1480.506
X176.755 A1480.497
X176.599 A1478.843
X176.443 A1477.192
X176.287 A1475.539
X176.13 A1473.885
A1473.878
X175.974 A1472.224
X175.818 A1470.569
X175.662 A1468.919
X175.506 A1467.268
X175.505 A1467.26
X175.349 A1465.605
X175.193 A1463.95
X175.037 A1462.3
X174.881 A1460.65
X174.88 A1460.643
X174.724 A1458.99
X174.568 A1457.334
X174.412 A1455.684
X174.256 A1454.037
X174.255 A1454.026
X174.099 A1452.372
X173.943 A1450.717
X173.787 A1449.068
X173.631 A1447.421
X173.63 A1447.41
X173.474 A1445.755
X173.318 A1444.101
X173.162 A1442.45
X173.006 A1440.8
X173.005 A1440.791
X172.849 A1439.136
X172.693 A1437.482
X172.537 A1435.832
X172.381 A1434.181
X172.38 A1434.172
X172.224 A1432.518
X172.068 A1430.863
X171.912 A1429.213
X171.756 A1427.562
X171.755 A1427.554
X171.599 A1425.899
X171.443 A1424.244
X171.287 A1422.595
X171.131 A1420.948
X171.13 A1420.937
X170.974 A1419.282
X170.818 A1417.629
X170.662 A1415.981
X170.506 A1414.329
X170.505 A1414.321
X170.349 A1412.666
X170.193 A1411.012
X170.037 A1409.364
X169.881 A1407.713
X169.88 A1407.704
X169.724 A1406.049
X169.568 A1404.395
X169.412 A1402.744
X169.256 A1401.094
X169.255 A1401.085
X169.099 A1399.43
X168.943 A1397.776
X168.787 A1396.126
X168.631 A1394.475
X168.63 A1394.466
X168.474 A1392.812
X168.318 A1391.157
X168.162 A1389.507
X168.006 A1387.856
X168.005 A1387.848
X167.849 A1386.194
X167.693 A1384.542
X167.537 A1382.89
X167.381 A1381.24
X167.38 A1381.231
X167.224 A1379.577
X167.068 A1377.926
X166.912 A1376.274
X166.756 A1374.623
X166.755 A1374.615
X166.599 A1372.961
X166.443 A1371.309
X166.287 A1369.657
X166.131 A1368.007
X166.13 A1367.998
X165.974 A1366.343
X165.818 A1364.689
X165.662 A1363.038
X165.506 A1361.388
X165.504 A1361.377
X165.349 A1359.721
X165.193 A1358.068
X165.037 A1356.417
X164.881 A1354.767
X164.88 A1354.76
X164.724 A1353.108
X164.568 A1351.451
X164.412 A1349.801
X164.256 A1348.15
X164.255 A1348.144
X164.099 A1346.491
X163.943 A1344.834
X163.787 A1343.184
X163.631 A1341.534
X163.63 A1341.527
X163.474 A1339.875
X163.318 A1338.218
X163.162 A1336.568
X163.006 A1334.917
X163.005 A1334.91
X162.849 A1333.258
X162.693 A1331.601
X162.537 A1329.951
X162.381 A1328.301
X162.379 A1328.29
X162.224 A1326.634
X162.068 A1324.98
X161.912 A1323.33
X161.756 A1321.68
X161.755 A1321.671
X161.599 A1320.016
X161.443 A1318.362
X161.287 A1316.712
X161.131 A1315.065
X161.13 A1315.054
X160.974 A1313.4
X160.818 A1311.746
X160.662 A1310.098
X160.506 A1308.447
X160.505 A1308.438
X160.349 A1306.783
X160.193 A1305.129
X160.037 A1303.482
X159.881 A1301.83
X159.88 A1301.821
X159.724 A1300.167
X159.568 A1298.512
X159.412 A1296.862
X159.256 A1295.211
X159.255 A1295.203
X159.099 A1293.548
X158.943 A1291.893
X158.787 A1290.243
X158.631 A1288.593
X158.63 A1288.584
X158.474 A1286.929
X158.318 A1285.274
X158.162 A1283.624
X158.006 A1281.974
X158.005 A1281.965
X157.849 A1280.31
X157.693 A1278.657
X157.537 A1277.009
X157.381 A1275.357
X157.38 A1275.348
X157.224 A1273.695
X157.068 A1272.043
X156.912 A1270.391
X156.756 A1268.741
X156.755 A1268.732
X156.599 A1267.078
X156.443 A1265.427
X156.287 A1263.775
X156.131 A1262.124
X156.13 A1262.115
X155.974 A1260.461
X155.818 A1258.806
X155.662 A1257.156
X155.506 A1255.506
X155.505 A1255.497
X155.349 A1253.842
X155.193 A1252.187
X155.037 A1250.537
X154.881 A1248.887
X154.88 A1248.878
X154.724 A1247.223
X154.568 A1245.568
X154.412 A1243.918
X154.256 A1242.268
X154.255 A1242.261
X154.099 A1240.609
X153.943 A1238.952
X153.787 A1237.302
X153.631 A1235.651
X153.63 A1235.644
X153.474 A1233.992
X153.318 A1232.335
X153.162 A1230.685
X153.006 A1229.035
X153.005 A1229.028
X152.849 A1227.375
X152.693 A1225.719
X152.537 A1224.069
X152.381 A1222.418
X152.38 A1222.409
X152.224 A1220.755
X152.068 A1219.1
X151.912 A1217.45
X151.756 A1215.8
X151.755 A1215.791
X151.599 A1214.136
X151.443 A1212.478
X151.287 A1210.83
X151.131 A1209.183
X151.13 A1209.172
X150.974 A1207.517
X150.818 A1205.862
X150.662 A1204.213
X150.506 A1202.566
X150.505 A1202.555
X150.349 A1200.901
X150.193 A1199.246
X150.037 A1197.597
X149.881 A1195.95
X149.88 A1195.939
X149.724 A1194.284
X149.568 A1192.629
X149.412 A1190.98
X149.256 A1189.333
X149.255 A1189.322
X149.099 A1187.668
X148.943 A1186.013
X148.787 A1184.363
X148.631 A1182.712
X148.629 A1182.702
X148.474 A1181.045
X148.318 A1179.392
X148.162 A1177.742
X148.006 A1176.091
X148.005 A1176.082
X147.849 A1174.428
X147.693 A1172.774
X147.537 A1171.126
X147.381 A1169.475
X147.38 A1169.466
X147.224 A1167.811
X147.068 A1166.157
X146.912 A1164.509
X146.756 A1162.858
X146.755 A1162.849
X146.599 A1161.195
X146.443 A1159.541
X146.287 A1157.893
X146.131 A1156.242
X146.13 A1156.233
X145.974 A1154.578
X145.818 A1152.924
X145.662 A1151.276
X145.506 A1149.625
X145.504 A1149.614
X145.349 A1147.958
X145.193 A1146.305
X145.037 A1144.654
X144.881 A1143.004
X144.88 A1142.995
X144.724 A1141.341
X144.568 A1139.686
X144.412 A1138.036
X144.256 A1136.385
X144.255 A1136.376
X144.099 A1134.723
X143.943 A1133.071
X143.787 A1131.419
X143.631 A1129.769
X143.63 A1129.762
X143.474 A1128.109
X143.318 A1126.453
X143.162 A1124.803
X143.006 A1123.152
X143.005 A1123.145
X142.849 A1121.493
X142.693 A1119.836
X142.537 A1118.186
X142.381 A1116.536
X142.38 A1116.527
X142.224 A1114.872
X142.068 A1113.217
X141.912 A1111.567
X141.756 A1109.917
X141.755 A1109.908
X141.599 A1108.253
X141.443 A1106.599
X141.287 A1104.948
X141.131 A1103.298
X141.13 A1103.289
X140.974 A1101.635
X140.818 A1099.98
X140.662 A1098.33
X140.506 A1096.679
X140.505 A1096.67
X140.349 A1095.017
X140.193 A1093.365
X140.037 A1091.713
X139.881 A1090.063
X139.88 A1090.056
X139.724 A1088.403
X139.568 A1086.747
X139.412 A1085.097
X139.256 A1083.446
X139.255 A1083.439
X139.099 A1081.787
X138.943 A1080.13
X138.787 A1078.48
X138.631 A1076.83
X138.63 A1076.821
X138.474 A1075.166
X138.318 A1073.511
X138.162 A1071.861
X138.006 A1070.211
X138.005 A1070.202
X137.849 A1068.547
X137.693 A1066.893
X137.537 A1065.242
X137.381 A1063.592
X137.38 A1063.583
X137.224 A1061.929
X137.068 A1060.274
X136.912 A1058.625
X136.756 A1056.978
X136.755 A1056.967
X136.599 A1055.312
X136.443 A1053.657
X136.287 A1052.008
X136.131 A1050.361
X136.13 A1050.35
X135.974 A1048.696
X135.818 A1047.042
X135.662 A1045.394
X135.506 A1043.743
X135.505 A1043.734
X135.349 A1042.079
X135.193 A1040.424
X135.037 A1038.774
X134.881 A1037.124
X134.88 A1037.115
X134.724 A1035.46
X134.568 A1033.805
X134.412 A1032.155
X134.256 A1030.505
X134.254 A1030.494
X134.099 A1028.839
X133.943 A1027.189
X133.787 A1025.536
X133.631 A1023.886
X133.63 A1023.877
X133.474 A1022.223
X133.318 A1020.569
X133.162 A1018.921
X133.006 A1017.27
X133.005 A1017.261
X132.849 A1015.606
X132.693 A1013.952
X132.537 A1012.304
X132.381 A1010.653
X132.38 A1010.644
X132.224 A1008.99
X132.068 A1007.339
X131.912 A1005.687
X131.756 A1004.037
X131.755 A1004.028
X131.599 A1002.373
X131.443 A1000.718
X131.287 A999.067
X131.13 A997.414
A997.407
X130.974 A995.752
X130.818 A994.097
X130.662 A992.447
X130.506 A990.797
X130.505 A990.788
X130.349 A989.134
X130.193 A987.483
X130.037 A985.83
X129.881 A984.18
X129.88 A984.173
X129.724 A982.521
X129.568 A980.864
X129.412 A979.214
X129.256 A977.564
X129.255 A977.557
X129.099 A975.904
X128.943 A974.248
X128.787 A972.597
X128.631 A970.947
X128.63 A970.938
X128.474 A969.284
X128.318 A967.629
X128.162 A965.979
X128.006 A964.328
X128.005 A964.319
X127.849 A962.665
X127.693 A961.01
X127.537 A959.36
X127.381 A957.71
X127.38 A957.701
X127.224 A956.046
X127.068 A954.391
X126.912 A952.742
X126.756 A951.095
X126.755 A951.084
X126.599 A949.429
X126.443 A947.775
X126.287 A946.125
X126.131 A944.478
X126.13 A944.468
X125.974 A942.813
X125.818 A941.158
X125.662 A939.509
X125.506 A937.862
X125.505 A937.851
X125.349 A936.196
X125.193 A934.542
X125.037 A932.891
X124.881 A931.241
X124.88 A931.232
X124.724 A929.578
X124.568 A927.923
X124.412 A926.273
X124.256 A924.622
X124.255 A924.614
X124.099 A922.959
X123.943 A921.304
X123.787 A919.654
X123.631 A918.004
X123.63 A917.995
X123.474 A916.34
X123.318 A914.686
X123.162 A913.038
X123.006 A911.387
X123.005 A911.378
X122.849 A909.723
X122.693 A908.07
X122.537 A906.422
X122.381 A904.771
X122.38 A904.762
X122.224 A903.107
X122.068 A901.453
X121.912 A899.805
X121.756 A898.154
X121.755 A898.145
X121.599 A896.49
X121.443 A894.836
X121.287 A893.185
X121.131 A891.535
X121.13 A891.526
X120.974 A889.872
X120.818 A888.217
X120.662 A886.567
X120.506 A884.916
X120.505 A884.908
X120.349 A883.253
X120.193 A881.598
X120.037 A879.948
X119.881 A878.298
X119.88 A878.289
X119.724 A876.635
X119.568 A874.983
X119.412 A873.331
X119.256 A871.681
X119.255 A871.672
X119.099 A870.018
X118.943 A868.367
X118.787 A866.715
X118.631 A865.065
X118.63 A865.058
X118.474 A863.405
X118.318 A861.749
X118.162 A860.098
X118.006 A858.448
X118.005 A858.439
X117.849 A856.784
X117.693 A855.13
X117.537 A853.479
X117.38 A851.825
A851.818
X117.224 A850.163
X117.068 A848.509
X116.912 A846.858
X116.756 A845.208
X116.755 A845.201
X116.599 A843.549
X116.443 A841.892
X116.287 A840.243
X116.131 A838.596
X116.13 A838.585
X115.974 A836.93
X115.818 A835.276
X115.662 A833.626
X115.506 A831.979
X115.505 A831.969
X115.349 A830.314
X115.193 A828.659
X115.037 A827.009
X114.881 A825.359
X114.88 A825.352
X114.724 A823.699
X114.568 A822.043
X114.412 A820.391
X114.255 A818.738
A818.731
X114.099 A817.076
X113.943 A815.421
X113.787 A813.771
X113.631 A812.121
X113.63 A812.112
X113.474 A810.457
X113.318 A808.803
X113.162 A807.153
X113.006 A805.506
X113.005 A805.496
X112.849 A803.841
X112.693 A802.187
X112.537 A800.539
X112.381 A798.888
X112.38 A798.879
X112.224 A797.224
X112.068 A795.571
X111.912 A793.923
X111.756 A792.271
X111.755 A792.262
X111.599 A790.608
X111.443 A788.953
X111.287 A787.303
X111.131 A785.653
X111.13 A785.644
X110.974 A783.989
X110.818 A782.334
X110.662 A780.684
X110.506 A779.034
X110.505 A779.025
X110.349 A777.37
X110.193 A775.715
X110.037 A774.065
X109.881 A772.415
X109.88 A772.406
X109.724 A770.752
X109.568 A769.101
X109.412 A767.449
X109.256 A765.798
X109.255 A765.79
X109.099 A764.136
X108.943 A762.484
X108.787 A760.832
X108.631 A759.182
X108.63 A759.173
X108.474 A757.519
X108.318 A755.868
X108.162 A754.216
X108.006 A752.565
X108.005 A752.557
X107.849 A750.902
X107.693 A749.247
X107.537 A747.597
X107.381 A745.947
X107.38 A745.938
X107.224 A744.283
X107.068 A742.628
X106.912 A740.978
X106.756 A739.328
X106.755 A739.319
X106.599 A737.664
X106.443 A736.01
X106.287 A734.359
X106.131 A732.709
X106.13 A732.702
X105.974 A731.05
X105.818 A729.393
X105.662 A727.743
X105.506 A726.093
X105.505 A726.086
X105.349 A724.433
X105.193 A722.776
X105.037 A721.127
X104.881 A719.48
X104.88 A719.469
X104.724 A717.815
X104.568 A716.16
X104.412 A714.51
X104.256 A712.859
X104.255 A712.851
X104.099 A711.196
X103.943 A709.541
X103.787 A707.891
X103.631 A706.241
X103.629 A706.23
X103.474 A704.574
X103.318 A702.921
X103.162 A701.273
X103.006 A699.622
X103.005 A699.613
X102.849 A697.958
X102.693 A696.304
X102.537 A694.654
X102.381 A693.007
X102.38 A692.996
X102.224 A691.342
X102.068 A689.687
X101.912 A688.038
X101.756 A686.391
X101.755 A686.38
X101.599 A684.725
X101.443 A683.072
X101.287 A681.423
X101.131 A679.772
X101.13 A679.763
X100.974 A678.109
X100.818 A676.454
X100.662 A674.804
X100.506 A673.154
X100.504 A673.143
X100.349 A671.487
X100.193 A669.833
X100.037 A668.183
X99.881 A666.532
X99.88 A666.524
X99.724 A664.869
X99.568 A663.215
X99.412 A661.567
X99.256 A659.916
X99.255 A659.907
X99.099 A658.253
X98.943 A656.602
X98.787 A654.95
X98.631 A653.299
X98.63 A653.29
X98.474 A651.637
X98.318 A649.985
X98.162 A648.333
X98.006 A646.683
X98.005 A646.674
X97.849 A645.019
X97.693 A643.365
X97.537 A641.714
X97.381 A640.064
X97.38 A640.055
X97.224 A638.4
X97.068 A636.747
X96.912 A635.094
X96.755 A633.439
X96.599 A631.784
X96.443 A630.129
X96.287 A628.475
X96.13 A626.82
X95.974 A625.166
X95.818 A623.514
X95.662 A621.858
X95.505 A620.204
X95.349 A618.553
A618.55
X95.193 A616.896
X95.037 A615.242
X94.88 A613.588
X94.724 A611.937
A611.934
X94.568 A610.28
X94.412 A608.625
X94.255 A606.97
X94.099 A605.316
X93.943 A603.661
X93.787 A602.007
X93.63 A600.351
X93.474 A598.697
X93.318 A597.042
X93.162 A595.388
X93.005 A593.733
X92.849 A592.078
X92.693 A590.423
X92.537 A588.769
X92.38 A587.115
X92.224 A585.464
A585.461
X92.068 A583.807
X91.912 A582.153
X91.756 A580.501
X91.599 A578.845
X91.443 A577.19
X91.287 A575.536
X91.131 A573.885
X90.974 A572.229
X90.818 A570.574
X90.662 A568.919
X90.505 A567.264
X90.349 A565.61
X90.193 A563.955
X90.037 A562.301
X89.88 A560.645
X89.724 A558.991
X89.568 A557.336
X89.412 A555.682
X89.255 A554.027
X89.099 A552.372
X88.943 A550.718
X88.787 A549.067
A549.064
X88.63 A547.41
X88.474 A545.756
X88.318 A544.102
X88.162 A542.451
A542.448
X88.005 A540.794
X87.849 A539.14
X87.693 A537.488
X87.537 A535.832
X87.38 A534.177
X87.224 A532.523
X87.068 A530.868
X86.912 A529.213
X86.755 A527.558
X86.599 A525.904
A525.901
X86.443 A524.246
X86.287 A522.592
X86.13 A520.937
X85.974 A519.283
X85.818 A517.629
X85.662 A515.978
A515.975
X85.505 A514.321
X85.349 A512.667
X85.193 A511.015
X85.037 A509.359
X84.88 A507.704
X84.724 A506.05
X84.568 A504.398
X84.412 A502.743
X84.255 A501.088
X84.099 A499.434
X83.943 A497.782
X83.787 A496.126
X83.63 A494.471
X83.474 A492.817
X83.318 A491.161
X83.161 A489.504
X83.005 A487.85
X82.849 A486.196
X82.693 A484.541
X82.537 A482.886
X82.38 A481.232
X82.224 A479.581
A479.578
X82.068 A477.924
X81.912 A476.27
X81.755 A474.616
X81.599 A472.965
A472.962
X81.443 A471.308
X81.287 A469.653
X81.13 A467.999
X80.974 A466.348
A466.345
X80.818 A464.691
X80.662 A463.037
X80.505 A461.382
X80.349 A459.727
X80.193 A458.072
X80.037 A456.418
X79.88 A454.763
X79.724 A453.109
X79.568 A451.453
X79.412 A449.799
X79.255 A448.144
X79.099 A446.49
X78.943 A444.835
X78.787 A443.181
X78.631 A441.529
X78.474 A439.873
X78.318 A438.218
X78.162 A436.564
X78.006 A434.913
X77.849 A433.257
X77.693 A431.602
X77.537 A429.952
A429.949
X77.38 A428.294
X77.224 A426.64
X77.068 A424.985
X76.912 A423.331
X76.755 A421.676
X76.599 A420.021
X76.443 A418.366
X76.287 A416.712
X76.13 A415.057
X75.974 A413.403
X75.818 A411.747
X75.662 A410.093
X75.505 A408.438
X75.349 A406.784
X75.193 A405.13
X75.037 A403.479
A403.476
X74.88 A401.822
X74.724 A400.167
X74.568 A398.513
X74.412 A396.862
A396.859
X74.255 A395.205
X74.099 A393.551
X73.943 A391.899
X73.787 A390.244
X73.63 A388.589
X73.474 A386.934
X73.318 A385.279
X73.162 A383.625
X73.005 A381.97
X72.849 A380.315
X72.693 A378.66
X72.537 A377.006
X72.38 A375.351
X72.224 A373.697
X72.068 A372.041
X71.912 A370.387
X71.755 A368.733
X71.599 A367.082
A367.079
X71.443 A365.425
X71.287 A363.771
X71.13 A362.117
X70.974 A360.466
A360.463
X70.818 A358.808
X70.662 A357.154
X70.505 A355.5
X70.349 A353.849
A353.846
X70.193 A352.192
X70.037 A350.538
X69.88 A348.883
X69.724 A347.228
X69.568 A345.573
X69.411 A343.915
X69.255 A342.261
X69.099 A340.607
X68.943 A338.952
X68.787 A337.298
X68.631 A335.646
X68.474 A333.991
X68.318 A332.335
X68.162 A330.682
X68.006 A329.03
X67.849 A327.374
X67.693 A325.719
X67.537 A324.065
X67.381 A322.413
X67.224 A320.758
X67.068 A319.102
X66.912 A317.448
X66.755 A315.794
X66.599 A314.143
A314.138
X66.443 A312.483
X66.287 A310.829
X66.13 A309.174
X65.974 A307.52
X65.818 A305.865
X65.662 A304.211
X65.505 A302.555
X65.349 A300.901
X65.193 A299.247
X65.037 A297.596
A297.593
X64.88 A295.939
X64.724 A294.285
X64.568 A292.63
X64.412 A290.98
A290.977
X64.255 A289.322
X64.099 A287.668
X63.943 A286.014
X63.787 A284.363
A284.36
X63.63 A282.706
X63.474 A281.052
X63.318 A279.396
X63.162 A277.742
X63.005 A276.087
X62.849 A274.433
X62.693 A272.778
X62.537 A271.123
X62.38 A269.468
X62.224 A267.814
X62.068 A266.159
X61.912 A264.505
X61.755 A262.849
X61.599 A261.196
X61.443 A259.544
X61.287 A257.888
X61.13 A256.233
X60.974 A254.579
X60.818 A252.927
X60.662 A251.272
X60.505 A249.617
X60.349 A247.966
A247.964
X60.193 A246.309
X60.037 A244.655
X59.88 A243.
X59.724 A241.346
X59.568 A239.69
X59.412 A238.036
X59.255 A236.381
X59.099 A234.727
X58.943 A233.072
X58.787 A231.417
X58.63 A229.762
X58.474 A228.108
X58.318 A226.453
X58.162 A224.799
X58.005 A223.144
X57.849 A221.493
A221.491
X57.693 A219.836
X57.537 A218.182
X57.38 A216.528
X57.224 A214.877
A214.874
X57.068 A213.22
X56.912 A211.566
X56.756 A209.914
X56.599 A208.258
X56.443 A206.603
X56.287 A204.949
X56.13 A203.294
X55.974 A201.64
X55.818 A199.984
X55.661 A198.327
X55.505 A196.673
X55.349 A195.019
X55.193 A193.364
X55.037 A191.713
A191.711
X54.88 A190.056
X54.724 A188.402
X54.568 A186.748
X54.412 A185.097
A185.094
X54.255 A183.44
X54.099 A181.785
X53.943 A180.131
X53.787 A178.48
A178.478
X53.63 A176.823
X53.474 A175.169
X53.318 A173.515
X53.162 A171.864
A171.861
X53.005 A170.207
X52.849 A168.552
X52.693 A166.897
X52.536 A165.239
X52.38 A163.586
X52.224 A161.931
X52.068 A160.276
X51.912 A158.622
X51.755 A156.967
X51.599 A155.313
X51.443 A153.661
X51.287 A152.006
X51.13 A150.35
X50.974 A148.697
X50.818 A147.045
X50.662 A145.389
X50.505 A143.734
X50.349 A142.08
X50.193 A140.428
X50.037 A138.773
X49.88 A137.117
X49.724 A135.463
X49.568 A133.808
X49.412 A132.154
X49.255 A130.498
X49.099 A128.844
X48.943 A127.189
X48.787 A125.535
X48.63 A123.88
X48.474 A122.225
X48.318 A120.57
X48.162 A118.916
X48.005 A117.262
X47.849 A115.611
A115.608
X47.693 A113.953
X47.537 A112.299
X47.381 A110.646
X47.224 A108.994
A108.991
X47.068 A107.337
X46.912 A105.684
X46.756 A104.032
X46.599 A102.376
X46.443 A100.721
X46.287 A99.067
X46.13 A97.411
X45.974 A95.757
X45.818 A94.102
X45.662 A92.447
X45.505 A90.793
X45.349 A89.138
X45.193 A87.484
X45.037 A85.828
X44.88 A84.174
X44.724 A82.519
X44.568 A80.864
X44.412 A79.211
X44.256 A77.559
X44.099 A75.903
X43.943 A74.247
X43.787 A72.594
X43.631 A70.943
X43.63 A70.94
X43.474 A69.286
X43.318 A67.632
X43.162 A65.98
X43.005 A64.325
X42.849 A62.67
X42.693 A61.015
X42.537 A59.361
X42.38 A57.705
X42.224 A56.051
X42.068 A54.396
X41.912 A52.738
X41.755 A51.084
X41.599 A49.431
X41.443 A47.779
X41.287 A46.123
X41.13 A44.468
X40.974 A42.814
X40.818 A41.162
X40.662 A39.506
X40.505 A37.851
X40.349 A36.198
X40.193 A34.546
X40.037 A32.889
X39.88 A31.235
X39.724 A29.581
X39.568 A27.93
A27.927
X39.412 A26.273
X39.255 A24.618
X39.099 A22.964
X38.943 A21.308
X38.786 A19.651
X38.63 A17.997
X38.474 A16.343
X38.318 A14.687
X38.162 A13.033
X38.005 A11.379
X37.849 A9.727
X37.693 A8.072
X37.537 A6.416
X37.38 A4.763
X37.224 A3.111
X37.068 A1.455
X37.095 A3.019
X37.122 A4.582
X37.149 A6.146
X37.176 A7.709
X37.203 A9.273
X37.23 A10.836
X37.257 A12.4
X37.284 A13.963
X37.311 A15.527
X37.338 A17.09
X37.365 A18.653
X37.392 A20.217
X37.419 A21.78
X37.446 A23.344
X37.473 A24.907
X37.5 A26.471
X37.527 A28.034
X37.554 A29.598
X37.581 A31.161
X37.608 A32.725
X37.635 A34.288
X37.662 A35.852
X37.689 A37.415
X37.716 A38.979
X37.743 A40.542
X37.77 A42.106
X37.797 A43.669
X37.824 A45.233
X37.851 A46.796
X37.878 A48.36
X37.905 A49.923
X37.932 A51.487
Z22.6 F796.1
X38.093 A53.191 F2000
X38.254 A54.896
X38.255 A54.899
X38.416 A56.605
X38.577 A58.309
X38.738 A60.014
A60.016
X38.899 A61.723
X39.06 A63.427
X39.221 A65.135
X39.382 A66.84
X39.543 A68.548
X39.705 A70.255
X39.866 A71.96
X40.027 A73.668
X40.188 A75.375
X40.349 A77.08
X40.51 A78.785
X40.671 A80.493
X40.832 A82.197
X40.994 A83.902
X41.155 A85.61
X41.316 A87.315
X41.477 A89.02
X41.638 A90.728
X41.799 A92.433
X41.96 A94.137
X42.121 A95.842
X42.122 A95.845
X42.283 A97.551
X42.444 A99.255
X42.605 A100.963
X42.766 A102.668
X42.927 A104.377
X43.088 A106.083
X43.249 A107.787
X43.25 A107.79
X43.411 A109.497
X43.572 A111.203
X43.733 A112.907
A112.91
X43.894 A114.616
X44.055 A116.32
X44.216 A118.024
X44.377 A119.73
X44.538 A121.438
X44.7 A123.142
X44.861 A124.848
X45.022 A126.556
X45.183 A128.26
X45.344 A129.966
X45.505 A131.671
X45.667 A133.379
X45.828 A135.083
X45.989 A136.791
X46.15 A138.495
A138.498
X46.311 A140.205
X46.472 A141.911
X46.633 A143.615
A143.618
X46.795 A145.325
X46.955 A147.031
X47.117 A148.735
A148.738
X47.278 A150.444
X47.439 A152.148
X47.6 A153.853
A153.855
X47.761 A155.562
X47.922 A157.266
X48.083 A158.97
X48.245 A160.676
X48.406 A162.384
X48.567 A164.088
X48.728 A165.794
X48.889 A167.502
X49.05 A169.206
X49.211 A170.912
X49.372 A172.62
X49.534 A174.323
A174.326
X49.695 A176.034
X49.856 A177.74
X50.017 A179.443
A179.446
X50.178 A181.153
X50.339 A182.859
X50.5 A184.563
X50.501 A184.566
X50.662 A186.272
X50.823 A187.976
X50.984 A189.681
A189.684
X51.145 A191.39
X51.306 A193.094
X51.467 A194.799
X51.628 A196.505
X51.789 A198.212
X51.951 A199.916
X52.112 A201.622
X52.273 A203.33
X52.434 A205.034
X52.595 A206.74
X52.756 A208.448
X52.917 A210.152
X52.918 A210.154
X53.079 A211.862
X53.24 A213.568
X53.401 A215.271
A215.274
X53.562 A216.982
X53.723 A218.688
X53.884 A220.392
X54.045 A222.1
X54.206 A223.805
X54.368 A225.51
X54.529 A227.218
X54.69 A228.923
X54.851 A230.628
X55.012 A232.336
X55.173 A234.04
X55.334 A235.745
X55.495 A237.45
X55.496 A237.452
X55.657 A239.159
X55.818 A240.863
X55.979 A242.567
A242.57
X56.14 A244.276
X56.301 A245.981
X56.462 A247.689
X56.624 A249.396
X56.785 A251.101
X56.946 A252.809
X57.107 A254.516
X57.268 A256.22
X57.429 A257.928
X57.59 A259.633
X57.751 A261.341
X57.912 A263.045
X58.074 A264.751
X58.235 A266.456
X58.396 A268.164
X58.557 A269.869
X58.718 A271.574
X58.879 A273.281
X59.04 A274.986
X59.202 A276.691
X59.363 A278.395
A278.398
X59.524 A280.105
X59.685 A281.809
X59.846 A283.517
X60.007 A285.225
X60.168 A286.929
X60.33 A288.637
X60.491 A290.344
X60.652 A292.049
X60.813 A293.757
X60.974 A295.461
X61.135 A297.169
X61.296 A298.873
X61.457 A300.579
X61.619 A302.284
X61.78 A303.992
X61.941 A305.697
X62.102 A307.402
X62.263 A309.11
X62.424 A310.814
X62.585 A312.519
X62.747 A314.227
X62.908 A315.932
X63.069 A317.64
X63.23 A319.343
A319.346
X63.391 A321.053
X63.552 A322.757
X63.713 A324.466
X63.875 A326.172
X64.036 A327.877
X64.197 A329.585
X64.358 A331.289
A331.291
X64.519 A332.998
X64.68 A334.702
X64.841 A336.406
A336.409
X65.002 A338.115
X65.163 A339.819
X65.325 A341.524
A341.527
X65.486 A343.233
X65.647 A344.937
X65.808 A346.641
X65.969 A348.347
X66.13 A350.055
X66.291 A351.759
X66.292 A351.762
X66.453 A353.468
X66.614 A355.173
X66.775 A356.88
X66.936 A358.585
X67.097 A360.294
X67.258 A362.
X67.419 A363.705
X67.58 A365.413
X67.742 A367.117
A367.119
X67.903 A368.826
X68.064 A370.53
X68.225 A372.234
A372.237
X68.386 A373.944
X68.547 A375.647
X68.708 A377.352
X68.709 A377.355
X68.87 A379.061
X69.031 A380.765
X69.192 A382.47
X69.353 A384.176
X69.514 A385.884
X69.675 A387.587
A387.59
X69.836 A389.297
X69.997 A391.001
X70.159 A392.709
X70.32 A394.413
X70.481 A396.122
X70.642 A397.829
X70.803 A399.533
X70.964 A401.241
X71.125 A402.945
X71.126 A402.948
X71.287 A404.654
X71.448 A406.358
X71.609 A408.066
X71.77 A409.771
X71.931 A411.476
X72.092 A413.18
A413.183
X72.253 A414.889
X72.414 A416.593
X72.576 A418.298
X72.737 A420.004
X72.898 A421.712
X73.059 A423.416
A423.418
X73.22 A425.125
X73.381 A426.829
X73.542 A428.537
X73.704 A430.242
X73.865 A431.95
X74.026 A433.657
X74.187 A435.361
X74.348 A437.071
X74.509 A438.777
X74.67 A440.481
X74.831 A442.187
X74.993 A443.895
X75.154 A445.598
X75.315 A447.304
X75.476 A449.009
X75.637 A450.717
X75.798 A452.422
X75.959 A454.127
X76.121 A455.835
X76.282 A457.54
X76.443 A459.245
X76.604 A460.953
X76.765 A462.657
X76.926 A464.365
X77.087 A466.069
X77.088 A466.072
X77.249 A467.779
X77.41 A469.485
X77.571 A471.189
A471.192
X77.732 A472.899
X77.893 A474.605
X78.054 A476.309
X78.215 A478.015
X78.376 A479.723
X78.537 A481.426
X78.699 A483.132
X78.86 A484.837
X79.021 A486.545
X79.182 A488.25
X79.343 A489.955
X79.504 A491.663
X79.665 A493.368
X79.827 A495.073
X79.988 A496.781
X80.149 A498.485
X80.31 A500.194
X80.471 A501.901
X80.632 A503.605
X80.793 A505.314
X80.955 A507.021
X81.116 A508.725
X81.277 A510.433
X81.438 A512.137
A512.14
X81.599 A513.846
X81.76 A515.55
X81.921 A517.255
X82.082 A518.961
X82.244 A520.668
X82.405 A522.372
X82.566 A524.078
X82.727 A525.786
X82.888 A527.49
X83.049 A529.196
X83.21 A530.901
X83.372 A532.609
X83.533 A534.314
X83.694 A536.022
X83.855 A537.729
X84.016 A539.434
X84.177 A541.143
X84.338 A542.849
X84.499 A544.553
X84.5 A544.555
X84.661 A546.262
X84.822 A547.966
X84.983 A549.674
X85.144 A551.379
X85.305 A553.083
X85.466 A554.788
A554.791
X85.627 A556.497
X85.788 A558.201
X85.95 A559.906
A559.908
X86.111 A561.615
X86.272 A563.319
X86.433 A565.023
X86.594 A566.729
X86.755 A568.437
X86.916 A570.141
X86.917 A570.144
X87.078 A571.851
X87.239 A573.557
X87.4 A575.261
A575.264
X87.561 A576.971
X87.722 A578.677
X87.883 A580.381
A580.384
X88.044 A582.09
X88.205 A583.794
X88.367 A585.502
X88.528 A587.207
X88.689 A588.912
X88.85 A590.62
X89.011 A592.324
X89.172 A594.029
X89.333 A595.734
X89.334 A595.737
X89.495 A597.443
X89.656 A599.147
X89.817 A600.852
X89.978 A602.557
X90.139 A604.265
X90.3 A605.969
A605.972
X90.461 A607.678
X90.622 A609.383
X90.784 A611.091
X90.945 A612.799
X91.106 A614.505
X91.267 A616.209
A616.212
X91.428 A617.918
X91.589 A619.622
X91.75 A621.33
X91.912 A623.035
X92.073 A624.743
X92.234 A626.447
X92.395 A628.153
X92.556 A629.858
X92.717 A631.566
X92.878 A633.27
X93.039 A634.975
X93.201 A636.68
A636.682
X93.362 A638.389
X93.523 A640.093
X93.684 A641.797
A641.8
X93.845 A643.507
X94.006 A645.211
X94.168 A646.919
X94.329 A648.626
X94.49 A650.331
X94.651 A652.039
X94.812 A653.746
X94.973 A655.451
X95.134 A657.159
X95.295 A658.862
X95.296 A658.865
X95.457 A660.572
X95.618 A662.275
X95.779 A663.98
X95.94 A665.686
X96.101 A667.394
X96.262 A669.098
X96.423 A670.804
X96.584 A672.512
X96.745 A674.215
X96.907 A675.921
X97.068 A677.629
X97.229 A679.333
X97.39 A681.039
X97.551 A682.748
X97.712 A684.454
X97.873 A686.159
X98.035 A687.868
X98.196 A689.574
X98.357 A691.279
X98.518 A692.987
X98.679 A694.69
A694.693
X98.84 A696.4
X99.001 A698.103
X99.162 A699.808
X99.163 A699.811
X99.324 A701.517
X99.485 A703.221
X99.646 A704.926
A704.929
X99.807 A706.635
X99.968 A708.339
X100.129 A710.043
X100.29 A711.749
X100.452 A713.457
X100.613 A715.161
A715.164
X100.774 A716.87
X100.935 A718.575
X101.096 A720.282
X101.257 A721.987
X101.418 A723.696
X101.58 A725.402
X101.741 A727.107
X101.902 A728.815
X102.063 A730.519
A730.521
X102.224 A732.228
X102.385 A733.932
X102.546 A735.636
X102.547 A735.639
X102.708 A737.346
X102.868 A739.048
X103.03 A740.751
A740.758
X103.191 A742.464
X103.312 A743.743
X103.433 A745.021
X103.553 A746.3
X103.674 A747.579
X103.835 A749.287
X103.996 A750.988
X104.157 A752.692
X104.158 A752.698
X104.319 A754.404
X104.48 A756.112
X104.641 A757.816
X104.802 A759.525
X104.963 A761.232
X105.124 A762.933
X105.285 A764.637
X105.286 A764.643
X105.447 A766.349
X105.608 A768.057
X105.769 A769.761
X105.93 A771.469
X106.091 A773.174
X106.252 A774.879
X106.413 A776.581
X106.574 A778.285
X106.575 A778.291
X106.736 A779.996
X106.897 A781.702
X107.058 A783.41
X107.219 A785.115
X107.38 A786.819
X107.541 A788.523
X107.702 A790.223
X107.703 A790.234
X107.864 A791.94
X108.025 A793.644
X108.186 A795.354
X108.347 A797.06
X108.508 A798.764
X108.669 A800.474
X108.83 A802.176
X108.991 A803.876
X108.992 A803.884
X109.153 A805.589
X109.314 A807.298
X109.435 A808.576
X109.556 A809.855
X109.676 A811.134
X109.797 A812.412
X109.958 A814.116
X110.119 A815.816
X110.12 A815.825
X110.281 A817.53
X110.442 A819.238
X110.603 A820.943
X110.764 A822.647
X110.925 A824.356
X111.086 A826.06
X111.247 A827.764
X111.408 A829.464
X111.409 A829.474
X111.57 A831.182
X111.731 A832.888
X111.892 A834.592
X112.053 A836.302
X112.214 A838.008
X112.375 A839.712
X112.536 A841.414
X112.697 A843.118
X112.698 A843.125
X112.859 A844.83
X113.02 A846.535
X113.181 A848.244
X113.342 A849.948
X113.503 A851.653
X113.664 A853.357
X113.825 A855.057
X113.826 A855.065
X113.987 A856.771
X114.148 A858.476
X114.309 A860.184
X114.47 A861.888
X114.631 A863.597
X114.792 A865.301
X114.953 A867.006
X115.114 A868.709
X115.115 A868.716
X115.276 A870.421
X115.437 A872.13
X115.598 A873.836
X115.759 A875.541
X115.92 A877.249
X116.081 A878.949
X116.242 A880.65
X116.243 A880.658
X116.404 A882.363
X116.565 A884.072
X116.726 A885.776
X116.887 A887.481
X117.048 A889.189
X117.209 A890.894
X117.37 A892.594
X117.531 A894.295
X117.532 A894.306
X117.693 A896.012
X117.854 A897.716
X118.015 A899.425
X118.176 A901.129
X118.337 A902.838
X118.498 A904.54
X118.659 A906.24
X118.66 A906.251
X118.821 A907.958
X118.982 A909.665
X119.143 A911.369
X119.304 A913.077
X119.465 A914.782
X119.626 A916.486
X119.787 A918.19
X119.948 A919.89
X119.949 A919.899
X120.11 A921.604
X120.271 A923.309
X120.432 A925.018
X120.593 A926.722
X120.754 A928.427
X120.915 A930.131
X121.076 A931.831
X121.077 A931.839
X121.238 A933.545
X121.399 A935.253
X121.56 A936.957
X121.721 A938.666
X121.882 A940.373
X122.043 A942.077
X122.204 A943.782
X122.365 A945.485
X122.366 A945.492
X122.527 A947.197
X122.688 A948.905
X122.849 A950.61
X123.01 A952.315
X123.171 A954.023
X123.332 A955.723
X123.493 A957.424
X123.494 A957.434
X123.655 A959.141
X123.776 A960.419
X123.897 A961.698
X124.017 A962.976
X124.138 A964.255
X124.299 A965.963
X124.46 A967.668
X124.621 A969.369
X124.782 A971.073
X124.783 A971.08
X124.944 A972.785
X125.105 A974.495
X125.266 A976.201
X125.427 A977.905
X125.588 A979.615
X125.749 A981.317
X125.91 A983.017
X125.911 A983.027
X126.072 A984.734
X126.233 A986.438
X126.394 A988.143
X126.555 A989.851
X126.716 A991.556
X126.877 A993.261
X127.038 A994.965
X127.199 A996.664
X127.2 A996.673
X127.361 A998.378
X127.522 A1000.083
X127.683 A1001.792
X127.844 A1003.496
X128.005 A1005.201
X128.166 A1006.905
X128.327 A1008.605
X128.328 A1008.615
X128.489 A1010.323
X128.65 A1012.029
X128.811 A1013.733
X128.972 A1015.443
X129.133 A1017.149
X129.294 A1018.853
X129.455 A1020.557
X129.616 A1022.257
X129.617 A1022.268
X129.778 A1023.974
X129.899 A1025.253
X130.02 A1026.531
X130.14 A1027.81
X130.261 A1029.089
X130.422 A1030.797
X130.583 A1032.501
X130.744 A1034.203
X130.905 A1035.907
X130.906 A1035.914
X131.067 A1037.619
X131.228 A1039.324
X131.389 A1041.032
X131.55 A1042.737
X131.711 A1044.445
X131.872 A1046.146
X132.033 A1047.85
X132.034 A1047.857
X132.195 A1049.562
X132.356 A1051.271
X132.517 A1052.977
X132.678 A1054.682
X132.839 A1056.39
X133. A1058.094
X133.161 A1059.798
X133.322 A1061.498
X133.323 A1061.507
X133.484 A1063.212
X133.645 A1064.917
X133.806 A1066.625
X133.967 A1068.33
X134.128 A1070.035
X134.289 A1071.739
X134.45 A1073.438
X134.451 A1073.447
X134.612 A1075.152
X134.773 A1076.861
X134.934 A1078.565
X135.095 A1080.273
X135.256 A1081.977
X135.417 A1083.686
X135.578 A1085.386
X135.739 A1087.09
X135.74 A1087.099
X135.901 A1088.806
X136.062 A1090.51
X136.223 A1092.218
X136.384 A1093.922
X136.545 A1095.631
X136.706 A1097.331
X136.867 A1099.031
X136.868 A1099.042
X137.029 A1100.748
X137.19 A1102.453
X137.351 A1104.158
X137.512 A1105.866
X137.673 A1107.571
X137.834 A1109.275
X137.995 A1110.977
X138.156 A1112.681
X138.157 A1112.688
X138.318 A1114.393
X138.479 A1116.101
X138.64 A1117.805
X138.801 A1119.514
X138.962 A1121.218
X139.123 A1122.923
X139.285 A1124.626
A1124.633
X139.446 A1126.338
X139.607 A1128.046
X139.768 A1129.751
X139.929 A1131.459
X140.09 A1133.164
X140.251 A1134.868
X140.412 A1136.572
X140.573 A1138.272
X140.574 A1138.281
X140.735 A1139.986
X140.896 A1141.694
X141.017 A1142.973
X141.138 A1144.251
X141.258 A1145.53
X141.379 A1146.809
X141.54 A1148.513
X141.701 A1150.212
X141.702 A1150.223
X141.863 A1151.929
X142.024 A1153.634
X142.185 A1155.343
X142.346 A1157.049
X142.507 A1158.754
X142.668 A1160.462
X142.829 A1162.163
X142.99 A1163.867
X142.991 A1163.875
X143.152 A1165.582
X143.313 A1167.287
X143.474 A1168.991
X143.635 A1170.7
X143.796 A1172.404
X143.957 A1174.105
X144.118 A1175.805
X144.119 A1175.816
X144.28 A1177.522
X144.441 A1179.227
X144.602 A1180.932
X144.763 A1182.64
X144.924 A1184.345
X145.085 A1186.049
X145.246 A1187.753
X145.407 A1189.453
X145.408 A1189.464
X145.569 A1191.171
X145.73 A1192.878
X145.891 A1194.582
X146.052 A1196.291
X146.213 A1197.998
X146.374 A1199.698
X146.535 A1201.402
X146.536 A1201.409
X146.697 A1203.114
X146.858 A1204.819
X147.019 A1206.528
X147.14 A1207.806
X147.261 A1209.085
X147.381 A1210.364
X147.502 A1211.642
X147.663 A1213.346
X147.824 A1215.046
X147.825 A1215.055
X147.986 A1216.76
X148.147 A1218.468
X148.308 A1220.173
X148.469 A1221.878
X148.63 A1223.586
X148.791 A1225.287
X148.952 A1226.991
X148.953 A1226.999
X149.114 A1228.706
X149.275 A1230.41
X149.436 A1232.119
X149.597 A1233.826
X149.758 A1235.53
X149.919 A1237.238
X150.08 A1238.939
X150.242 A1240.643
A1240.65
X150.363 A1241.929
X150.484 A1243.208
X150.604 A1244.486
X150.725 A1245.765
X150.886 A1247.474
X151.047 A1249.178
X151.208 A1250.883
X151.369 A1252.585
X151.53 A1254.289
X151.531 A1254.296
X151.692 A1256.001
X151.853 A1257.706
X152.014 A1259.414
X152.175 A1261.118
X152.336 A1262.828
X152.497 A1264.53
X152.658 A1266.23
X152.659 A1266.24
X152.82 A1267.948
X152.981 A1269.654
X153.142 A1271.358
X153.303 A1273.067
X153.464 A1274.771
X153.625 A1276.479
X153.786 A1278.179
X153.947 A1279.88
X153.948 A1279.888
X154.109 A1281.593
X154.27 A1283.302
X154.431 A1285.006
X154.592 A1286.711
X154.753 A1288.42
X154.914 A1290.119
X155.075 A1291.82
X155.076 A1291.829
X155.237 A1293.534
X155.398 A1295.242
X155.559 A1296.946
X155.72 A1298.656
X155.881 A1300.362
X156.042 A1302.066
X156.203 A1303.771
X156.364 A1305.475
X156.365 A1305.481
X156.526 A1307.186
X156.687 A1308.895
X156.848 A1310.599
X157.009 A1312.307
X157.17 A1314.011
X157.331 A1315.713
X157.492 A1317.417
X157.493 A1317.424
X157.614 A1318.703
X157.735 A1319.982
X157.855 A1321.261
X157.976 A1322.539
X158.137 A1324.248
X158.298 A1325.952
X158.459 A1327.657
X158.62 A1329.361
X158.781 A1331.061
X158.782 A1331.07
X158.943 A1332.775
X159.104 A1334.484
X159.265 A1336.19
X159.426 A1337.895
X159.587 A1339.604
X159.748 A1341.306
X159.909 A1343.006
X159.91 A1343.016
X160.071 A1344.723
X160.232 A1346.427
X160.393 A1348.135
X160.554 A1349.84
X160.715 A1351.545
X160.876 A1353.253
X161.037 A1354.953
X161.198 A1356.654
X161.199 A1356.664
X161.36 A1358.371
X161.481 A1359.649
X161.602 A1360.928
X161.722 A1362.207
X161.843 A1363.485
X162.004 A1365.194
X162.165 A1366.893
X162.326 A1368.594
X162.327 A1368.605
X162.488 A1370.312
X162.649 A1372.019
X162.81 A1373.723
X162.971 A1375.432
X163.132 A1377.139
X163.293 A1378.843
X163.454 A1380.547
X163.615 A1382.247
X163.616 A1382.257
X163.777 A1383.964
X163.938 A1385.668
X164.099 A1387.373
X164.26 A1389.081
X164.421 A1390.785
X164.582 A1392.487
X164.743 A1394.191
X164.744 A1394.198
X164.905 A1395.903
X165.066 A1397.608
X165.227 A1399.313
X165.388 A1401.022
X165.549 A1402.726
X165.71 A1404.434
X165.871 A1406.135
X166.032 A1407.839
X166.033 A1407.846
X166.194 A1409.551
X166.355 A1411.26
X166.516 A1412.967
X166.677 A1414.671
X166.838 A1416.379
X166.999 A1418.08
X167.16 A1419.784
X167.161 A1419.791
X167.322 A1421.496
X167.483 A1423.204
X167.604 A1424.483
X167.725 A1425.762
X167.845 A1427.04
X167.966 A1428.319
X168.127 A1430.027
X168.288 A1431.727
X168.449 A1433.428
X168.45 A1433.438
X168.611 A1435.145
X168.772 A1436.849
X168.933 A1438.554
X169.094 A1440.262
X169.255 A1441.967
X169.416 A1443.671
X169.577 A1445.371
X169.578 A1445.381
X169.739 A1447.088
X169.9 A1448.795
X170.061 A1450.499
X170.222 A1452.208
X170.383 A1453.912
X170.544 A1455.62
X170.705 A1457.321
X170.867 A1459.025
A1459.032
X170.988 A1460.31
X171.109 A1461.589
X171.229 A1462.868
X171.35 A1464.147
