(VECTRIC POST REVISION)
(73AEA2D9E9B67AE7697F0CF21BDB8954)
T1
G17
G21
G90
G0Z30.200
G0X0.000A0.000
S28500M3
G0X40.000A0.000Z30.200
G1Z20.001F1500.0
G1X0.000Z20.002F3000.0
G1A1.516Z20.035
G1X40.000Z20.034
G1A3.032Z20.067
G1X0.000Z20.068
G1A4.548Z20.101
G1X40.000Z20.100
G1A6.064Z20.133
G1X0.000Z20.134
G1A7.243Z20.172
G1A7.580Z20.195
G1X40.000Z20.194
G1A9.096Z20.295
G1X0.000Z20.296
G1A10.612Z20.397
G1X40.000Z20.395
G1A12.128Z20.496
G1X0.000Z20.497
G1A13.644Z20.599
G1X40.000Z20.597
G1A15.160Z20.766
G1X0.000Z20.767
G1A16.676Z20.940
G1X40.000Z20.939
G1A18.192Z21.112
G1X0.000Z21.113
G1A19.707Z21.286
G1X40.000Z21.285
G1A20.465Z21.390
G1A21.223Z21.516
G1X0.000Z21.517
G1A22.739Z21.770
G1X40.000Z21.768
G1A24.255Z22.021
G1X0.000Z22.022
G1A25.771Z22.274
G1X40.000Z22.273
G1A27.287Z22.601
G1X0.000Z22.603
G1A28.803Z22.944
G1X40.000Z22.942
G1A30.319Z23.284
G1X0.000Z23.285
G1A31.498Z23.564
G1A31.835Z23.662
G1X40.000Z23.660
G1A33.351Z24.101
G1X0.000Z24.103
G1A34.867Z24.543
G1X40.000Z24.542
G1A36.214Z24.948
G1A36.383Z25.010
G1X0.000Z25.011
G1A37.899Z25.564
G1X40.000Z25.563
G1A39.415Z26.116
G1X0.000Z26.118
G1A40.341Z26.466
G1A40.931Z26.730
G1X40.000Z26.728
G1A42.447Z27.408
G1X0.000Z27.410
G1A43.963Z28.089
G1X40.000Z28.087
G1A44.300Z28.200
G1A44.721Z28.266
G1A45.142Z28.267
G1A45.479Z28.221
G1X0.000Z28.223
G1A45.900Z28.109
G1A46.995Z27.623
G1X40.000Z27.621
G1A48.511Z26.942
G1X0.000Z26.944
G1A49.858Z26.353
G1A50.026Z26.292
G1X40.000Z26.290
G1A51.542Z25.737
G1X0.000Z25.738
G1A53.058Z25.184
G1X40.000Z25.183
G1A54.069Z24.828
G1A54.574Z24.681
G1X0.000Z24.682
G1A56.090Z24.241
G1X40.000Z24.240
G1A57.606Z23.799
G1X0.000Z23.800
G1A58.785Z23.468
G1A59.122Z23.392
G1X40.000Z23.391
G1A60.638Z23.050
G1X0.000Z23.051
G1A62.154Z22.710
G1X40.000Z22.708
G1A63.670Z22.367
G1X0.000Z22.369
G1A64.512Z22.213
G1A65.186Z22.101
G1X40.000Z22.100
G1A66.702Z21.848
G1X0.000Z21.849
G1A68.218Z21.596
G1X40.000Z21.595
G1A69.734Z21.342
G1X0.000Z21.344
G1A71.250Z21.167
G1X40.000Z21.166
G1A72.766Z20.993
G1X0.000Z20.995
G1A74.282Z20.822
G1X40.000Z20.820
G1A75.798Z20.647
G1X0.000Z20.648
G1A76.724Z20.569
G1A77.314Z20.529
G1X40.000Z20.528
G1A78.830Z20.427
G1X0.000Z20.428
G1A80.345Z20.328
G1X40.000Z20.326
G1A81.861Z20.226
G1X0.000Z20.227
G1A83.209Z20.148
G1A83.377Z20.144
G1X40.000Z20.144
G1A84.893Z20.111
G1X0.000Z20.111
G1A86.409Z20.078
G1X40.000Z20.078
G1A87.925Z20.044
G1X0.000Z20.045
G1A89.441Z20.012
G1X40.000Z20.011
G1A90.368Z20.009
G1A90.957Z20.022
G1X0.000Z20.022
G1A92.473Z20.056
G1X40.000Z20.055
G1A93.989Z20.088
G1X0.000Z20.089
G1A95.505Z20.122
G1X40.000Z20.121
G1A97.021Z20.156
G1X0.000Z20.158
G1A98.537Z20.259
G1X40.000Z20.257
G1A100.053Z20.358
G1X0.000Z20.360
G1A101.569Z20.460
G1X40.000Z20.459
G1A103.085Z20.560
G1X0.000Z20.561
G1A104.011Z20.636
G1A104.601Z20.703
G1X40.000Z20.702
G1A106.117Z20.875
G1X0.000Z20.876
G1A107.633Z21.050
G1X40.000Z21.048
G1A109.149Z21.221
G1X0.000Z21.223
G1A110.328Z21.368
G1A110.665Z21.424
G1X40.000Z21.423
G1A112.180Z21.675
G1X0.000Z21.676
G1A113.696Z21.929
G1X40.000Z21.928
G1A115.212Z22.180
G1X0.000Z22.181
G1A116.223Z22.363
G1A116.728Z22.477
G1X40.000Z22.476
G1A118.244Z22.817
G1X0.000Z22.818
G1A119.760Z23.159
G1X40.000Z23.158
G1A121.276Z23.499
G1X0.000Z23.500
G1A122.792Z23.940
G1X40.000Z23.939
G1A124.308Z24.380
G1X0.000Z24.381
G1A125.824Z24.822
G1X40.000Z24.820
G1A127.256Z25.328
G1A127.340Z25.359
G1X0.000Z25.360
G1A128.856Z25.914
G1X40.000Z25.912
G1A130.372Z26.478
G1X0.000Z26.480
G1A131.888Z27.159
G1X40.000Z27.157
G1A133.404Z27.837
G1X0.000Z27.839
G1A134.078Z28.131
G1A134.583Z28.247
G1A134.920Z28.274
G1X40.000Z28.273
G1A135.341Z28.251
G1A135.762Z28.160
G1A136.436Z27.872
G1X0.000Z27.873
G1A137.952Z27.194
G1X40.000Z27.193
G1A139.468Z26.513
G1X0.000Z26.515
G1A140.141Z26.250
G1A140.984Z25.942
G1X40.000Z25.941
G1A142.499Z25.387
G1X0.000Z25.389
G1A144.015Z24.845
G1X40.000Z24.843
G1A145.531Z24.402
G1X0.000Z24.403
G1A147.047Z23.963
G1X40.000Z23.961
G1A148.563Z23.520
G1X0.000Z23.522
G1A150.079Z23.177
G1X40.000Z23.175
G1A151.595Z22.834
G1X0.000Z22.836
G1A153.111Z22.494
G1X40.000Z22.493
G1A154.122Z22.277
G1A154.627Z22.193
G1X0.000Z22.194
G1A156.143Z21.942
G1X40.000Z21.941
G1A157.659Z21.688
G1X0.000Z21.690
G1A159.175Z21.437
G1X40.000Z21.436
G1A160.017Z21.307
G1A160.691Z21.230
G1X0.000Z21.231
G1A162.207Z21.058
G1X40.000Z21.057
G1A163.723Z20.884
G1X0.000Z20.885
G1A165.239Z20.712
G1X40.000Z20.711
G1A166.418Z20.588
G1A166.755Z20.565
G1X0.000Z20.567
G1A168.271Z20.466
G1X40.000Z20.464
G1A169.787Z20.363
G1X0.000Z20.364
G1A171.303Z20.264
G1X40.000Z20.263
G1A172.818Z20.162
G1X0.000Z20.163
G1A174.334Z20.124
G1X40.000Z20.123
G1A175.850Z20.090
G1X0.000Z20.090
G1A177.366Z20.057
G1X40.000Z20.057
G1A178.882Z20.024
G1X0.000Z20.024
G1A180.230Z20.006
G1A180.398Z20.010
G1X40.000Z20.010
G1A181.914Z20.043
G1X0.000Z20.043
G1A183.430Z20.077
G1X40.000Z20.076
G1A184.946Z20.109
G1X0.000Z20.109
G1A186.462Z20.143
G1X40.000Z20.142
G1A187.304Z20.175
G1A187.978Z20.220
G1X0.000Z20.221
G1A189.494Z20.322
G1X40.000Z20.321
G1A191.010Z20.422
G1X0.000Z20.423
G1A192.526Z20.524
G1X40.000Z20.523
G1A193.958Z20.629
G1A194.042Z20.638
G1X0.000Z20.639
G1A195.558Z20.812
G1X40.000Z20.811
G1A197.074Z20.984
G1X0.000Z20.986
G1A198.590Z21.159
G1X40.000Z21.158
G1A200.106Z21.331
G1X0.000Z21.332
G1A201.622Z21.583
G1X40.000Z21.582
G1A203.138Z21.835
G1X0.000Z21.836
G1A204.653Z22.088
G1X40.000Z22.087
G1A206.169Z22.350
G1X0.000Z22.351
G1A207.685Z22.692
G1X40.000Z22.691
G1A209.201Z23.032
G1X0.000Z23.033
G1A210.717Z23.374
G1X40.000Z23.373
G1A211.475Z23.555
G1A212.233Z23.776
G1X0.000Z23.777
G1A213.749Z24.219
G1X40.000Z24.217
G1A215.265Z24.658
G1X0.000Z24.659
G1A216.192Z24.941
G1A216.781Z25.157
G1X40.000Z25.155
G1A218.297Z25.708
G1X0.000Z25.710
G1A219.813Z26.263
G1X40.000Z26.261
G1A220.487Z26.530
G1A221.329Z26.907
G1X0.000Z26.909
G1A222.845Z27.588
G1X40.000Z27.586
G1A224.108Z28.144
G1A224.361Z28.214
G1X0.000Z28.215
G1A224.782Z28.271
G1A225.203Z28.263
G1A225.624Z28.191
G1A225.877Z28.118
G1X40.000Z28.116
G1A227.393Z27.443
G1X0.000Z27.444
G1A228.909Z26.765
G1X40.000Z26.764
G1A229.835Z26.360
G1A230.425Z26.145
G1X0.000Z26.146
G1A231.941Z25.593
G1X40.000Z25.591
G1A233.457Z25.038
G1X0.000Z25.039
G1A234.130Z24.811
G1A234.972Z24.566
G1X40.000Z24.565
G1A236.488Z24.124
G1X0.000Z24.125
G1A238.004Z23.684
G1X40.000Z23.683
G1A238.847Z23.452
G1A239.520Z23.301
G1X0.000Z23.302
G1A241.036Z22.961
G1X40.000Z22.960
G1A242.552Z22.619
G1X0.000Z22.620
G1A244.068Z22.287
G1X40.000Z22.286
G1A245.584Z22.033
G1X0.000Z22.035
G1A247.100Z21.783
G1X40.000Z21.781
G1A248.616Z21.529
G1X0.000Z21.530
G1A249.964Z21.315
G1A250.132Z21.295
G1X40.000Z21.294
G1A251.648Z21.121
G1X0.000Z21.122
G1A253.164Z20.949
G1X40.000Z20.948
G1A254.680Z20.775
G1X0.000Z20.776
G1A256.196Z20.604
G1X40.000Z20.602
G1A257.712Z20.502
G1X0.000Z20.503
G1A259.228Z20.402
G1X40.000Z20.401
G1A260.744Z20.300
G1X0.000Z20.301
G1A262.260Z20.200
G1X40.000Z20.199
G1A263.270Z20.146
G1A263.776Z20.135
G1X0.000Z20.136
G1A265.291Z20.103
G1X40.000Z20.102
G1A266.807Z20.069
G1X0.000Z20.069
G1A268.323Z20.036
G1X40.000Z20.036
G1A269.839Z20.003
G1X0.000Z20.003
G1A271.355Z20.031
G1X40.000Z20.031
G1A272.871Z20.064
G1X0.000Z20.064
G1A274.387Z20.097
G1X40.000Z20.097
G1A275.903Z20.130
G1X0.000Z20.130
G1A277.251Z20.173
G1A277.419Z20.184
G1X40.000Z20.183
G1A278.935Z20.284
G1X0.000Z20.285
G1A280.451Z20.386
G1X40.000Z20.385
G1A281.967Z20.486
G1X0.000Z20.487
G1A283.483Z20.588
G1X40.000Z20.586
G1A284.999Z20.748
G1X0.000Z20.749
G1A286.515Z20.922
G1X40.000Z20.920
G1A288.031Z21.094
G1X0.000Z21.095
G1A289.547Z21.268
G1X40.000Z21.267
G1A290.389Z21.377
G1A291.063Z21.489
G1X0.000Z21.490
G1A292.579Z21.743
G1X40.000Z21.741
G1A294.095Z21.994
G1X0.000Z21.995
G1A295.610Z22.248
G1X40.000Z22.247
G1A296.368Z22.395
G1A297.126Z22.565
G1X0.000Z22.567
G1A298.642Z22.908
G1X40.000Z22.906
G1A300.158Z23.247
G1X0.000Z23.249
G1A301.422Z23.541
G1A301.674Z23.615
G1X40.000Z23.613
G1A303.190Z24.054
G1X0.000Z24.056
G1A304.706Z24.497
G1X40.000Z24.496
G1A306.138Z24.920
G1A306.222Z24.951
G1X0.000Z24.952
G1A307.738Z25.506
G1X40.000Z25.504
G1A309.254Z26.057
G1X0.000Z26.059
G1A310.349Z26.470
G1A310.770Z26.658
G1X40.000Z26.657
G1A312.286Z27.336
G1X0.000Z27.337
G1A313.802Z28.017
G1X40.000Z28.015
G1A314.223Z28.172
G1A314.644Z28.254
G1A315.065Z28.272
G1A315.318Z28.254
G1X0.000Z28.255
G1A315.739Z28.168
G1A316.581Z27.808
G1A316.834Z27.694
G1X40.000Z27.693
G1A318.350Z27.014
G1X0.000Z27.016
G1A319.866Z26.350
G1X40.000Z26.348
G1A321.382Z25.795
G1X0.000Z25.797
G1A322.898Z25.244
G1X40.000Z25.242
G1A324.077Z24.825
G1A324.414Z24.727
G1X0.000Z24.729
G1A325.930Z24.288
G1X40.000Z24.286
G1A327.445Z23.845
G1X0.000Z23.846
G1A328.793Z23.466
G1A328.961Z23.428
G1X40.000Z23.427
G1A330.477Z23.086
G1X0.000Z23.087
G1A331.993Z22.746
G1X40.000Z22.745
G1A333.509Z22.403
G1X0.000Z22.405
G1A334.183Z22.268
G1A335.025Z22.128
G1X40.000Z22.127
G1A336.541Z21.874
G1X0.000Z21.875
G1A338.057Z21.623
G1X40.000Z21.622
G1A339.573Z21.370
G1X0.000Z21.371
G1A341.089Z21.186
G1X40.000Z21.185
G1A342.605Z21.012
G1X0.000Z21.013
G1A344.121Z20.840
G1X40.000Z20.838
G1A345.637Z20.666
G1X0.000Z20.667
G1A346.563Z20.579
G1A347.153Z20.540
G1X40.000Z20.539
G1A348.669Z20.438
G1X0.000Z20.439
G1A350.185Z20.338
G1X40.000Z20.337
G1A351.701Z20.236
G1X0.000Z20.237
G1A353.217Z20.148
G1X40.000Z20.147
G1A354.733Z20.114
G1X0.000Z20.115
G1A356.249Z20.082
G1X40.000Z20.081
G1A357.764Z20.048
G1X0.000Z20.049
G1A359.242Z20.016
G1X40.000Z20.016
G1A360.000Z20.001
G1X0.000Z20.002
G0Z30.200
M5
G0Z30.200
G0X0.000A0.000
M2
