(VECTRIC POST REVISION)
(73AEA2D9E9B67AE7697F0CF21BDB8954)
T1
G17
G21
G90
G0Z30.200
G0X0.000A0.000
S28500M3
G0X40.000A0.000Z30.200
G1Z20.000F1500.0
G1X0.000F3000.0
G1A1.516
G1X40.000
G1A3.032Z20.000
G1X0.000
G1A4.548Z20.000
G1X40.000
G1A6.064Z20.000
G1X0.000
G1A7.580Z20.000
G1X40.000
G1A9.096Z20.000
G1X0.000
G1A10.612Z20.000
G1X40.000
G1A12.128Z20.000
G1X0.000
G1A13.644Z20.000
G1X40.000
G1A15.160
G1X0.000
G1A16.676Z20.000
G1X40.000
G1A18.192
G1X0.000
G1A19.707Z20.000
G1X40.000
G1A21.223
G1X0.000
G1A22.739
G1X40.000
G1A24.255Z20.000
G1X0.000
G1A25.771Z20.000
G1X40.000
G1A27.287
G1X0.000
G1A28.803
G1X40.000
G1A30.319Z20.000
G1X0.000
G1A31.835
G1X40.000
G1A33.351Z20.000
G1X0.000
G1A34.867Z20.000
G1X40.000
G1A36.383
G1X0.000
G1A37.899Z20.000
G1X40.000
G1A39.415
G1X0.000
G1A40.931Z20.000
G1X40.000
G1A42.447
G1X0.000
G1A43.963Z20.000
G1X40.000
G1A45.479Z20.000
G1X0.000
G1A46.995Z20.000
G1X40.000
G1A48.511Z20.000
G1X0.000
G1A50.026Z20.000
G1X40.000
G1A51.542Z20.000
G1X0.000
G1A53.058Z20.000
G1X40.000
G1A54.574
G1X0.000
G1A56.090Z20.000
G1X40.000
G1A57.606
G1X0.000
G1A59.122
G1X40.000
G1A60.638Z20.000
G1X0.000
G1A62.154Z20.000
G1X40.000
G1A63.670Z20.000
G1X0.000
G1A65.186Z20.000
G1X40.000
G1A66.702Z20.000
G1X0.000
G1A68.218Z20.000
G1X40.000
G1A69.734Z20.000
G1X0.000
G1A71.250
G1X40.000
G1A72.766Z20.000
G1X0.000
G1A74.282Z20.000
G1X40.000
G1A75.798Z20.000
G1X0.000
G1A77.314Z20.000
G1X40.000
G1A78.830
G1X0.000
G1A80.345Z20.000
G1X40.000
G1A81.861
G1X0.000
G1A83.377Z20.000
G1X40.000
G1A84.893Z20.000
G1X0.000
G1A86.409Z20.000
G1X40.000
G1A87.925Z20.000
G1X0.000
G1A89.441Z20.000
G1X40.000
G1A90.957
G1X0.000
G1A92.473Z20.000
G1X40.000
G1A93.989
G1X0.000
G1A95.505Z20.000
G1X40.000
G1A97.021Z20.000
G1X0.000
G1A98.537Z20.000
G1X40.000
G1A100.053Z20.000
G1X0.000
G1A101.569Z20.000
G1X40.000
G1A103.085Z20.000
G1X0.000
G1A104.601Z20.000
G1X40.000
G1A106.117Z20.000
G1X0.000
G1A107.633Z20.000
G1X40.000
G1A109.149
G1X0.000
G1A110.665Z20.000
G1X40.000
G1A112.180Z20.000
G1X0.000
G1A113.696Z20.000
G1X40.000
G1A115.212Z20.000
G1X0.000
G1A116.728Z20.000
G1X40.000
G1A118.244
G1X0.000
G1A119.760Z20.000
G1X40.000
G1A121.276Z20.000
G1X0.000
G1A122.792Z20.000
G1X40.000
G1A124.308Z20.000
G1X0.000
G1A125.824Z20.000
G1X40.000
G1A127.340Z20.000
G1X0.000
G1A128.856
G1X40.000
G1A130.372Z20.000
G1X0.000
G1A131.888Z20.000
G1X40.000
G1A133.404
G1X0.000
G1A134.920Z20.000
G1X40.000
G1A136.436Z20.000
G1X0.000
G1A137.952
G1X40.000
G1A139.468Z20.000
G1X0.000
G1A140.984Z20.000
G1X40.000
G1A142.499
G1X0.000
G1A144.015Z20.000
G1X40.000
G1A145.531Z20.000
G1X0.000
G1A147.047Z20.000
G1X40.000
G1A148.563Z20.000
G1X0.000
G1A150.079
G1X40.000
G1A151.595Z20.000
G1X0.000
G1A153.111
G1X40.000
G1A154.627Z20.000
G1X0.000
G1A156.143Z20.000
G1X40.000
G1A157.659Z20.000
G1X0.000
G1A159.175Z20.000
G1X40.000
G1A160.691Z20.000
G1X0.000
G1A162.207
G1X40.000
G1A163.723Z20.000
G1X0.000
G1A165.239Z20.000
G1X40.000
G1A166.755Z20.000
G1X0.000
G1A168.271Z20.000
G1X40.000
G1A169.787Z20.000
G1X0.000
G1A171.303Z20.000
G1X40.000
G1A172.818Z20.000
G1X0.000
G1A174.334Z20.000
G1X40.000
G1A175.850Z20.000
G1X0.000
G1A177.366
G1X40.000
G1A178.882Z20.000
G1X0.000
G1A180.398Z20.000
G1X40.000
G1A181.914
G1X0.000
G1A183.430Z20.000
G1X40.000
G1A184.946Z20.000
G1X0.000
G1A186.462Z20.000
G1X40.000
G1A187.978Z20.000
G1X0.000
G1A189.494
G1X40.000
G1A191.010Z20.000
G1X0.000
G1A192.526
G1X40.000
G1A194.042
G1X0.000
G1A195.558
G1X40.000
G1A197.074Z20.000
G1X0.000
G1A198.590Z20.000
G1X40.000
G1A200.106Z20.000
G1X0.000
G1A201.622
G1X40.000
G1A203.138Z20.000
G1X0.000
G1A204.653Z20.000
G1X40.000
G1A206.169
G1X0.000
G1A207.685Z20.000
G1X40.000
G1A209.201Z20.000
G1X0.000
G1A210.717Z20.000
G1X40.000
G1A212.233
G1X0.000
G1A213.749
G1X40.000
G1A215.265Z20.000
G1X0.000
G1A216.781
G1X40.000
G1A218.297Z20.000
G1X0.000
G1A219.813
G1X40.000
G1A221.329Z20.000
G1X0.000
G1A222.845Z20.000
G1X40.000
G1A224.361Z20.000
G1X0.000
G1A225.877
G1X40.000
G1A227.393Z20.000
G1X0.000
G1A228.909Z20.000
G1X40.000
G1A230.425Z20.000
G1X0.000
G1A231.941Z20.000
G1X40.000
G1A233.457Z20.000
G1X0.000
G1A234.972
G1X40.000
G1A236.488Z20.000
G1X0.000
G1A238.004Z20.000
G1X40.000
G1A239.520Z20.000
G1X0.000
G1A241.036Z20.000
G1X40.000
G1A242.552Z20.000
G1X0.000
G1A244.068Z20.000
G1X40.000
G1A245.584
G1X0.000
G1A247.100Z20.000
G1X40.000
G1A248.616Z20.000
G1X0.000
G1A250.132
G1X40.000
G1A251.648Z20.000
G1X0.000
G1A253.164Z20.000
G1X40.000
G1A254.680Z20.000
G1X0.000
G1A256.196Z20.000
G1X40.000
G1A257.712
G1X0.000
G1A259.228
G1X40.000
G1A260.744Z20.000
G1X0.000
G1A262.260Z20.000
G1X40.000
G1A263.776Z20.000
G1X0.000
G1A265.291
G1X40.000
G1A266.807Z20.000
G1X0.000
G1A268.323Z20.000
G1X40.000
G1A269.839
G1X0.000
G1A271.355
G1X40.000
G1A272.871Z20.000
G1X0.000
G1A274.387Z20.000
G1X40.000
G1A275.903Z20.000
G1X0.000
G1A277.419
G1X40.000
G1A278.935Z20.000
G1X0.000
G1A280.451Z20.000
G1X40.000
G1A281.967Z20.000
G1X0.000
G1A283.483Z20.000
G1X40.000
G1A284.999Z20.000
G1X0.000
G1A286.515Z20.000
G1X40.000
G1A288.031Z20.000
G1X0.000
G1A289.547
G1X40.000
G1A291.063Z20.000
G1X0.000
G1A292.579
G1X40.000
G1A294.095
G1X0.000
G1A295.610Z20.000
G1X40.000
G1A297.126Z20.000
G1X0.000
G1A298.642Z20.000
G1X40.000
G1A300.158
G1X0.000
G1A301.674Z20.000
G1X40.000
G1A303.190Z20.000
G1X0.000
G1A304.706Z20.000
G1X40.000
G1A306.222Z20.000
G1X0.000
G1A307.738Z20.000
G1X40.000
G1A309.254
G1X0.000
G1A310.770Z20.000
G1X40.000
G1A312.286Z20.000
G1X0.000
G1A313.802Z20.000
G1X40.000
G1A315.318Z20.000
G1X0.000
G1A316.834Z20.000
G1X40.000
G1A318.350Z20.000
G1X0.000
G1A319.866Z20.000
G1X40.000
G1A321.382Z20.000
G1X0.000
G1A322.898Z20.000
G1X40.000
G1A324.414Z20.000
G1X0.000
G1A325.930Z20.000
G1X40.000
G1A327.445Z20.000
G1X0.000
G1A328.961Z20.000
G1X40.000
G1A330.477
G1X0.000
G1A331.993
G1X40.000
G1A333.509
G1X0.000
G1A335.025Z20.000
G1X40.000
G1A336.541Z20.000
G1X0.000
G1A338.057Z20.000
G1X40.000
G1A339.573Z20.000
G1X0.000
G1A341.089Z20.000
G1X40.000
G1A342.605Z20.000
G1X0.000
G1A344.121Z20.000
G1X40.000
G1A345.637
G1X0.000
G1A347.153Z20.000
G1X40.000
G1A348.669Z20.000
G1X0.000
G1A350.185Z20.000
G1X40.000
G1A351.701
G1X0.000
G1A353.217Z20.000
G1X40.000
G1A354.733Z20.000
G1X0.000
G1A356.249Z20.000
G1X40.000
G1A357.764
G1X0.000
G1A359.242Z20.000
G1X40.000
G1A360.000Z20.000
G1X0.000
G0Z30.200
M5
G0Z30.200
G0X0.000A0.000
M2
