(VECTRIC POST REVISION)
(73AEA2D9E9B67AE7697F0CF21BDB8954)
T1
G17
G21
G90
G0Z30.200
G0X0.000A0.000
S28500M3
G0X0.000A0.000Z30.200
G1Z20.000F1500.0
G1A360.000F3000.0
G1X0.794
G1A0.000
G1X1.588
G1A360.000
G1X2.381
G1A0.000
G1X3.175
G1A360.000
G1X3.969
G1A0.000
G1X4.763
G1A360.000
G1X5.556
G1A0.000
G1X6.350
G1A360.000
G1X7.144
G1A0.000
G1X7.938
G1A360.000
G1X8.731
G1A0.000
G1X9.525
G1A360.000
G1X10.319
G1A0.000
G1X11.113
G1A360.000
G1X11.906
G1A0.000
G1X12.700
G1A360.000
G1X13.494
G1A0.000
G1X14.288
G1A360.000
G1X15.081
G1A0.000
G1X15.875
G1A360.000
G1X16.669
G1A0.000
G1X17.463
G1A360.000
G1X18.256
G1A0.000
G1X19.050
G1A360.000
G1X19.844
G1A0.000
G1X20.638
G1A360.000
G1X21.431
G1A0.000
G1X22.225
G1A360.000
G1X23.019
G1A0.000
G1X23.813
G1A360.000
G1X24.606
G1A0.000
G1X25.400
G1A360.000
G1X26.194
G1A0.000
G1X26.988
G1A360.000
G1X27.781
G1A0.000
G1X28.575
G1A360.000
G1X29.369
G1A0.000
G1X30.163
G1A360.000
G1X30.956
G1A0.000
G1X31.750
G1A360.000
G1X32.544
G1A0.000
G1X33.338
G1A360.000
G1X34.131
G1A0.000
G1X34.925
G1A360.000
G1X35.719
G1A0.000
G1X36.513
G1A360.000
G1X37.306
G1A0.000
G1X38.100
G1A360.000
G1X38.894
G1A0.000
G1X39.603
G1A360.000
G1X40.000
G1A0.000
G0Z30.200
M5
G0Z30.200
G0X0.000A0.000
M2
