(VECTRIC POST REVISION)
(73AEA2D9E9B67AE7697F0CF21BDB8954)
T1
G17
G21
G90
G0Z30.200
G0X0.000A0.000
S28500M3
G0X40.000A0.000Z30.200
G1Z20.001F1500.0
G1X40.000A2.144Z20.048F3000.0
G1X38.877A0.000Z20.002
G0Z30.200
G0X40.000A4.288
G1Z20.095F1500.0
G1X37.755A0.000Z20.001F3000.0
G1X36.632Z20.001
G1X40.000A6.432Z20.141
G1A7.339Z20.178
G1A8.576Z20.260
G1X39.016A6.696Z20.147
G1X35.510A0.000Z20.001
G1X34.387Z20.001
G1X38.129A7.146Z20.166
G1X40.000A10.720Z20.403
G1A12.863Z20.545
G1X36.802A6.755Z20.149
G1X33.265A0.000Z20.002
G1X32.142Z20.002
G1X35.887A7.152Z20.166
G1X39.417A13.893Z20.622
G1X40.000A15.007Z20.749
G1A17.151Z20.993
G1X38.124A13.568Z20.593
G1X34.556A6.755Z20.149
G1X31.020A0.000Z20.001
G1X29.897Z20.001
G1X33.643A7.155Z20.166
G1X37.175A13.899Z20.623
G1X40.000A19.295Z21.238
G1A20.367Z21.373
G1A21.439Z21.552
G1X39.203A19.916Z21.310
G1X35.859A13.531Z20.591
G1X32.302A6.736Z20.149
G1X28.775A0.000Z20.001
G1X27.652Z20.001
G1X31.399A7.157Z20.167
G1X34.932A13.903Z20.623
G1X38.280A20.298Z21.363
G1X40.000A23.583Z21.909
G1A25.727Z22.266
G1X36.962A19.925Z21.311
G1X33.618A13.537Z20.591
G1X30.058A6.739Z20.149
G1X26.530A0.000Z20.002
G1X25.407Z20.002
G1X29.155A7.158Z20.167
G1X32.688A13.906Z20.624
G1X36.037A20.301Z21.363
G1X39.109A26.169Z22.351
G1X40.000A27.871Z22.733
G1A30.014Z23.215
G1X37.821A25.852Z22.288
G1X34.721A19.931Z21.312
G1X31.375A13.542Z20.591
G1X27.814A6.742Z20.149
G1X24.284A0.000Z20.002
G1X23.162Z20.001
G1X26.911A7.159Z20.167
G1X30.444A13.908Z20.624
G1X33.793A20.304Z21.364
G1X36.866A26.173Z22.352
G1X39.631A31.454Z23.550
G1X40.000A32.158Z23.754
G1A34.302Z24.378
G1X38.342A31.136Z23.469
G1X35.579A25.859Z22.289
G1X32.478A19.936Z21.312
G1X29.132A13.545Z20.592
G1X25.570A6.743Z20.149
G1X22.039A0.000Z20.001
G1X20.917Z20.001
G1X24.660A7.149Z20.166
G1X28.219A13.946Z20.628
G1X31.532A20.274Z21.359
G1X34.600A26.133Z22.343
G1X37.361A31.407Z23.537
G1X39.847A36.153Z24.926
G1X40.000A36.446Z25.033
G1A38.590Z25.815
G1X38.587A35.892Z24.842
G1X36.100A31.142Z23.470
G1X33.336A25.863Z22.289
G1X30.235A19.940Z21.313
G1X26.888A13.548Z20.592
G1X23.326A6.744Z20.149
G1X19.794A0.000Z20.001
G1X18.672Z20.002
G1X22.416A7.150Z20.166
G1X25.976A13.949Z20.629
G1X29.290A20.279Z21.360
G1X32.359A26.140Z22.344
G1X35.121A31.415Z23.539
G1X37.606A36.162Z24.930
G1X39.785A40.324Z26.458
G1X40.000A40.734Z26.641
G1A42.878Z27.601
G1X38.557A40.121Z26.375
G1X36.345A35.898Z24.843
G1X33.858A31.146Z23.471
G1X31.063A25.809Z22.281
G1X27.991A19.943Z21.313
G1X24.644A13.550Z20.592
G1X21.081A6.745Z20.149
G1X17.549A0.000Z20.002
G1X16.427Z20.001
G1X20.171A7.152Z20.166
G1X23.732A13.952Z20.629
G1X27.047A20.283Z21.361
G1X30.116A26.145Z22.345
G1X32.879A31.421Z23.541
G1X35.365A36.170Z24.933
G1X37.544A40.332Z26.462
G1X39.509A44.084Z28.137
G1X39.724A44.494Z28.240
G1X39.969A44.963Z28.275
G1X40.000A45.022Z28.273
G1A45.434Z28.230
G1A45.846Z28.127
G1A47.165Z27.545
G1X39.294A45.816Z28.138
G1X39.048A45.347Z28.246
G1X38.802A44.878Z28.274
G1X38.556A44.408Z28.225
G1X38.372A44.056Z28.127
G1X36.314A40.126Z26.377
G1X34.103A35.902Z24.845
G1X31.614A31.150Z23.472
G1X28.819A25.812Z22.281
G1X25.748A19.946Z21.313
G1X22.400A13.551Z20.592
G1X18.837A6.746Z20.149
G1X15.304A0.000Z20.001
G1X14.182Z20.001
G1X17.927A7.153Z20.166
G1X21.457A13.896Z20.623
G1X24.804A20.287Z21.361
G1X27.874A26.150Z22.346
G1X30.637A31.427Z23.543
G1X33.093A36.117Z24.914
G1X35.303A40.339Z26.465
G1X37.268A44.091Z28.140
G1X37.483A44.502Z28.241
G1X37.728A44.971Z28.275
G1X37.974A45.440Z28.230
G1X38.189A45.850Z28.127
G1X40.000A49.309Z26.584
G1A49.969Z26.311
G1A51.453Z25.769
G1X39.017A49.576Z26.466
G1X37.051A45.821Z28.137
G1X36.805A45.352Z28.245
G1X36.559A44.882Z28.274
G1X36.344A44.472Z28.236
G1X36.129A44.061Z28.129
G1X34.040A40.071Z26.357
G1X31.859A35.906Z24.846
G1X29.371A31.154Z23.473
G1X26.576A25.815Z22.282
G1X23.504A19.948Z21.314
G1X20.155A13.553Z20.592
G1X16.592A6.747Z20.149
G1X13.059A0.000Z20.001
G1X11.937Z20.001
G1X15.683A7.154Z20.167
G1X19.213A13.898Z20.623
G1X22.560A20.289Z21.361
G1X25.631A26.154Z22.347
G1X28.394A31.431Z23.544
G1X30.850A36.122Z24.916
G1X33.061A40.344Z26.467
G1X35.026A44.097Z28.142
G1X35.241A44.508Z28.242
G1X35.487A44.977Z28.275
G1X35.701A45.387Z28.239
G1X35.947A45.857Z28.125
G1X38.035A49.844Z26.358
G1X40.000A53.597Z24.987
G1A54.257Z24.773
G1A55.741Z24.341
G1X38.957A53.748Z24.933
G1X36.778A49.587Z26.461
G1X34.813A45.835Z28.132
G1X34.568A45.366Z28.243
G1X34.322A44.898Z28.275
G1X34.077A44.429Z28.229
G1X33.893A44.077Z28.134
G1X31.806A40.091Z26.365
G1X29.596A35.871Z24.835
G1X27.141A31.182Z23.479
G1X24.348A25.848Z22.287
G1X21.249A19.928Z21.312
G1X17.903A13.540Z20.591
G1X14.343A6.740Z20.149
G1X10.814A0.000Z20.002
G1X9.692Z20.002
G1X13.438A7.155Z20.166
G1X16.969A13.899Z20.623
G1X20.316A20.292Z21.362
G1X23.387A26.157Z22.348
G1X26.151A31.435Z23.545
G1X28.607A36.127Z24.917
G1X30.818A40.349Z26.469
G1X32.784A44.103Z28.144
G1X32.999A44.513Z28.243
G1X33.244A44.982Z28.274
G1X33.459A45.393Z28.238
G1X33.705A45.862Z28.123
G1X35.762A49.792Z26.377
G1X37.973A54.014Z24.845
G1X40.000A57.885Z23.718
G1A58.792Z23.465
G1A60.029Z23.187
G1X39.171A58.446Z23.556
G1X36.716A53.756Z24.930
G1X34.536A49.594Z26.458
G1X32.572A45.842Z28.130
G1X32.326A45.373Z28.241
G1X32.081A44.904Z28.275
G1X31.835A44.435Z28.230
G1X31.620A44.025Z28.115
G1X29.564A40.097Z26.367
G1X27.354A35.877Z24.837
G1X24.868A31.128Z23.467
G1X22.105A25.852Z22.288
G1X19.005A19.931Z21.312
G1X15.659A13.542Z20.591
G1X12.099A6.742Z20.149
G1X8.569A0.000Z20.001
G1X7.447Z20.001
G1X11.193A7.156Z20.167
G1X14.725A13.901Z20.623
G1X18.072A20.294Z21.362
G1X21.144A26.159Z22.349
G1X23.908A31.438Z23.546
G1X26.364A36.130Z24.919
G1X28.576A40.354Z26.471
G1X30.541A44.107Z28.145
G1X30.756A44.518Z28.244
G1X31.002A44.987Z28.275
G1X31.217A45.398Z28.238
G1X31.462A45.867Z28.121
G1X33.520A49.797Z26.375
G1X35.731A54.020Z24.843
G1X38.219A58.771Z23.471
G1X40.000A62.173Z22.704
G1A64.069Z22.286
G1A64.316Z22.245
G1X39.601A63.554Z22.394
G1X36.961A58.512Z23.537
G1X34.474A53.763Z24.928
G1X32.295A49.600Z26.455
G1X30.330A45.848Z28.128
G1X30.084A45.379Z28.240
G1X29.839A44.910Z28.275
G1X29.593A44.441Z28.231
G1X29.378A44.031Z28.117
G1X27.322A40.103Z26.369
G1X25.111A35.881Z24.838
G1X22.625A31.132Z23.468
G1X19.862A25.856Z22.288
G1X16.761A19.934Z21.312
G1X13.415A13.543Z20.592
G1X9.854A6.742Z20.149
G1X6.324A0.000Z20.001
G1X5.201Z20.001
G1X8.949A7.156Z20.167
G1X12.481A13.902Z20.623
G1X15.828A20.296Z21.362
G1X18.900A26.162Z22.349
G1X21.664A31.441Z23.547
G1X24.121A36.134Z24.920
G1X26.302A40.299Z26.447
G1X28.298A44.111Z28.146
G1X28.513A44.522Z28.244
G1X28.759A44.991Z28.274
G1X28.974A45.402Z28.237
G1X29.220A45.871Z28.120
G1X31.277A49.801Z26.374
G1X33.489A54.025Z24.842
G1X35.977A58.776Z23.470
G1X38.741A64.055Z22.290
G1X40.000A66.460Z21.888
G1A68.604Z21.531
G1X37.452A63.737Z22.353
G1X34.689A58.460Z23.552
G1X32.232A53.769Z24.925
G1X30.053A49.606Z26.452
G1X28.088A45.853Z28.126
G1X27.842A45.384Z28.240
G1X27.596A44.915Z28.275
G1X27.351A44.446Z28.232
G1X27.136A44.036Z28.119
G1X25.079A40.107Z26.370
G1X22.868A35.885Z24.839
G1X20.382A31.136Z23.469
G1X17.618A25.859Z22.289
G1X14.518A19.936Z21.312
G1X11.171A13.545Z20.592
G1X7.610A6.743Z20.149
G1X4.079A0.000Z20.002
G1X2.956Z20.002
G1X6.704A7.157Z20.167
G1X10.236A13.903Z20.623
G1X13.584A20.298Z21.363
G1X16.656A26.164Z22.350
G1X19.420A31.444Z23.548
G1X21.877A36.137Z24.921
G1X24.058A40.302Z26.449
G1X26.055A44.115Z28.148
G1X26.270A44.526Z28.245
G1X26.516A44.995Z28.274
G1X26.731A45.406Z28.236
G1X26.976A45.875Z28.118
G1X29.034A49.805Z26.372
G1X31.246A54.029Z24.840
G1X33.734A58.781Z23.469
G1X36.498A64.060Z22.289
G1X39.601A69.985Z21.312
G1X40.000A70.748Z21.224
G1A72.892Z20.979
G1X38.281A69.608Z21.365
G1X35.210A63.744Z22.352
G1X32.447A58.466Z23.550
G1X29.990A53.775Z24.923
G1X27.810A49.611Z26.450
G1X25.845A45.858Z28.124
G1X25.599A45.389Z28.239
G1X25.354A44.920Z28.275
G1X25.108A44.451Z28.233
G1X24.893A44.040Z28.121
G1X22.836A40.111Z26.372
G1X20.625A35.889Z24.841
G1X18.138A31.139Z23.469
G1X15.375A25.861Z22.289
G1X12.273A19.938Z21.312
G1X8.927A13.546Z20.592
G1X5.365A6.744Z20.149
G1X1.834A0.000Z20.001
G1X0.711Z20.001
G1X4.456A7.152Z20.166
G1X8.017A13.952Z20.629
G1X11.332A20.283Z21.361
G1X14.401A26.145Z22.345
G1X17.163A31.421Z23.541
G1X19.650A36.170Z24.933
G1X21.829A40.332Z26.462
G1X23.793A44.084Z28.137
G1X24.008A44.494Z28.240
G1X24.254A44.963Z28.275
G1X24.499A45.432Z28.232
G1X24.745A45.901Z28.109
G1X26.801A49.829Z26.363
G1X28.981A53.991Z24.852
G1X31.467A58.739Z23.478
G1X34.260A64.074Z22.286
G1X37.360A69.994Z21.311
G1X40.000A75.036Z20.734
G1A76.438Z20.586
G1A77.180Z20.537
G1X39.355A75.949Z20.631
G1X36.040A69.617Z21.363
G1X32.970A63.754Z22.350
G1X30.207A58.477Z23.546
G1X27.751A53.787Z24.919
G1X25.572A49.624Z26.444
G1X23.607A45.872Z28.119
G1X23.361A45.403Z28.237
G1X23.116A44.933Z28.275
G1X22.870A44.464Z28.235
G1X22.655A44.054Z28.126
G1X20.568A40.067Z26.356
G1X18.388A35.905Z24.845
G1X15.902A31.156Z23.473
G1X13.108A25.820Z22.283
G1X10.038A19.957Z21.315
G1X6.692A13.567Z20.593
G1X3.131A6.766Z20.149
G1X0.000A0.785Z20.019
G1A2.929Z20.066
G1X2.210A7.151Z20.166
G1X5.771A13.952Z20.629
G1X9.087A20.284Z21.361
G1X12.157A26.147Z22.346
G1X14.919A31.423Z23.542
G1X17.406A36.172Z24.934
G1X19.586A40.335Z26.463
G1X21.550A44.087Z28.138
G1X21.765A44.498Z28.241
G1X22.011A44.967Z28.275
G1X22.256A45.436Z28.231
G1X22.471A45.846Z28.128
G1X24.559A49.833Z26.361
G1X26.738A53.996Z24.850
G1X29.225A58.745Z23.477
G1X32.018A64.080Z22.285
G1X35.088A69.943Z21.317
G1X38.465A76.392Z20.590
G1X40.000A79.324Z20.394
G1A81.468Z20.252
G1X37.145A76.015Z20.624
G1X33.799A69.624Z21.362
G1X30.729A63.761Z22.348
G1X27.966A58.485Z23.544
G1X25.510A53.794Z24.916
G1X23.300A49.573Z26.467
G1X21.335A45.821Z28.137
G1X21.090A45.352Z28.245
G1X20.844A44.883Z28.274
G1X20.629A44.472Z28.237
G1X20.414A44.062Z28.129
G1X18.327A40.075Z26.359
G1X16.147A35.912Z24.848
G1X13.661A31.163Z23.475
G1X10.867A25.828Z22.284
G1X7.797A19.965Z21.316
G1X4.451A13.574Z20.594
G1X0.890A6.773Z20.149
G1X0.000A5.073Z20.112
G1A7.217Z20.171
G1X3.500A13.901Z20.623
G1X6.846A20.291Z21.362
G1X9.916A26.154Z22.348
G1X12.678A31.431Z23.544
G1X15.134A36.121Z24.915
G1X17.345A40.343Z26.466
G1X19.309A44.095Z28.141
G1X19.524A44.505Z28.242
G1X19.770A44.974Z28.275
G1X20.015A45.444Z28.229
G1X20.230A45.854Z28.126
G1X22.318A49.841Z26.359
G1X24.497A54.003Z24.848
G1X26.984A58.752Z23.475
G1X29.777A64.088Z22.284
G1X32.847A69.951Z21.316
G1X36.193A76.341Z20.594
G1X39.754A83.142Z20.149
G1X40.000A83.611Z20.139
G1A85.755Z20.092
G1X38.434A82.765Z20.167
G1X34.904A76.023Z20.623
G1X31.558A69.632Z21.361
G1X28.488A63.769Z22.346
G1X25.725A58.492Z23.542
G1X23.269A53.802Z24.913
G1X21.059A49.581Z26.464
G1X19.094A45.829Z28.134
G1X18.849A45.359Z28.244
G1X18.603A44.890Z28.274
G1X18.358A44.421Z28.227
G1X18.173A44.070Z28.132
G1X16.086A40.083Z26.361
G1X13.906A35.920Z24.850
G1X11.420A31.171Z23.477
G1X8.626A25.836Z22.285
G1X5.556A19.973Z21.317
G1X2.180A13.524Z20.590
G1X0.000A9.361Z20.314
G1A11.505Z20.456
G1X1.289A13.967Z20.631
G1X4.605A20.299Z21.363
G1X7.675A26.162Z22.349
G1X10.437A31.439Z23.546
G1X12.893A36.129Z24.918
G1X15.104A40.351Z26.470
G1X17.068A44.103Z28.144
G1X17.283A44.513Z28.243
G1X17.529A44.982Z28.274
G1X17.774A45.451Z28.228
G1X17.989A45.862Z28.123
G1X20.046A49.790Z26.378
G1X22.256A54.011Z24.845
G1X24.743A58.760Z23.473
G1X27.536A64.096Z22.283
G1X30.606A69.958Z21.315
G1X33.952A76.349Z20.593
G1X37.513A83.150Z20.149
G1X40.000A87.899Z20.045
G1A90.043Z20.002
G1X36.193A82.773Z20.166
G1X32.632A75.972Z20.628
G1X29.317A69.640Z21.359
G1X26.247A63.777Z22.344
G1X23.484A58.500Z23.540
G1X20.998A53.751Z24.932
G1X18.818A49.589Z26.460
G1X16.853A45.836Z28.132
G1X16.608A45.367Z28.242
G1X16.362A44.898Z28.275
G1X16.117A44.429Z28.229
G1X15.902A44.019Z28.112
G1X13.845A40.091Z26.364
G1X11.635A35.869Z24.835
G1X9.179A31.179Z23.478
G1X6.385A25.844Z22.287
G1X3.315A19.981Z21.318
G1X0.000A13.649Z20.599
G1A15.793Z20.839
G1X2.364A20.307Z21.364
G1X5.434A26.170Z22.351
G1X8.196A31.447Z23.549
G1X10.652A36.137Z24.921
G1X12.832A40.300Z26.447
G1X14.827A44.111Z28.146
G1X15.042A44.521Z28.244
G1X15.288A44.990Z28.275
G1X15.503A45.400Z28.237
G1X15.748A45.870Z28.120
G1X17.805A49.798Z26.375
G1X20.015A54.019Z24.843
G1X22.502A58.768Z23.472
G1X25.295A64.103Z22.281
G1X28.365A69.966Z21.314
G1X31.711A76.357Z20.593
G1X35.272A83.158Z20.149
G1X38.926A90.135Z20.004
G1X40.000A92.187Z20.049
G1A94.331Z20.096
G1X37.606A89.758Z20.005
G1X33.952A82.781Z20.165
G1X30.391A75.980Z20.627
G1X27.076A69.648Z21.358
G1X24.006A63.785Z22.343
G1X21.243A58.508Z23.538
G1X18.757A53.759Z24.929
G1X16.577A49.596Z26.457
G1X14.612A45.844Z28.129
G1X14.367A45.375Z28.241
G1X14.121A44.906Z28.275
G1X13.876A44.437Z28.230
G1X13.691A44.085Z28.137
G1X11.604A40.098Z26.367
G1X9.394A35.877Z24.837
G1X6.938A31.187Z23.480
G1X4.144A25.851Z22.288
G1X1.044A19.930Z21.312
G1X0.000A17.936Z21.084
G1A20.080Z21.329
G1X3.162A26.119Z22.340
G1X5.955A31.454Z23.551
G1X8.411A36.145Z24.924
G1X10.591A40.307Z26.451
G1X12.586A44.118Z28.149
G1X12.801A44.529Z28.245
G1X13.047A44.998Z28.274
G1X13.262A45.408Z28.236
G1X13.507A45.877Z28.118
G1X15.564A49.805Z26.372
G1X17.774A54.027Z24.841
G1X20.261A58.776Z23.470
G1X23.024A64.052Z22.290
G1X26.124A69.974Z21.313
G1X29.470A76.365Z20.592
G1X33.031A83.166Z20.149
G1X36.685A90.143Z20.005
G1X40.000A96.475Z20.142
G1A97.382Z20.181
G1A98.619Z20.263
G1X39.018A96.742Z20.149
G1X35.365A89.765Z20.005
G1X31.681A82.730Z20.168
G1X28.150A75.988Z20.626
G1X24.804A69.597Z21.367
G1X21.734A63.734Z22.354
G1X19.002A58.516Z23.535
G1X16.516A53.767Z24.926
G1X14.336A49.604Z26.453
G1X12.371A45.852Z28.126
G1X12.126A45.383Z28.240
G1X11.880A44.914Z28.275
G1X11.635A44.445Z28.232
G1X11.420A44.034Z28.119
G1X9.363A40.106Z26.370
G1X7.153A35.885Z24.839
G1X4.666A31.136Z23.468
G1X1.903A25.859Z22.289
G1X0.000A22.224Z21.684
G1A24.368Z22.041
G1X0.952A26.186Z22.355
G1X3.684A31.404Z23.536
G1X6.170A36.153Z24.927
G1X8.350A40.315Z26.455
G1X10.345A44.126Z28.152
G1X10.560A44.537Z28.247
G1X10.806A45.006Z28.274
G1X11.021A45.416Z28.234
G1X11.266A45.885Z28.114
G1X13.323A49.813Z26.369
G1X15.533A54.035Z24.839
G1X18.020A58.784Z23.468
G1X20.783A64.060Z22.289
G1X23.883A69.982Z21.312
G1X27.229A76.372Z20.592
G1X30.790A83.174Z20.149
G1X34.444A90.150Z20.005
G1X38.127A97.186Z20.169
G1X40.000A100.762Z20.405
G1A102.906Z20.548
G1X36.777A96.750Z20.149
G1X33.124A89.773Z20.005
G1X29.440A82.738Z20.168
G1X25.909A75.995Z20.625
G1X22.563A69.605Z21.365
G1X19.493A63.742Z22.352
G1X16.731A58.465Z23.550
G1X14.275A53.775Z24.923
G1X12.095A49.612Z26.449
G1X10.130A45.860Z28.124
G1X9.885A45.391Z28.239
G1X9.639A44.922Z28.275
G1X9.394A44.453Z28.233
G1X9.179A44.042Z28.121
G1X7.122A40.114Z26.373
G1X4.912A35.893Z24.842
G1X2.425A31.144Z23.471
G1X0.000A26.512Z22.428
G1A28.656Z22.911
G1X1.443A31.411Z23.538
G1X3.929A36.160Z24.929
G1X6.109A40.323Z26.458
G1X8.104A44.134Z28.154
G1X8.319A44.544Z28.248
G1X8.565A45.013Z28.274
G1X8.780A45.424Z28.233
G1X9.025A45.893Z28.112
G1X11.082A49.821Z26.366
G1X13.292A54.042Z24.837
G1X15.748A58.733Z23.479
G1X18.542A64.068Z22.287
G1X21.642A69.990Z21.311
G1X24.988A76.380Z20.591
G1X28.550A83.181Z20.148
G1X32.203A90.158Z20.005
G1X35.856A97.135Z20.165
G1X39.417A103.936Z20.627
G1X40.000A105.050Z20.753
G1A107.194Z20.998
G1X38.097A103.559Z20.593
G1X34.536A96.758Z20.149
G1X30.852A89.722Z20.006
G1X27.199A82.746Z20.168
G1X23.668A76.003Z20.625
G1X20.322A69.612Z21.364
G1X17.252A63.750Z22.351
G1X14.490A58.473Z23.548
G1X12.034A53.782Z24.920
G1X9.854A49.620Z26.446
G1X7.889A45.867Z28.121
G1X7.644A45.398Z28.237
G1X7.398A44.929Z28.275
G1X7.153A44.460Z28.234
G1X6.938A44.050Z28.125
G1X4.881A40.122Z26.375
G1X2.671A35.900Z24.844
G1X0.184A31.151Z23.472
G1X0.000A30.800Z23.393
G1A31.542Z23.576
G1A32.944Z23.984
G1X1.688A36.168Z24.933
G1X3.868A40.331Z26.462
G1X5.833A44.083Z28.137
G1X6.048A44.494Z28.240
G1X6.293A44.963Z28.275
G1X6.539A45.432Z28.231
G1X6.754A45.842Z28.129
G1X8.841A49.829Z26.363
G1X11.021A53.992Z24.851
G1X13.507A58.741Z23.478
G1X16.301A64.076Z22.286
G1X19.371A69.939Z21.317
G1X22.748A76.388Z20.591
G1X26.309A83.189Z20.148
G1X29.962A90.166Z20.005
G1X33.615A97.143Z20.166
G1X37.176A103.944Z20.628
G1X40.000A109.338Z21.243
G1A110.327Z21.367
G1A111.482Z21.559
G1X39.171A109.899Z21.308
G1X35.856A103.567Z20.593
G1X32.295A96.766Z20.149
G1X28.611A89.730Z20.005
G1X24.958A82.753Z20.167
G1X21.427A76.011Z20.624
G1X18.081A69.620Z21.363
G1X15.012A63.757Z22.349
G1X12.249A58.481Z23.545
G1X9.793A53.790Z24.917
G1X7.583A49.569Z26.469
G1X5.649A45.875Z28.118
G1X5.403A45.406Z28.236
G1X5.157A44.937Z28.275
G1X4.912A44.468Z28.236
G1X4.697A44.058Z28.128
G1X2.609A40.071Z26.357
G1X0.430A35.908Z24.847
G1X0.000A35.087Z24.608
G1A36.159Z24.929
G1A37.231Z25.320
G1X1.627A40.339Z26.464
G1X3.592A44.091Z28.139
G1X3.807A44.501Z28.241
G1X4.052A44.970Z28.275
G1X4.298A45.439Z28.230
G1X4.513A45.850Z28.127
G1X6.600A49.837Z26.361
G1X8.780A53.999Z24.849
G1X11.266A58.748Z23.476
G1X14.060A64.084Z22.285
G1X17.130A69.947Z21.316
G1X20.507A76.396Z20.590
G1X24.037A83.138Z20.149
G1X27.721A90.174Z20.005
G1X31.374A97.151Z20.166
G1X34.935A103.952Z20.629
G1X38.250A110.284Z21.361
G1X40.000A113.626Z21.916
G1A115.770Z22.273
G1X36.961A109.965Z21.316
G1X33.615A103.575Z20.594
G1X30.054A96.774Z20.150
G1X26.370A89.738Z20.005
G1X22.717A82.761Z20.167
G1X19.186A76.019Z20.623
G1X15.840A69.628Z21.361
G1X12.771A63.765Z22.347
G1X10.008A58.488Z23.543
G1X7.552A53.798Z24.914
G1X5.342A49.577Z26.466
G1X3.377A45.824Z28.136
G1X3.131A45.355Z28.244
G1X2.886A44.886Z28.274
G1X2.640A44.417Z28.227
G1X2.456A44.066Z28.130
G1X0.368A40.079Z26.360
G1X0.000A39.375Z26.103
G1A40.365Z26.477
G1A41.519Z26.994
G1X1.351A44.099Z28.142
G1X1.566A44.509Z28.243
G1X1.811A44.978Z28.275
G1X2.057A45.447Z28.229
G1X2.272A45.858Z28.124
G1X4.359A49.844Z26.358
G1X6.539A54.007Z24.846
G1X9.025A58.756Z23.474
G1X11.819A64.091Z22.283
G1X14.889A69.954Z21.316
G1X18.235A76.345Z20.593
G1X21.796A83.146Z20.149
G1X25.480A90.182Z20.005
G1X29.133A97.159Z20.167
G1X32.663A103.901Z20.623
G1X36.009A110.292Z21.362
G1X39.079A116.155Z22.348
G1X40.000A117.913Z22.742
G1A120.057Z23.225
G1X37.790A115.836Z22.285
G1X34.720A109.973Z21.316
G1X31.343A103.524Z20.590
G1X27.813A96.781Z20.150
G1X24.129A89.746Z20.005
G1X20.476A82.769Z20.166
G1X16.915A75.968Z20.629
G1X13.599A69.636Z21.360
G1X10.530A63.773Z22.345
G1X7.767A58.496Z23.541
G1X5.280A53.747Z24.933
G1X3.101A49.585Z26.462
G1X1.136A45.832Z28.133
G1X0.890A45.363Z28.243
G1X0.645A44.894Z28.275
G1X0.430A44.484Z28.239
G1X0.215A44.073Z28.133
G1X0.000A43.663Z27.954
G1A44.158Z28.162
G1A44.570Z28.251
G1A44.982Z28.275
G1A45.395Z28.238
G1A45.807Z28.141
G1X0.614A46.979Z27.630
G1X2.087A49.794Z26.376
G1X4.298A54.015Z24.845
G1X6.784A58.764Z23.472
G1X9.578A64.099Z22.282
G1X12.648A69.962Z21.315
G1X15.994A76.353Z20.593
G1X19.555A83.154Z20.149
G1X23.239A90.189Z20.005
G1X26.892A97.166Z20.167
G1X30.422A103.909Z20.624
G1X33.768A110.299Z21.363
G1X36.838A116.162Z22.349
G1X39.601A121.439Z23.546
G1X40.000A122.201Z23.767
G1A124.345Z24.390
G1X38.342A121.179Z23.478
G1X35.549A115.844Z22.286
G1X32.448A109.922Z21.311
G1X29.102A103.532Z20.591
G1X25.541A96.731Z20.148
G1X21.888A89.754Z20.005
G1X18.235A82.777Z20.166
G1X14.674A75.976Z20.628
G1X11.358A69.644Z21.358
G1X8.289A63.781Z22.344
G1X5.526A58.504Z23.539
G1X3.039A53.755Z24.931
G1X0.860A49.592Z26.459
G1X0.000A47.951Z27.194
G1A49.847Z26.357
G1A50.095Z26.267
G1X2.057A54.023Z24.842
G1X4.543A58.772Z23.471
G1X7.306A64.048Z22.291
G1X10.407A69.970Z21.314
G1X13.753A76.361Z20.592
G1X17.314A83.162Z20.149
G1X20.998A90.197Z20.005
G1X24.651A97.174Z20.168
G1X28.181A103.917Z20.625
G1X31.527A110.307Z21.365
G1X34.597A116.170Z22.351
G1X37.360A121.447Z23.549
G1X39.816A126.137Z24.921
G1X40.000A126.489Z25.048
G1A128.633Z25.831
G1X38.557A125.877Z24.837
G1X36.071A121.128Z23.467
G1X33.308A115.852Z22.288
G1X30.207A109.930Z21.312
G1X26.861A103.539Z20.591
G1X23.300A96.738Z20.148
G1X19.647A89.761Z20.005
G1X15.963A82.726Z20.169
G1X12.433A75.983Z20.627
G1X9.117A69.651Z21.357
G1X6.048A63.788Z22.342
G1X3.285A58.512Z23.536
G1X0.798A53.763Z24.928
G1X0.000A52.238Z25.484
G1A54.053Z24.834
G1A54.382Z24.738
G1X2.302A58.780Z23.469
G1X5.065A64.056Z22.289
G1X8.166A69.978Z21.313
G1X11.512A76.368Z20.592
G1X15.073A83.169Z20.149
G1X18.726A90.146Z20.005
G1X22.410A97.182Z20.168
G1X25.940A103.924Z20.626
G1X29.286A110.315Z21.366
G1X32.325A116.119Z22.340
G1X35.119A121.455Z23.551
G1X37.575A126.145Z24.924
G1X39.754A130.308Z26.451
G1X40.000A130.777Z26.660
G1A132.921Z27.621
G1X38.526A130.106Z26.370
G1X36.316A125.885Z24.840
G1X33.830A121.136Z23.469
G1X31.067A115.859Z22.289
G1X27.966A109.938Z21.313
G1X24.620A103.547Z20.592
G1X21.059A96.746Z20.149
G1X17.406A89.769Z20.005
G1X13.722A82.734Z20.168
G1X10.192A75.991Z20.626
G1X6.846A69.601Z21.366
G1X3.807A63.796Z22.340
G1X1.013A58.461Z23.551
G1X0.000A56.526Z24.114
G1A58.670Z23.494
G1X2.824A64.064Z22.288
G1X5.925A69.986Z21.312
G1X9.271A76.376Z20.591
G1X12.832A83.177Z20.148
G1X16.485A90.154Z20.005
G1X20.169A97.190Z20.169
G1X23.699A103.932Z20.627
G1X27.045A110.323Z21.367
G1X30.084A116.127Z22.342
G1X32.847A121.404Z23.536
G1X35.334A126.153Z24.927
G1X37.513A130.315Z26.454
G1X39.478A134.068Z28.127
G1X39.724A134.537Z28.240
G1X39.969A135.006Z28.275
G1X40.000A135.064Z28.273
G1A135.477Z28.230
G1A135.889Z28.115
G1A137.208Z27.526
G1X39.263A135.801Z28.148
G1X39.048A135.391Z28.245
G1X38.803A134.922Z28.274
G1X38.557A134.453Z28.225
G1X38.342A134.042Z28.118
G1X36.285A130.114Z26.373
G1X34.075A125.893Z24.842
G1X31.589A121.144Z23.470
G1X28.826A115.867Z22.290
G1X25.725A109.946Z21.314
G1X22.379A103.555Z20.592
G1X18.818A96.754Z20.149
G1X15.134A89.718Z20.006
G1X11.481A82.741Z20.168
G1X7.951A75.999Z20.625
G1X4.605A69.608Z21.365
G1X1.535A63.745Z22.351
G1X0.000A60.814Z23.011
G1A62.958Z22.529
G1X0.614A64.130Z22.277
G1X3.684A69.993Z21.311
G1X7.030A76.384Z20.591
G1X10.591A83.185Z20.148
G1X14.244A90.162Z20.005
G1X17.897A97.139Z20.166
G1X21.458A103.940Z20.628
G1X24.774A110.272Z21.358
G1X27.843A116.135Z22.343
G1X30.606A121.412Z23.538
G1X33.093A126.161Z24.930
G1X35.272A130.323Z26.458
G1X37.237A134.076Z28.130
G1X37.483A134.545Z28.242
G1X37.728A135.014Z28.275
G1X37.974A135.483Z28.230
G1X38.189A135.893Z28.114
G1X40.000A139.352Z26.565
G1A139.929Z26.325
G1A141.496Z25.754
G1X38.987A139.561Z26.472
G1X37.022A135.809Z28.145
G1X36.807A135.399Z28.244
G1X36.562A134.930Z28.275
G1X36.347A134.519Z28.238
G1X36.101A134.050Z28.121
G1X34.045A130.122Z26.376
G1X31.834A125.901Z24.844
G1X29.348A121.152Z23.472
G1X26.554A115.816Z22.282
G1X23.484A109.953Z21.314
G1X20.138A103.563Z20.593
G1X16.577A96.762Z20.149
G1X12.893A89.726Z20.006
G1X9.240A82.749Z20.167
G1X5.710A76.007Z20.624
G1X2.364A69.616Z21.363
G1X0.000A65.102Z22.115
G1A67.246Z21.758
G1X1.443A70.001Z21.310
G1X4.789A76.392Z20.591
G1X8.319A83.134Z20.150
G1X12.003A90.170Z20.005
G1X15.656A97.147Z20.166
G1X19.217A103.948Z20.628
G1X22.533A110.280Z21.360
G1X25.602A116.143Z22.345
G1X28.365A121.419Z23.541
G1X30.852A126.168Z24.933
G1X33.031A130.331Z26.461
G1X34.996A134.083Z28.133
G1X35.242A134.552Z28.243
G1X35.487A135.021Z28.275
G1X35.702A135.432Z28.239
G1X35.917A135.842Z28.134
G1X38.005A139.829Z26.364
G1X40.000A143.640Z24.971
G1A144.300Z24.760
G1A145.784Z24.329
G1X38.956A143.790Z24.918
G1X36.746A139.569Z26.469
G1X34.781A135.817Z28.143
G1X34.566A135.406Z28.243
G1X34.321A134.937Z28.275
G1X34.075A134.468Z28.228
G1X33.860A134.058Z28.124
G1X31.773A130.071Z26.357
G1X29.593A125.908Z24.846
G1X27.107A121.159Z23.474
G1X24.313A115.824Z22.283
G1X21.243A109.961Z21.315
G1X17.897A103.571Z20.593
G1X14.336A96.770Z20.149
G1X10.652A89.734Z20.005
G1X6.999A82.757Z20.167
G1X3.469A76.015Z20.624
G1X0.123A69.624Z21.362
G1X0.000A69.389Z21.401
G1A70.132Z21.295
G1A71.533Z21.135
G1X2.548A76.400Z20.590
G1X6.078A83.142Z20.150
G1X9.762A90.178Z20.005
G1X13.415A97.154Z20.167
G1X16.946A103.897Z20.623
G1X20.292A110.288Z21.361
G1X23.361A116.150Z22.347
G1X26.124A121.427Z23.542
G1X28.580A126.118Z24.914
G1X30.790A130.339Z26.465
G1X32.755A134.091Z28.135
G1X33.001A134.560Z28.244
G1X33.246A135.029Z28.274
G1X33.461A135.440Z28.237
G1X33.676A135.850Z28.131
G1X35.764A139.837Z26.360
G1X37.943A144.000Z24.849
G1X40.000A147.928Z23.705
G1A148.835Z23.455
G1A150.072Z23.177
G1X39.140A148.430Z23.560
G1X36.715A143.798Z24.915
G1X34.505A139.577Z26.465
G1X32.540A135.825Z28.140
G1X32.325A135.414Z28.241
G1X32.080A134.945Z28.275
G1X31.834A134.476Z28.230
G1X31.619A134.066Z28.127
G1X29.532A130.079Z26.360
G1X27.352A125.916Z24.849
G1X24.866A121.167Z23.475
G1X22.072A115.832Z22.284
G1X19.002A109.969Z21.316
G1X15.656A103.578Z20.594
G1X12.095A96.777Z20.149
G1X8.411A89.742Z20.005
G1X4.758A82.765Z20.166
G1X1.197A75.964Z20.629
G1X0.000A73.677Z20.890
G1A75.821Z20.646
G1X0.460A76.701Z20.570
G1X3.837A83.150Z20.149
G1X7.521A90.185Z20.005
G1X11.174A97.162Z20.167
G1X14.705A103.905Z20.624
G1X18.051A110.295Z21.362
G1X21.120A116.158Z22.348
G1X23.883A121.435Z23.545
G1X26.339A126.125Z24.917
G1X28.550A130.347Z26.469
G1X30.514A134.099Z28.137
G1X30.760A134.568Z28.245
G1X31.005A135.037Z28.274
G1X31.220A135.447Z28.236
G1X31.435A135.858Z28.128
G1X33.523A139.845Z26.358
G1X35.702A144.007Z24.847
G1X38.189A148.756Z23.474
G1X40.000A152.215Z22.695
G1A154.112Z22.279
G1A154.359Z22.238
G1X39.601A153.597Z22.385
G1X36.930A148.496Z23.541
G1X34.444A143.747Z24.933
G1X32.264A139.585Z26.462
G1X30.299A135.832Z28.137
G1X30.084A135.422Z28.240
G1X29.839A134.953Z28.275
G1X29.593A134.484Z28.231
G1X29.378A134.074Z28.129
G1X27.291A130.087Z26.363
G1X25.111A125.924Z24.851
G1X22.625A121.175Z23.478
G1X19.831A115.840Z22.286
G1X16.761A109.977Z21.317
G1X13.384A103.527Z20.591
G1X9.823A96.726Z20.148
G1X6.170A89.750Z20.005
G1X2.517A82.773Z20.166
G1X0.000A77.965Z20.486
G1A80.109Z20.343
G1X1.596A83.158Z20.149
G1X5.280A90.193Z20.005
G1X8.933A97.170Z20.168
G1X12.464A103.912Z20.625
G1X15.810A110.303Z21.364
G1X18.880A116.166Z22.350
G1X21.642A121.443Z23.547
G1X24.098A126.133Z24.920
G1X26.278A130.296Z26.446
G1X28.243A134.048Z28.120
G1X28.488A134.517Z28.237
G1X28.734A134.986Z28.275
G1X28.979A135.455Z28.235
G1X29.194A135.866Z28.125
G1X31.251A139.794Z26.376
G1X33.461A144.015Z24.844
G1X35.948A148.764Z23.473
G1X38.741A154.099Z22.282
G1X40.000A156.503Z21.881
G1A158.647Z21.524
G1X37.452A153.781Z22.343
G1X34.689A148.504Z23.539
G1X32.203A143.755Z24.930
G1X30.023A139.592Z26.459
G1X28.028A135.782Z28.155
G1X27.813A135.371Z28.248
G1X27.567A134.902Z28.274
G1X27.352A134.492Z28.233
G1X27.107A134.023Z28.111
G1X25.050A130.095Z26.365
G1X22.840A125.873Z24.836
G1X20.384A121.183Z23.479
G1X17.590A115.848Z22.287
G1X14.490A109.926Z21.311
G1X11.144A103.535Z20.591
G1X7.583A96.734Z20.148
G1X3.929A89.757Z20.005
G1X0.276A82.780Z20.165
G1X0.000A82.253Z20.201
G1A83.325Z20.146
G1A84.397Z20.122
G1X3.008A90.142Z20.005
G1X6.692A97.178Z20.168
G1X10.223A103.920Z20.625
G1X13.569A110.311Z21.365
G1X16.639A116.174Z22.352
G1X19.401A121.451Z23.550
G1X21.857A126.141Z24.923
G1X24.037A130.304Z26.449
G1X26.002A134.056Z28.123
G1X26.247A134.525Z28.238
G1X26.493A134.994Z28.275
G1X26.738A135.463Z28.233
G1X26.953A135.873Z28.122
G1X29.010A139.802Z26.373
G1X31.220A144.023Z24.842
G1X33.707A148.772Z23.471
G1X36.500A154.107Z22.281
G1X39.570A159.970Z21.314
G1X40.000A160.791Z21.219
G1A162.935Z20.974
G1X38.250A159.593Z21.367
G1X35.211A153.789Z22.342
G1X32.448A148.512Z23.536
G1X29.962A143.763Z24.927
G1X27.782A139.600Z26.455
G1X25.787A135.789Z28.152
G1X25.572A135.379Z28.247
G1X25.326A134.910Z28.274
G1X25.111A134.500Z28.234
G1X24.866A134.030Z28.114
G1X22.809A130.102Z26.368
G1X20.599A125.881Z24.839
G1X18.112A121.132Z23.468
G1X15.349A115.855Z22.288
G1X12.249A109.934Z21.312
G1X8.903A103.543Z20.592
G1X5.342A96.742Z20.149
G1X1.688A89.765Z20.005
G1X0.000A86.541Z20.075
G1A88.684Z20.029
G1X0.798A90.209Z20.006
G1X4.451A97.186Z20.168
G1X7.982A103.928Z20.626
G1X11.328A110.319Z21.367
G1X14.398A116.182Z22.353
G1X17.130A121.400Z23.535
G1X19.616A126.149Z24.926
G1X21.796A130.311Z26.453
G1X23.761A134.064Z28.126
G1X24.006A134.533Z28.240
G1X24.252A135.002Z28.275
G1X24.497A135.471Z28.232
G1X24.712A135.881Z28.119
G1X26.769A139.809Z26.370
G1X28.979A144.031Z24.840
G1X31.466A148.780Z23.469
G1X34.229A154.056Z22.289
G1X37.329A159.978Z21.312
G1X40.000A165.079Z20.729
G1A166.398Z20.589
G1A167.223Z20.534
G1X39.325A165.933Z20.632
G1X36.009A159.601Z21.366
G1X32.970A153.796Z22.340
G1X30.177A148.461Z23.551
G1X27.721A143.771Z24.924
G1X25.541A139.608Z26.452
G1X23.546A135.797Z28.150
G1X23.331A135.387Z28.246
G1X23.085A134.918Z28.274
G1X22.870A134.507Z28.235
G1X22.625A134.038Z28.117
G1X20.568A130.110Z26.371
G1X18.358A125.889Z24.841
G1X15.871A121.140Z23.469
G1X13.108A115.863Z22.290
G1X10.008A109.942Z21.313
G1X6.662A103.551Z20.592
G1X3.101A96.750Z20.149
G1X0.000A90.828Z20.020
G1A92.972Z20.067
G1X2.180A97.135Z20.165
G1X5.741A103.936Z20.627
G1X9.056A110.268Z21.357
G1X12.126A116.131Z22.342
G1X14.889A121.407Z23.537
G1X17.375A126.157Z24.929
G1X19.555A130.319Z26.456
G1X21.520A134.071Z28.128
G1X21.765A134.541Z28.241
G1X22.011A135.010Z28.275
G1X22.256A135.479Z28.230
G1X22.471A135.889Z28.116
G1X24.528A139.817Z26.368
G1X26.738A144.039Z24.838
G1X29.225A148.788Z23.467
G1X31.988A154.064Z22.288
G1X35.088A159.986Z21.312
G1X38.434A166.376Z20.592
G1X40.000A169.367Z20.391
G1A171.510Z20.249
G1X37.114A165.999Z20.625
G1X33.768A159.609Z21.364
G1X30.698A153.746Z22.352
G1X27.936A148.469Z23.549
G1X25.480A143.779Z24.922
G1X23.300A139.616Z26.448
G1X21.305A135.805Z28.147
G1X21.090A135.395Z28.244
G1X20.844A134.926Z28.274
G1X20.629A134.515Z28.237
G1X20.384A134.046Z28.120
G1X18.327A130.118Z26.374
G1X16.117A125.897Z24.843
G1X13.630A121.148Z23.471
G1X10.837A115.812Z22.281
G1X7.767A109.949Z21.314
G1X4.421A103.559Z20.593
G1X0.860A96.758Z20.149
G1X0.000A95.116Z20.113
G1A97.177Z20.168
G1A97.260Z20.174
G1X3.500A103.944Z20.628
G1X6.815A110.276Z21.359
G1X9.885A116.139Z22.344
G1X12.648A121.415Z23.539
G1X15.134A126.164Z24.931
G1X17.314A130.327Z26.460
G1X19.279A134.079Z28.131
G1X19.524A134.548Z28.242
G1X19.770A135.017Z28.275
G1X20.015A135.486Z28.229
G1X20.230A135.897Z28.113
G1X22.287A139.825Z26.365
G1X24.497A144.046Z24.835
G1X26.953A148.737Z23.478
G1X29.747A154.072Z22.287
G1X32.817A159.935Z21.318
G1X36.193A166.384Z20.591
G1X39.754A173.185Z20.149
G1X40.000A173.654Z20.138
G1A175.798Z20.091
G1X38.404A172.749Z20.167
G1X34.873A166.007Z20.624
G1X31.527A159.616Z21.363
G1X28.457A153.753Z22.350
G1X25.695A148.477Z23.547
G1X23.239A143.786Z24.919
G1X21.028A139.565Z26.471
G1X19.064A135.813Z28.144
G1X18.849A135.402Z28.243
G1X18.603A134.933Z28.274
G1X18.358A134.464Z28.228
G1X18.143A134.054Z28.122
G1X16.086A130.126Z26.377
G1X13.876A125.904Z24.845
G1X11.389A121.155Z23.473
G1X8.596A115.820Z22.282
G1X5.526A109.957Z21.315
G1X2.180A103.566Z20.593
G1X0.000A99.404Z20.316
G1A101.548Z20.459
G1X1.259A103.951Z20.629
G1X4.574A110.283Z21.360
G1X7.644A116.146Z22.346
G1X10.407A121.423Z23.541
G1X12.863A126.113Z24.912
G1X15.073A130.335Z26.463
G1X17.038A134.087Z28.134
G1X17.283A134.556Z28.243
G1X17.529A135.025Z28.274
G1X17.774A135.494Z28.228
G1X17.959A135.846Z28.132
G1X20.046A139.833Z26.362
G1X22.256A144.054Z24.833
G1X24.712A148.744Z23.477
G1X27.506A154.080Z22.285
G1X30.576A159.943Z21.317
G1X33.952A166.392Z20.590
G1X37.483A173.134Z20.150
G1X40.000A177.942Z20.044
G1A180.086Z20.003
G1X36.163A172.757Z20.167
G1X32.632A166.015Z20.623
G1X29.286A159.624Z21.362
G1X26.216A153.761Z22.348
G1X23.454A148.485Z23.545
G1X20.998A143.794Z24.916
G1X18.787A139.573Z26.467
G1X16.823A135.821Z28.141
G1X16.608A135.410Z28.242
G1X16.362A134.941Z28.275
G1X16.117A134.472Z28.229
G1X15.902A134.062Z28.125
G1X13.814A130.075Z26.359
G1X11.635A125.912Z24.847
G1X9.148A121.163Z23.475
G1X6.355A115.828Z22.284
G1X3.285A109.965Z21.316
G1X0.000A103.692Z20.602
G1A105.835Z20.844
G1X2.333A110.291Z21.362
G1X5.403A116.154Z22.348
G1X8.166A121.431Z23.544
G1X10.622A126.121Z24.915
G1X12.832A130.343Z26.467
G1X14.797A134.095Z28.136
G1X15.042A134.564Z28.244
G1X15.288A135.033Z28.274
G1X15.503A135.443Z28.237
G1X15.718A135.854Z28.130
G1X17.805A139.841Z26.359
G1X19.985A144.003Z24.848
G1X22.471A148.752Z23.475
G1X25.265A154.088Z22.284
G1X28.335A159.951Z21.316
G1X31.681A166.341Z20.594
G1X35.242A173.142Z20.149
G1X38.926A180.178Z20.005
G1X40.000A182.230Z20.050
G1A184.374Z20.096
G1X37.575A179.742Z20.005
G1X33.922A172.765Z20.166
G1X30.361A165.964Z20.629
G1X27.045A159.632Z21.361
G1X23.975A153.769Z22.346
G1X21.213A148.492Z23.542
G1X18.726A143.743Z24.935
G1X16.546A139.581Z26.464
G1X14.582A135.828Z28.139
G1X14.367A135.418Z28.241
G1X14.121A134.949Z28.275
G1X13.876A134.480Z28.230
G1X13.661A134.069Z28.128
G1X11.573A130.083Z26.361
G1X9.394A125.920Z24.850
G1X6.907A121.171Z23.477
G1X4.114A115.836Z22.285
G1X1.044A109.973Z21.317
G1X0.000A107.979Z21.089
G1A110.123Z21.334
G1X3.162A116.162Z22.349
G1X5.925A121.439Z23.546
G1X8.381A126.129Z24.918
G1X10.560A130.292Z26.444
G1X12.525A134.044Z28.119
G1X12.771A134.513Z28.237
G1X13.016A134.982Z28.275
G1X13.262A135.451Z28.235
G1X13.477A135.862Z28.127
G1X15.564A139.848Z26.356
G1X17.744A144.011Z24.846
G1X20.230A148.760Z23.474
G1X23.024A154.095Z22.283
G1X26.094A159.958Z21.315
G1X29.440A166.349Z20.593
G1X33.001A173.150Z20.149
G1X36.685A180.186Z20.006
G1X40.000A186.518Z20.143
G1A187.425Z20.183
G1A188.661Z20.266
G1X38.987A186.727Z20.148
G1X35.334A179.750Z20.005
G1X31.681A172.773Z20.166
G1X28.120A165.972Z20.628
G1X24.804A159.640Z21.360
G1X21.734A153.777Z22.344
G1X18.972A148.500Z23.540
G1X16.485A143.751Z24.931
G1X14.305A139.588Z26.460
G1X12.310A135.778Z28.156
G1X12.095A135.367Z28.248
G1X11.850A134.898Z28.274
G1X11.635A134.488Z28.232
G1X11.389A134.019Z28.110
G1X9.332A130.090Z26.364
G1X7.153A125.928Z24.852
G1X4.666A121.179Z23.478
G1X1.873A115.843Z22.286
G1X0.000A112.267Z21.691
G1A114.411Z22.048
G1X0.921A116.170Z22.351
G1X3.684A121.446Z23.548
G1X6.140A126.137Z24.921
G1X8.319A130.300Z26.447
G1X10.284A134.052Z28.122
G1X10.530A134.521Z28.238
G1X10.775A134.990Z28.275
G1X11.021A135.459Z28.234
G1X11.236A135.869Z28.124
G1X13.292A139.798Z26.375
G1X15.503A144.019Z24.844
G1X17.989A148.768Z23.472
G1X20.783A154.103Z22.281
G1X23.853A159.966Z21.314
G1X27.199A166.357Z20.593
G1X30.760A173.158Z20.149
G1X34.413A180.135Z20.004
G1X38.097A187.170Z20.168
G1X40.000A190.805Z20.408
G1A192.949Z20.551
G1X36.746A186.734Z20.149
G1X33.093A179.758Z20.005
G1X29.440A172.781Z20.165
G1X25.879A165.980Z20.628
G1X22.563A159.648Z21.358
G1X19.493A153.785Z22.343
G1X16.731A148.508Z23.538
G1X14.244A143.759Z24.929
G1X12.064A139.596Z26.457
G1X10.069A135.785Z28.153
G1X9.854A135.375Z28.247
G1X9.609A134.906Z28.274
G1X9.394A134.495Z28.233
G1X9.148A134.026Z28.113
G1X7.091A130.098Z26.367
G1X4.881A125.877Z24.837
G1X2.394A121.128Z23.467
G1X0.000A116.555Z22.438
G1A118.699Z22.920
G1X1.443A121.454Z23.551
G1X3.899A126.145Z24.924
G1X6.078A130.307Z26.451
G1X8.043A134.060Z28.125
G1X8.289A134.529Z28.239
G1X8.534A134.998Z28.275
G1X8.780A135.467Z28.233
G1X8.995A135.877Z28.121
G1X11.051A139.805Z26.372
G1X13.262A144.027Z24.841
G1X15.748A148.776Z23.470
G1X18.511A154.052Z22.290
G1X21.612A159.974Z21.313
G1X24.958A166.365Z20.592
G1X28.519A173.166Z20.149
G1X32.172A180.143Z20.004
G1X35.856A187.178Z20.168
G1X39.386A193.920Z20.626
G1X40.000A195.093Z20.758
G1A197.237Z21.003
G1X38.066A193.543Z20.591
G1X34.505A186.742Z20.149
G1X30.852A179.765Z20.005
G1X27.199A172.788Z20.165
G1X23.638A165.987Z20.627
G1X20.292A159.597Z21.367
G1X17.252A153.792Z22.341
G1X14.490A148.516Z23.535
G1X12.003A143.767Z24.926
G1X9.823A139.604Z26.454
G1X7.828A135.793Z28.151
G1X7.613A135.383Z28.246
G1X7.368A134.914Z28.274
G1X7.153A134.503Z28.235
G1X6.907A134.034Z28.116
G1X4.850A130.106Z26.370
G1X2.640A125.885Z24.840
G1X0.153A121.136Z23.468
G1X0.000A120.843Z23.403
G1A121.585Z23.589
G1A122.986Z23.997
G1X1.658A126.152Z24.927
G1X3.837A130.315Z26.454
G1X5.802A134.067Z28.127
G1X6.048A134.536Z28.240
G1X6.293A135.005Z28.275
G1X6.539A135.475Z28.231
G1X6.754A135.885Z28.117
G1X8.810A139.813Z26.369
G1X11.021A144.034Z24.839
G1X13.507A148.783Z23.468
G1X16.270A154.060Z22.288
G1X19.371A159.982Z21.312
G1X22.717A166.372Z20.592
G1X26.278A173.173Z20.149
G1X29.931A180.150Z20.005
G1X33.584A187.127Z20.165
G1X37.145A193.928Z20.626
G1X40.000A199.381Z21.248
G1A200.370Z21.374
G1A201.525Z21.566
G1X39.171A199.942Z21.313
G1X35.825A193.551Z20.592
G1X32.264A186.750Z20.149
G1X28.611A179.773Z20.004
G1X24.927A172.738Z20.168
G1X21.397A165.995Z20.626
G1X18.051A159.605Z21.365
G1X15.012A153.800Z22.339
G1X12.218A148.465Z23.550
G1X9.762A143.775Z24.923
G1X7.583A139.612Z26.450
G1X5.587A135.801Z28.148
G1X5.372A135.390Z28.245
G1X5.127A134.921Z28.274
G1X4.912A134.511Z28.236
G1X4.666A134.042Z28.118
G1X2.609A130.114Z26.373
G1X0.399A125.893Z24.842
G1X0.000A125.130Z24.620
G1A126.202Z24.945
G1A127.274Z25.336
G1X1.596A130.323Z26.458
G1X3.561A134.075Z28.130
G1X3.807A134.544Z28.241
G1X4.052A135.013Z28.275
G1X4.298A135.482Z28.230
G1X4.513A135.893Z28.115
G1X6.569A139.821Z26.366
G1X8.780A144.042Z24.837
G1X11.266A148.791Z23.466
G1X14.029A154.068Z22.287
G1X17.130A159.990Z21.311
G1X20.476A166.380Z20.591
G1X24.037A173.181Z20.149
G1X27.690A180.158Z20.005
G1X31.343A187.135Z20.165
G1X34.904A193.936Z20.627
G1X38.219A200.268Z21.358
G1X40.000A203.669Z21.923
G1A205.812Z22.280
G1X36.930A199.949Z21.314
G1X33.584A193.559Z20.593
G1X30.023A186.758Z20.149
G1X26.339A179.722Z20.006
G1X22.686A172.745Z20.168
G1X19.156A166.003Z20.625
G1X15.810A159.612Z21.364
G1X12.740A153.749Z22.351
G1X9.977A148.473Z23.548
G1X7.521A143.782Z24.920
G1X5.311A139.561Z26.473
G1X3.346A135.809Z28.146
G1X3.131A135.398Z28.244
G1X2.886A134.929Z28.274
G1X2.640A134.460Z28.227
G1X2.425A134.050Z28.121
G1X0.368A130.122Z26.375
G1X0.000A129.418Z26.119
G1A130.408Z26.496
G1A131.562Z27.013
G1X1.320A134.083Z28.132
G1X1.566A134.552Z28.243
G1X1.811A135.021Z28.275
G1X2.057A135.490Z28.228
G1X2.241A135.842Z28.134
G1X4.328A139.829Z26.364
G1X6.539A144.050Z24.834
G1X8.995A148.740Z23.478
G1X11.788A154.076Z22.286
G1X14.858A159.939Z21.317
G1X18.235A166.388Z20.591
G1X21.796A173.189Z20.149
G1X25.449A180.166Z20.005
G1X29.102A187.143Z20.166
G1X32.663A193.944Z20.628
G1X35.979A200.276Z21.359
G1X39.048A206.139Z22.344
G1X40.000A207.956Z22.752
G1A210.100Z23.234
G1X37.759A205.820Z22.283
G1X34.689A199.957Z21.315
G1X31.343A193.567Z20.593
G1X27.782A186.766Z20.149
G1X24.098A179.730Z20.006
G1X20.445A172.753Z20.167
G1X16.915A166.011Z20.624
G1X13.569A159.620Z21.363
G1X10.499A153.757Z22.349
G1X7.736A148.480Z23.546
G1X5.280A143.790Z24.917
G1X3.070A139.569Z26.469
G1X1.105A135.816Z28.143
G1X0.890A135.406Z28.243
G1X0.645A134.937Z28.275
G1X0.430A134.527Z28.239
G1X0.184A134.058Z28.124
G1X0.000A133.706Z27.973
G1A134.118Z28.144
G1A134.613Z28.251
G1A135.025Z28.275
G1A135.437Z28.238
G1A135.850Z28.131
G1X2.087A139.837Z26.361
G1X4.267A143.999Z24.849
G1X6.754A148.748Z23.476
G1X9.547A154.084Z22.285
G1X12.617A159.946Z21.316
G1X15.994A166.396Z20.590
G1X19.524A173.138Z20.149
G1X23.208A180.174Z20.005
G1X26.861A187.151Z20.166
G1X30.422A193.952Z20.629
G1X33.738A200.284Z21.361
G1X36.807A206.147Z22.345
G1X39.570A211.423Z23.542
G1X40.000A212.244Z23.779
G1A214.388Z24.403
G1X38.312A211.163Z23.475
G1X35.518A205.828Z22.284
G1X32.448A199.965Z21.316
G1X29.071A193.516Z20.590
G1X25.541A186.773Z20.149
G1X21.857A179.738Z20.005
G1X18.204A172.761Z20.167
G1X14.674A166.019Z20.623
G1X11.328A159.628Z21.362
G1X8.258A153.765Z22.347
G1X5.495A148.488Z23.543
G1X3.039A143.798Z24.915
G1X0.829A139.577Z26.466
G1X0.000A137.994Z27.175
G1A139.808Z26.371
G1A140.137Z26.251
G1X2.026A144.007Z24.847
G1X4.513A148.756Z23.474
G1X7.306A154.091Z22.284
G1X10.376A159.954Z21.316
G1X13.722A166.345Z20.594
G1X17.283A173.146Z20.149
G1X20.967A180.181Z20.005
G1X24.620A187.158Z20.167
G1X28.150A193.901Z20.623
G1X31.497A200.291Z21.362
G1X34.566A206.154Z22.348
G1X37.329A211.431Z23.544
G1X39.785A216.121Z24.916
G1X40.000A216.532Z25.064
G1A218.676Z25.847
G1X38.557A215.920Z24.850
G1X36.071A211.171Z23.476
G1X33.277A205.836Z22.285
G1X30.207A199.973Z21.316
G1X26.830A193.524Z20.590
G1X23.300A186.781Z20.149
G1X19.616A179.746Z20.005
G1X15.963A172.769Z20.166
G1X12.402A165.968Z20.629
G1X9.087A159.636Z21.360
G1X6.017A153.773Z22.345
G1X3.254A148.496Z23.541
G1X0.767A143.747Z24.933
G1X0.000A142.281Z25.468
G1A144.013Z24.845
G1A144.425Z24.725
G1X2.272A148.764Z23.473
G1X5.065A154.099Z22.282
G1X8.135A159.962Z21.314
G1X11.481A166.353Z20.593
G1X15.042A173.154Z20.149
G1X18.726A180.189Z20.006
G1X22.379A187.166Z20.167
G1X25.909A193.909Z20.624
G1X29.256A200.299Z21.363
G1X32.325A206.162Z22.349
G1X35.088A211.439Z23.546
G1X37.544A216.129Z24.918
G1X39.754A220.351Z26.470
G1X40.000A220.820Z26.679
G1A222.963Z27.640
G1X38.496A220.091Z26.364
G1X36.285A215.869Z24.835
G1X33.830A211.179Z23.478
G1X31.036A205.844Z22.286
G1X27.936A199.922Z21.311
G1X24.589A193.531Z20.591
G1X21.028A186.730Z20.149
G1X17.375A179.753Z20.005
G1X13.722A172.777Z20.166
G1X10.161A165.975Z20.628
G1X6.846A159.644Z21.359
G1X3.776A153.781Z22.343
G1X1.013A148.504Z23.539
G1X0.000A146.569Z24.102
G1A148.713Z23.484
G1X2.824A154.107Z22.281
G1X5.894A159.970Z21.313
G1X9.240A166.360Z20.593
G1X12.801A173.162Z20.149
G1X16.485A180.197Z20.006
G1X20.138A187.174Z20.168
G1X23.668A193.916Z20.625
G1X27.015A200.307Z21.364
G1X30.084A206.170Z22.351
G1X32.847A211.447Z23.549
G1X35.303A216.137Z24.921
G1X37.513A220.358Z26.474
G1X39.478A224.111Z28.146
G1X39.693A224.521Z28.244
G1X39.939A224.990Z28.274
G1X40.000A225.107Z28.269
G1A225.520Z28.213
G1A225.932Z28.096
G1A227.251Z27.506
G1X39.263A225.844Z28.129
G1X39.018A225.375Z28.241
G1X38.772A224.906Z28.275
G1X38.526A224.437Z28.230
G1X38.312A224.027Z28.116
G1X36.255A220.098Z26.367
G1X34.045A215.877Z24.837
G1X31.558A211.128Z23.467
G1X28.795A205.851Z22.288
G1X25.695A199.930Z21.312
G1X22.348A193.539Z20.591
G1X18.787A186.738Z20.149
G1X15.134A179.761Z20.005
G1X11.481A172.784Z20.165
G1X7.920A165.983Z20.627
G1X4.605A159.651Z21.358
G1X1.535A153.788Z22.342
G1X0.000A150.857Z23.002
G1A153.001Z22.519
G1X0.583A154.115Z22.279
G1X3.653A159.978Z21.313
G1X6.999A166.368Z20.592
G1X10.560A173.169Z20.149
G1X14.213A180.146Z20.004
G1X17.866A187.123Z20.164
G1X21.427A193.924Z20.626
G1X24.774A200.315Z21.365
G1X27.813A206.119Z22.340
G1X30.576A211.396Z23.534
G1X33.062A216.145Z24.924
G1X35.242A220.308Z26.451
G1X37.237A224.118Z28.149
G1X37.452A224.529Z28.245
G1X37.698A224.998Z28.274
G1X37.913A225.408Z28.236
G1X38.158A225.877Z28.117
G1X40.000A229.395Z26.546
G1A229.972Z26.310
G1A231.539Z25.738
G1X38.987A229.604Z26.453
G1X37.022A225.852Z28.126
G1X36.777A225.383Z28.240
G1X36.531A224.914Z28.275
G1X36.285A224.445Z28.232
G1X36.071A224.034Z28.118
G1X34.014A220.106Z26.370
G1X31.804A215.885Z24.840
G1X29.317A211.136Z23.469
G1X26.554A205.859Z22.289
G1X23.454A199.938Z21.313
G1X20.107A193.547Z20.592
G1X16.546A186.746Z20.149
G1X12.893A179.769Z20.005
G1X9.240A172.792Z20.165
G1X5.679A165.991Z20.626
G1X2.333A159.600Z21.366
G1X0.000A155.145Z22.108
G1A157.288Z21.751
G1X1.412A159.985Z21.312
G1X4.758A166.376Z20.591
G1X8.319A173.177Z20.149
G1X11.972A180.154Z20.005
G1X15.625A187.131Z20.165
G1X19.186A193.932Z20.627
G1X22.502A200.264Z21.357
G1X25.572A206.127Z22.341
G1X28.335A211.404Z23.536
G1X30.821A216.153Z24.926
G1X33.001A220.315Z26.455
G1X34.996A224.126Z28.152
G1X35.211A224.537Z28.247
G1X35.457A225.006Z28.274
G1X35.672A225.416Z28.234
G1X35.917A225.885Z28.115
G1X37.974A229.813Z26.369
G1X40.000A233.683Z24.955
G1A234.590Z24.676
G1A235.827Z24.316
G1X38.926A233.775Z24.923
G1X36.746A229.612Z26.450
G1X34.781A225.860Z28.124
G1X34.536A225.391Z28.239
G1X34.290A224.922Z28.275
G1X34.045A224.453Z28.233
G1X33.830A224.042Z28.122
G1X31.773A220.114Z26.373
G1X29.563A215.893Z24.842
G1X27.076A211.144Z23.470
G1X24.282A205.808Z22.281
G1X21.213A199.945Z21.313
G1X17.866A193.555Z20.592
G1X14.305A186.754Z20.149
G1X10.652A179.777Z20.004
G1X6.969A172.741Z20.168
G1X3.438A165.999Z20.625
G1X0.092A159.608Z21.365
G1X0.000A159.432Z21.394
G1A160.257Z21.281
G1A161.576Z21.130
G1X2.517A166.384Z20.591
G1X6.078A173.185Z20.149
G1X9.731A180.162Z20.005
G1X13.384A187.139Z20.165
G1X16.946A193.940Z20.628
G1X20.261A200.272Z21.358
G1X23.331A206.135Z22.343
G1X26.094A211.411Z23.538
G1X28.580A216.160Z24.930
G1X30.760A220.323Z26.458
G1X32.755A224.134Z28.154
G1X32.970A224.544Z28.248
G1X33.216A225.013Z28.274
G1X33.431A225.424Z28.233
G1X33.676A225.893Z28.112
G1X35.733A229.821Z26.366
G1X37.943A234.042Z24.837
G1X40.000A237.971Z23.693
G1A238.795Z23.464
G1A240.114Z23.167
G1X39.140A238.473Z23.548
G1X36.685A233.782Z24.920
G1X34.505A229.620Z26.446
G1X32.540A225.868Z28.121
G1X32.295A225.398Z28.237
G1X32.049A224.929Z28.275
G1X31.804A224.460Z28.235
G1X31.589A224.050Z28.124
G1X29.532A220.122Z26.376
G1X27.322A215.900Z24.844
G1X24.835A211.151Z23.472
G1X22.041A205.816Z22.282
G1X18.972A199.953Z21.314
G1X15.625A193.563Z20.593
G1X12.064A186.762Z20.149
G1X8.411A179.785Z20.004
G1X4.728A172.749Z20.168
G1X1.197A166.007Z20.624
G1X0.000A163.720Z20.886
G1A165.864Z20.641
G1X0.522A166.861Z20.559
G1X3.807A173.134Z20.149
G1X7.490A180.170Z20.005
G1X11.144A187.147Z20.166
G1X14.705A193.948Z20.629
G1X18.020A200.280Z21.360
G1X21.090A206.143Z22.345
G1X23.853A211.419Z23.541
G1X26.339A216.168Z24.932
G1X28.519A220.331Z26.461
G1X30.483A224.083Z28.137
G1X30.698A224.494Z28.240
G1X30.944A224.963Z28.275
G1X31.190A225.432Z28.232
G1X31.435A225.901Z28.109
G1X33.492A229.829Z26.363
G1X35.672A233.992Z24.851
G1X38.158A238.741Z23.478
G1X40.000A242.258Z22.685
G1A244.072Z22.285
G1A244.402Z22.231
G1X39.601A243.640Z22.375
G1X36.899A238.481Z23.545
G1X34.444A233.790Z24.917
G1X32.233A229.569Z26.469
G1X30.299A225.875Z28.118
G1X30.054A225.406Z28.236
G1X29.808A224.937Z28.275
G1X29.563A224.468Z28.236
G1X29.348A224.058Z28.127
G1X27.260A220.071Z26.357
G1X25.081A215.908Z24.846
G1X22.594A211.159Z23.474
G1X19.800A205.824Z22.283
G1X16.731A199.961Z21.315
G1X13.384A193.570Z20.594
G1X9.823A186.769Z20.149
G1X6.140A179.734Z20.005
G1X2.487A172.757Z20.167
G1X0.000A168.008Z20.483
G1A170.152Z20.340
G1X1.596A173.200Z20.148
G1X5.249A180.177Z20.005
G1X8.903A187.154Z20.167
G1X12.433A193.897Z20.623
G1X15.779A200.287Z21.361
G1X18.849A206.150Z22.347
G1X21.612A211.427Z23.543
G1X24.098A216.176Z24.936
G1X26.278A220.339Z26.465
G1X28.243A224.091Z28.139
G1X28.457A224.501Z28.241
G1X28.703A224.970Z28.275
G1X28.949A225.439Z28.230
G1X29.163A225.850Z28.127
G1X31.251A229.837Z26.360
G1X33.431A233.999Z24.849
G1X35.917A238.748Z23.476
G1X38.711A244.084Z22.285
G1X40.000A246.546Z21.874
G1A248.690Z21.517
G1X37.421A243.765Z22.347
G1X34.658A238.488Z23.543
G1X32.203A233.798Z24.914
G1X29.992A229.577Z26.466
G1X28.028A225.824Z28.136
G1X27.782A225.355Z28.244
G1X27.536A224.886Z28.275
G1X27.322A224.476Z28.237
G1X27.107A224.066Z28.130
G1X25.019A220.079Z26.360
G1X22.840A215.916Z24.849
G1X20.353A211.167Z23.476
G1X17.559A205.832Z22.285
G1X14.490A199.969Z21.316
G1X11.144A193.578Z20.594
G1X7.583A186.777Z20.149
G1X3.899A179.742Z20.005
G1X0.246A172.765Z20.166
G1X0.000A172.296Z20.198
G1A173.285Z20.146
G1A174.440Z20.121
G1X3.008A180.185Z20.006
G1X6.662A187.162Z20.167
G1X10.192A193.905Z20.624
G1X13.538A200.295Z21.362
G1X16.608A206.158Z22.348
G1X19.371A211.435Z23.545
G1X21.827A216.125Z24.917
G1X24.037A220.346Z26.468
G1X26.002A224.099Z28.142
G1X26.216A224.509Z28.242
G1X26.462A224.978Z28.275
G1X26.677A225.389Z28.239
G1X26.922A225.858Z28.124
G1X29.010A229.844Z26.358
G1X31.190A234.007Z24.847
G1X33.676A238.756Z23.474
G1X36.470A244.091Z22.283
G1X39.540A249.954Z21.315
G1X40.000A250.834Z21.214
G1A252.978Z20.969
G1X38.250A249.636Z21.360
G1X35.180A243.773Z22.345
G1X32.417A238.496Z23.541
G1X29.931A233.747Z24.933
G1X27.751A229.585Z26.462
G1X25.787A225.832Z28.133
G1X25.541A225.363Z28.243
G1X25.295A224.894Z28.274
G1X25.050A224.425Z28.228
G1X24.866A224.073Z28.133
G1X22.778A220.087Z26.363
G1X20.568A215.865Z24.833
G1X18.112A211.175Z23.478
G1X15.318A205.840Z22.286
G1X12.249A199.977Z21.317
G1X8.872A193.527Z20.590
G1X5.311A186.726Z20.148
G1X1.658A179.749Z20.005
G1X0.000A176.583Z20.074
G1Z28.690
G1X0.031A178.786
G1Z20.026
G1X0.798A180.252Z20.007
G1X4.421A187.170Z20.168
G1X7.951A193.912Z20.625
G1X11.297A200.303Z21.364
G1X14.367A206.166Z22.350
G1X17.130A211.443Z23.547
G1X19.586A216.133Z24.920
G1X21.796A220.354Z26.472
G1X23.761A224.107Z28.145
G1X23.975A224.517Z28.244
G1X24.221A224.986Z28.274
G1X24.467A225.455Z28.227
G1X24.682A225.865Z28.122
G1X26.738A229.794Z26.376
G1X28.949A234.015Z24.844
G1X31.435A238.764Z23.472
G1X34.229A244.099Z22.282
G1X37.299A249.962Z21.315
G1X40.000A255.122Z20.724
G1A256.441Z20.586
G1A257.266Z20.531
G1X39.294A255.917Z20.635
G1X36.009A249.644Z21.359
G1X32.939A243.781Z22.344
G1X30.177A238.504Z23.539
G1X27.690A233.755Z24.930
G1X25.510A229.592Z26.459
G1X23.546A225.840Z28.130
G1X23.300A225.371Z28.242
G1X23.054A224.902Z28.275
G1X22.809A224.433Z28.230
G1X22.594A224.023Z28.114
G1X20.537A220.094Z26.366
G1X18.327A215.873Z24.836
G1X15.871A211.183Z23.479
G1X13.078A205.847Z22.287
G1X9.977A199.926Z21.311
G1X6.631A193.535Z20.591
G1X3.070A186.734Z20.149
G1X0.031A180.930Z20.022
G1Z28.690
G1X0.000A183.015
G1Z20.067
G1X2.180A187.178Z20.168
G1X5.710A193.920Z20.625
G1X9.056A200.311Z21.365
G1X12.095A206.115Z22.339
G1X14.889A211.450Z23.550
G1X17.345A216.141Z24.922
G1X19.524A220.303Z26.449
G1X21.520A224.114Z28.147
G1X21.734A224.525Z28.245
G1X21.980A224.994Z28.274
G1X22.195A225.404Z28.236
G1X22.441A225.873Z28.119
G1X24.497A229.801Z26.374
G1X26.708A234.023Z24.842
G1X29.194A238.772Z23.471
G1X31.988A244.107Z22.281
G1X35.058A249.970Z21.314
G1X38.404A256.361Z20.593
G1X40.000A259.409Z20.388
G1A261.553Z20.246
G1X37.084A255.983Z20.627
G1X33.768A249.651Z21.357
G1X30.698A243.789Z22.342
G1X27.936A238.512Z23.537
G1X25.449A233.763Z24.928
G1X23.269A229.600Z26.455
G1X21.305A225.848Z28.128
G1X21.059A225.379Z28.241
G1X20.814A224.910Z28.275
G1X20.568A224.441Z28.231
G1X20.353A224.030Z28.117
G1X18.296A220.102Z26.369
G1X16.086A215.881Z24.838
G1X13.599A211.132Z23.468
G1X10.837A205.855Z22.288
G1X7.736A199.934Z21.312
G1X4.390A193.543Z20.592
G1X0.829A186.742Z20.149
G1X0.000A185.159Z20.114
G1A187.220Z20.171
G1A187.303Z20.176
G1X3.469A193.928Z20.627
G1X6.815A200.319Z21.366
G1X9.854A206.123Z22.341
G1X12.617A211.400Z23.534
G1X15.104A216.149Z24.925
G1X17.283A220.311Z26.453
G1X19.279A224.122Z28.150
G1X19.493A224.533Z28.246
G1X19.739A225.002Z28.274
G1X19.954A225.412Z28.235
G1X20.200A225.881Z28.116
G1X22.256A229.809Z26.370
G1X24.467A234.031Z24.840
G1X26.953A238.780Z23.469
G1X29.716A244.056Z22.289
G1X32.817A249.978Z21.313
G1X36.163A256.368Z20.592
G1X39.724A263.169Z20.149
G1X40.000A263.697Z20.137
G1A265.841Z20.090
G1X38.373A262.734Z20.168
G1X34.843A255.991Z20.626
G1X31.497A249.601Z21.366
G1X28.427A243.738Z22.353
G1X25.664A238.461Z23.551
G1X23.208A233.771Z24.925
G1X21.028A229.608Z26.451
G1X19.064A225.856Z28.125
G1X18.818A225.387Z28.239
G1X18.573A224.918Z28.275
G1X18.327A224.449Z28.233
G1X18.112A224.038Z28.120
G1X16.055A220.110Z26.371
G1X13.845A215.889Z24.841
G1X11.358A211.140Z23.469
G1X8.596A205.863Z22.290
G1X5.495A199.941Z21.313
G1X2.149A193.551Z20.592
G1X0.000A189.447Z20.319
G1X0.000A191.591Z20.462
G1X1.228A193.936Z20.627
G1X4.543A200.268Z21.358
G1X7.613A206.131Z22.342
G1X10.376A211.407Z23.537
G1X12.863A216.156Z24.928
G1X15.042A220.319Z26.456
G1X17.038A224.130Z28.153
G1X17.252A224.540Z28.247
G1X17.498A225.009Z28.274
G1X17.713A225.420Z28.234
G1X17.959A225.889Z28.113
G1X20.015A229.817Z26.368
G1X22.226A234.038Z24.838
G1X24.712A238.787Z23.467
G1X27.475A244.064Z22.288
G1X30.576A249.986Z21.312
G1X33.922A256.376Z20.592
G1X37.483A263.177Z20.149
G1X40.000A267.985Z20.043
G1A270.129Z20.004
G1X36.132A262.741Z20.168
G1X32.602A255.999Z20.625
G1X29.256A249.608Z21.365
G1X26.186A243.745Z22.351
G1X23.423A238.469Z23.549
G1X20.967A233.778Z24.922
G1X18.787A229.616Z26.448
G1X16.823A225.863Z28.122
G1X16.577A225.394Z28.238
G1X16.332A224.925Z28.275
G1X16.086A224.456Z28.234
G1X15.871A224.046Z28.123
G1X13.814A220.118Z26.374
G1X11.604A215.896Z24.843
G1X9.117A211.147Z23.471
G1X6.324A205.812Z22.281
G1X3.254A199.949Z21.314
G1X0.000A193.734Z20.605
G1A195.878Z20.849
G1X2.302A200.276Z21.359
G1X5.372A206.138Z22.344
G1X8.135A211.415Z23.539
G1X10.622A216.164Z24.931
G1X12.801A220.327Z26.460
G1X14.797A224.138Z28.155
G1X15.012A224.548Z28.248
G1X15.257A225.017Z28.274
G1X15.472A225.428Z28.232
G1X15.718A225.897Z28.110
G1X17.774A229.825Z26.365
G1X19.954A233.988Z24.852
G1X22.441A238.737Z23.479
G1X25.234A244.072Z22.287
G1X28.335A249.993Z21.311
G1X31.681A256.384Z20.591
G1X35.242A263.185Z20.148
G1X38.895A270.162Z20.005
G1X40.000A272.273Z20.051
G1A274.417Z20.097
G1X37.544A269.726Z20.005
G1X33.891A262.749Z20.167
G1X30.361A256.007Z20.624
G1X27.015A249.616Z21.364
G1X23.945A243.753Z22.350
G1X21.182A238.477Z23.547
G1X18.726A233.786Z24.919
G1X16.546A229.624Z26.445
G1X14.582A225.871Z28.120
G1X14.336A225.402Z28.237
G1X14.091A224.933Z28.275
G1X13.845A224.464Z28.235
G1X13.630A224.054Z28.126
G1X11.543A220.067Z26.356
G1X9.363A215.904Z24.845
G1X6.876A211.155Z23.473
G1X4.083A205.820Z22.283
G1X1.013A199.957Z21.315
G1X0.000A198.022Z21.094
G1A200.166Z21.341
G1X3.131A206.146Z22.346
G1X5.894A211.423Z23.542
G1X8.381A216.172Z24.934
G1X10.560A220.335Z26.463
G1X12.525A224.087Z28.138
G1X12.740A224.497Z28.241
G1X12.985A224.966Z28.275
G1X13.231A225.435Z28.231
G1X13.446A225.846Z28.128
G1X15.533A229.833Z26.362
G1X17.713A233.995Z24.850
G1X20.200A238.744Z23.477
G1X22.993A244.080Z22.285
G1X26.063A249.943Z21.317
G1X29.440A256.392Z20.591
G1X32.970A263.134Z20.150
G1X36.654A270.170Z20.005
G1X40.000A276.560Z20.144
G1A277.467Z20.186
G1A278.704Z20.269
G1X38.956A276.711Z20.148
G1X35.303A269.734Z20.005
G1X31.650A262.757Z20.167
G1X28.120A256.015Z20.623
G1X24.774A249.624Z21.362
G1X21.704A243.761Z22.348
G1X18.941A238.484Z23.544
G1X16.485A233.794Z24.916
G1X14.275A229.573Z26.468
G1X12.310A225.820Z28.137
G1X12.064A225.351Z28.245
G1X11.819A224.882Z28.274
G1X11.604A224.472Z28.237
G1X11.389A224.062Z28.129
G1X9.302A220.075Z26.359
G1X7.122A215.912Z24.848
G1X4.635A211.163Z23.475
G1X1.842A205.828Z22.284
G1X0.000A202.310Z21.698
G1A204.454Z22.055
G1X0.890A206.154Z22.347
G1X3.653A211.431Z23.544
G1X6.109A216.121Z24.915
G1X8.319A220.342Z26.466
G1X10.284A224.095Z28.141
G1X10.499A224.505Z28.242
G1X10.744A224.974Z28.275
G1X10.990A225.443Z28.230
G1X11.205A225.854Z28.126
G1X13.292A229.840Z26.359
G1X15.472A234.003Z24.848
G1X17.959A238.752Z23.475
G1X20.752A244.087Z22.284
G1X23.822A249.950Z21.316
G1X27.168A256.341Z20.594
G1X30.729A263.142Z20.149
G1X34.413A270.178Z20.005
G1X38.066A277.155Z20.166
G1X40.000A280.848Z20.411
G1A282.992Z20.554
G1X36.715A276.719Z20.148
G1X33.062A269.742Z20.005
G1X29.409A262.765Z20.167
G1X25.879A256.022Z20.623
G1X22.533A249.632Z21.361
G1X19.463A243.769Z22.346
G1X16.700A238.492Z23.542
G1X14.244A233.802Z24.913
G1X12.034A229.580Z26.464
G1X10.069A225.828Z28.134
G1X9.823A225.359Z28.244
G1X9.578A224.890Z28.274
G1X9.363A224.480Z28.238
G1X9.148A224.069Z28.132
G1X7.061A220.082Z26.361
G1X4.881A215.920Z24.850
G1X2.394A211.171Z23.477
G1X0.000A206.598Z22.448
G1A208.742Z22.930
G1X1.412A211.439Z23.546
G1X3.868A216.129Z24.918
G1X6.078A220.350Z26.470
G1X8.043A224.103Z28.144
G1X8.258A224.513Z28.243
G1X8.503A224.982Z28.275
G1X8.749A225.451Z28.228
G1X8.964A225.861Z28.123
G1X11.051A229.848Z26.356
G1X13.231A234.011Z24.845
G1X15.718A238.760Z23.473
G1X18.511A244.095Z22.283
G1X21.581A249.958Z21.315
G1X24.927A256.349Z20.593
G1X28.488A263.150Z20.149
G1X32.172A270.185Z20.005
G1X35.825A277.162Z20.167
G1X39.355A283.905Z20.624
G1X40.000A285.136Z20.763
G1A287.280Z21.008
G1X38.035A283.528Z20.591
G1X34.474A276.726Z20.148
G1X30.821A269.750Z20.005
G1X27.168A262.773Z20.166
G1X23.607A255.972Z20.628
G1X20.292A249.640Z21.359
G1X17.222A243.777Z22.344
G1X14.459A238.500Z23.540
G1X11.972A233.751Z24.932
G1X9.793A229.588Z26.460
G1X7.828A225.836Z28.132
G1X7.583A225.367Z28.242
G1X7.337A224.898Z28.275
G1X7.122A224.488Z28.239
G1X6.907A224.077Z28.135
G1X4.820A220.090Z26.364
G1X2.609A215.869Z24.835
G1X0.153A211.179Z23.478
G1X0.000A210.885Z23.412
G1A211.545Z23.577
G1A213.029Z24.009
G1X1.627A216.137Z24.921
G1X3.807A220.299Z26.447
G1X5.802A224.110Z28.146
G1X6.017A224.521Z28.244
G1X6.262A224.990Z28.274
G1X6.477A225.400Z28.237
G1X6.723A225.869Z28.120
G1X8.780A229.797Z26.375
G1X10.990A234.019Z24.843
G1X13.477A238.768Z23.471
G1X16.270A244.103Z22.281
G1X19.340A249.966Z21.314
G1X22.686A256.357Z20.593
G1X26.247A263.158Z20.149
G1X29.900A270.135Z20.004
G1X33.584A277.170Z20.168
G1X37.114A283.912Z20.625
G1X40.000A289.424Z21.253
G1A290.413Z21.381
G1A291.568Z21.573
G1X39.140A289.926Z21.311
G1X35.794A283.535Z20.591
G1X32.233A276.734Z20.148
G1X28.580A269.757Z20.005
G1X24.927A262.780Z20.166
G1X21.366A255.979Z20.627
G1X18.051A249.647Z21.358
G1X14.981A243.784Z22.343
G1X12.218A238.508Z23.538
G1X9.731A233.759Z24.929
G1X7.552A229.596Z26.457
G1X5.587A225.844Z28.129
G1X5.342A225.375Z28.241
G1X5.096A224.906Z28.275
G1X4.850A224.437Z28.230
G1X4.635A224.026Z28.115
G1X2.579A220.098Z26.367
G1X0.368A215.877Z24.837
G1X0.000A215.173Z24.633
G1A216.163Z24.931
G1A217.317Z25.352
G1X1.566A220.307Z26.451
G1X3.561A224.118Z28.149
G1X3.776A224.529Z28.246
G1X4.021A224.998Z28.274
G1X4.267A225.467Z28.225
G1X4.482A225.877Z28.118
G1X6.539A229.805Z26.372
G1X8.749A234.027Z24.841
G1X11.236A238.776Z23.470
G1X13.998A244.052Z22.290
G1X17.099A249.974Z21.313
G1X20.445A256.364Z20.592
G1X24.006A263.165Z20.149
G1X27.690A270.201Z20.006
G1X31.343A277.178Z20.168
G1X34.873A283.920Z20.626
G1X38.219A290.311Z21.365
G1X40.000A293.711Z21.930
G1A295.855Z22.287
G1X36.899A289.934Z21.312
G1X33.553A283.543Z20.592
G1X29.992A276.742Z20.148
G1X26.339A269.765Z20.005
G1X22.655A262.730Z20.168
G1X19.125A255.987Z20.626
G1X15.779A249.597Z21.367
G1X12.740A243.792Z22.341
G1X9.977A238.516Z23.535
G1X7.490A233.767Z24.926
G1X5.311A229.604Z26.453
G1X3.346A225.852Z28.127
G1X3.101A225.383Z28.240
G1X2.855A224.914Z28.275
G1X2.609A224.444Z28.232
G1X2.394A224.034Z28.118
G1X0.338A220.106Z26.370
G1X0.000A219.461Z26.134
G1A220.368Z26.478
G1A221.605Z27.032
G1X1.320A224.126Z28.151
G1X1.535A224.536Z28.247
G1X1.781A225.005Z28.274
G1X1.995A225.416Z28.235
G1X2.241A225.885Z28.115
G1X4.298A229.813Z26.369
G1X6.508A234.034Z24.839
G1X8.995A238.783Z23.468
G1X11.757A244.060Z22.289
G1X14.858A249.982Z21.312
G1X18.204A256.372Z20.592
G1X21.765A263.173Z20.149
G1X25.418A270.150Z20.005
G1X29.102A277.186Z20.169
G1X32.632A283.928Z20.626
G1X35.979A290.319Z21.366
G1X39.018A296.123Z22.341
G1X40.000A297.999Z22.761
G1A300.143Z23.244
G1X37.759A295.863Z22.290
G1X34.658A289.942Z21.313
G1X31.312A283.551Z20.592
G1X27.751A276.750Z20.149
G1X24.098A269.773Z20.005
G1X20.414A262.737Z20.168
G1X16.884A255.995Z20.626
G1X13.538A249.604Z21.365
G1X10.468A243.741Z22.352
G1X7.705A238.465Z23.550
G1X5.249A233.774Z24.923
G1X3.070A229.612Z26.450
G1X1.105A225.859Z28.124
G1X0.860A225.390Z28.239
G1X0.614A224.921Z28.275
G1X0.368A224.452Z28.233
G1X0.153A224.042Z28.121
G1X0.000A223.749Z27.993
G1A224.161Z28.163
G1A224.573Z28.252
G1A224.986Z28.275
G1A225.398Z28.238
G1A225.810Z28.140
G1A225.893Z28.112
G1X2.057A229.821Z26.366
G1X4.267A234.042Z24.837
G1X6.754A238.791Z23.466
G1X9.517A244.068Z22.288
G1X12.617A249.989Z21.311
G1X15.963A256.380Z20.591
G1X19.524A263.181Z20.148
G1X23.177A270.158Z20.005
G1X26.861A277.193Z20.169
G1X30.391A283.936Z20.627
G1X33.707A290.268Z21.358
G1X36.777A296.131Z22.342
G1X39.540A301.408Z23.537
G1X40.000A302.287Z23.792
G1A304.431Z24.415
G1X38.281A301.148Z23.471
G1X35.487A295.812Z22.281
G1X32.417A289.949Z21.314
G1X29.071A283.559Z20.593
G1X25.510A276.758Z20.149
G1X21.827A269.722Z20.005
G1X18.173A262.745Z20.168
G1X14.643A256.003Z20.625
G1X11.297A249.612Z21.364
G1X8.227A243.749Z22.350
G1X5.464A238.473Z23.548
G1X3.008A233.782Z24.920
G1X0.829A229.619Z26.446
G1X0.000A228.036Z27.155
G1A229.851Z26.356
G1A230.180Z26.235
G1X1.995A233.991Z24.852
G1X4.482A238.740Z23.478
G1X7.276A244.076Z22.286
G1X10.376A249.997Z21.311
G1X13.722A256.388Z20.591
G1X17.283A263.189Z20.148
G1X20.936A270.166Z20.005
G1X24.589A277.143Z20.166
G1X28.150A283.944Z20.628
G1X31.466A290.276Z21.359
G1X34.536A296.139Z22.344
G1X37.299A301.415Z23.539
G1X39.785A306.164Z24.931
G1X40.000A306.575Z25.080
G1A308.719Z25.862
G1X38.526A305.904Z24.845
G1X36.040A301.155Z23.473
G1X33.246A295.820Z22.282
G1X30.177A289.957Z21.315
G1X26.830A283.566Z20.593
G1X23.269A276.765Z20.149
G1X19.586A269.730Z20.005
G1X15.932A262.753Z20.167
G1X12.402A256.011Z20.624
G1X9.056A249.620Z21.363
G1X5.986A243.757Z22.349
G1X3.223A238.480Z23.545
G1X0.767A233.790Z24.917
G1X0.000A232.324Z25.453
G1X0.000A234.056Z24.833
G1X0.000A234.468Z24.713
G1X2.241A238.748Z23.476
G1X5.035A244.083Z22.285
G1X8.104A249.946Z21.316
G1X11.450A256.337Z20.594
G1X15.012A263.138Z20.150
G1X18.695A270.174Z20.005
G1X22.348A277.150Z20.166
G1X25.909A283.951Z20.629
G1X29.225A290.283Z21.361
G1X32.295A296.146Z22.346
G1X35.058A301.423Z23.542
G1X37.544A306.172Z24.934
G1X39.724A310.335Z26.463
G1X40.000A310.862Z26.698
G1A313.006Z27.659
G1X38.465A310.075Z26.358
G1X36.285A305.912Z24.847
G1X33.799A301.163Z23.475
G1X31.005A295.828Z22.284
G1X27.936A289.965Z21.316
G1X24.559A283.516Z20.590
G1X21.028A276.773Z20.150
G1X17.345A269.738Z20.005
G1X13.691A262.761Z20.167
G1X10.161A256.018Z20.623
G1X6.815A249.628Z21.362
G1X3.745A243.765Z22.347
G1X0.982A238.488Z23.543
G1X0.000A236.612Z24.089
G1A238.756Z23.474
G1X2.794A244.091Z22.283
G1X5.863A249.954Z21.316
G1X9.210A256.345Z20.594
G1X12.771A263.146Z20.150
G1X16.454A270.181Z20.005
G1X20.107A277.158Z20.167
G1X23.638A283.901Z20.623
G1X26.984A290.291Z21.362
G1X30.054A296.154Z22.348
G1X32.817A301.431Z23.544
G1X35.272A306.121Z24.915
G1X37.483A310.343Z26.467
G1X39.447A314.095Z28.136
G1X39.693A314.564Z28.245
G1X39.939A315.033Z28.274
G1X40.000A315.150Z28.269
G1A315.563Z28.213
G1A315.892Z28.113
G1A317.294Z27.487
G1X39.233A315.828Z28.139
G1X39.018A315.418Z28.241
G1X38.772A314.949Z28.275
G1X38.526A314.480Z28.231
G1X38.312A314.069Z28.128
G1X36.224A310.083Z26.361
G1X34.045A305.920Z24.850
G1X31.558A301.171Z23.476
G1X28.764A295.836Z22.285
G1X25.695A289.973Z21.317
G1X22.318A283.523Z20.591
G1X18.787A276.781Z20.150
G1X15.104A269.746Z20.005
G1X11.450A262.769Z20.166
G1X7.889A255.968Z20.629
G1X4.574A249.636Z21.360
G1X1.504A243.773Z22.345
G1X0.000A240.900Z22.992
G1A243.044Z22.510
G1X0.553A244.099Z22.282
G1X3.622A249.962Z21.315
G1X6.969A256.353Z20.593
G1X10.530A263.154Z20.149
G1X14.213A270.189Z20.005
G1X17.866A277.166Z20.167
G1X21.397A283.908Z20.624
G1X24.743A290.299Z21.363
G1X27.813A296.162Z22.349
G1X30.576A301.439Z23.546
G1X33.031A306.129Z24.918
G1X35.242A310.350Z26.470
G1X37.176A314.044Z28.119
G1X37.421A314.513Z28.236
G1X37.667A314.982Z28.275
G1X37.913A315.451Z28.236
G1X38.127A315.862Z28.127
G1X40.000A319.438Z26.527
G1A320.098Z26.264
G1A321.582Z25.722
G1X38.956A319.588Z26.461
G1X36.961A315.778Z28.156
G1X36.746A315.367Z28.249
G1X36.500A314.898Z28.274
G1X36.285A314.488Z28.232
G1X36.071A314.077Z28.130
G1X33.983A310.090Z26.364
G1X31.804A305.928Z24.852
G1X29.317A301.179Z23.478
G1X26.523A295.843Z22.286
G1X23.423A289.922Z21.311
G1X20.077A283.531Z20.591
G1X16.516A276.730Z20.148
G1X12.863A269.753Z20.005
G1X9.210A262.776Z20.166
G1X5.649A255.975Z20.628
G1X2.333A249.643Z21.359
G1X0.000A245.187Z22.101
G1A247.331Z21.744
G1X1.381A249.970Z21.314
G1X4.728A256.360Z20.593
G1X8.289A263.161Z20.149
G1X11.972A270.197Z20.006
G1X15.625A277.174Z20.168
G1X19.156A283.916Z20.625
G1X22.502A290.307Z21.365
G1X25.572A296.170Z22.351
G1X28.335A301.446Z23.548
G1X30.790A306.137Z24.921
G1X32.970A310.300Z26.447
G1X34.935A314.052Z28.122
G1X35.180A314.521Z28.238
G1X35.426A314.990Z28.275
G1X35.672A315.459Z28.234
G1X35.886A315.869Z28.124
G1X37.943A319.798Z26.375
G1X40.000A323.726Z24.940
G1A325.870Z24.304
G1X38.895A323.759Z24.928
G1X36.715A319.596Z26.457
G1X34.720A315.785Z28.153
G1X34.505A315.375Z28.247
G1X34.259A314.906Z28.274
G1X34.045A314.495Z28.233
G1X33.799A314.026Z28.113
G1X31.742A310.098Z26.367
G1X29.532A305.877Z24.837
G1X27.076A301.187Z23.480
G1X24.282A295.851Z22.288
G1X21.182A289.930Z21.312
G1X17.836A283.539Z20.591
G1X14.275A276.738Z20.148
G1X10.622A269.761Z20.005
G1X6.969A262.784Z20.165
G1X3.408A255.983Z20.627
G1X0.061A249.593Z21.367
G1X0.000A249.475Z21.387
G1A250.300Z21.276
G1A251.619Z21.126
G1X2.487A256.368Z20.592
G1X6.048A263.169Z20.149
G1X9.701A270.146Z20.005
G1X13.384A277.182Z20.168
G1X16.915A283.924Z20.626
G1X20.261A290.315Z21.366
G1X23.331A296.178Z22.353
G1X26.094A301.454Z23.551
G1X28.550A306.145Z24.924
G1X30.729A310.307Z26.450
G1X32.694A314.060Z28.124
G1X32.939A314.529Z28.239
G1X33.185A314.998Z28.275
G1X33.431A315.467Z28.233
G1X33.645A315.877Z28.121
G1X35.702A319.805Z26.372
G1X37.913A324.027Z24.841
G1X40.000A328.014Z23.680
G1A328.838Z23.455
G1A330.157Z23.158
G1X39.110A328.457Z23.552
G1X36.654A323.767Z24.926
G1X34.474A319.604Z26.454
G1X32.479A315.793Z28.151
G1X32.264A315.383Z28.246
G1X32.018A314.914Z28.274
G1X31.804A314.503Z28.235
G1X31.558A314.034Z28.115
G1X29.501A310.106Z26.370
G1X27.291A305.885Z24.840
G1X24.804A301.136Z23.469
G1X22.041A295.859Z22.289
G1X18.941A289.937Z21.313
G1X15.595A283.547Z20.592
G1X12.034A276.746Z20.149
G1X8.381A269.769Z20.005
G1X4.697A262.733Z20.168
G1X1.167A255.991Z20.626
G1X0.000A253.763Z20.881
G1X0.000A255.907Z20.636
G1X0.614A257.079Z20.545
G1X3.807A263.177Z20.148
G1X7.460A270.154Z20.005
G1X11.144A277.189Z20.169
G1X14.674A283.932Z20.627
G1X17.989A290.264Z21.357
G1X21.059A296.127Z22.342
G1X23.822A301.403Z23.536
G1X26.309A306.152Z24.927
G1X28.488A310.315Z26.454
G1X30.453A314.067Z28.127
G1X30.698A314.536Z28.240
G1X30.944A315.005Z28.275
G1X31.190A315.475Z28.231
G1X31.404A315.885Z28.118
G1X33.461A319.813Z26.369
G1X35.672A324.034Z24.839
G1X38.158A328.783Z23.468
G1X40.000A332.301Z22.675
G1A334.115Z22.278
G1A334.445Z22.223
G1X39.601A333.683Z22.365
G1X36.869A328.465Z23.550
G1X34.413A323.775Z24.923
G1X32.233A319.612Z26.450
G1X30.238A315.801Z28.148
G1X30.023A315.391Z28.245
G1X29.777A314.921Z28.274
G1X29.563A314.511Z28.236
G1X29.317A314.042Z28.118
G1X27.260A310.114Z26.373
G1X25.050A305.893Z24.842
G1X22.563A301.144Z23.470
G1X19.800A295.867Z22.290
G1X16.700A289.945Z21.313
G1X13.354A283.555Z20.592
G1X9.793A276.754Z20.149
G1X6.140A269.777Z20.004
G1X2.456A262.741Z20.168
G1X0.000A258.051Z20.480
G1A260.195Z20.338
G1X1.566A263.185Z20.148
G1X5.219A270.162Z20.005
G1X8.872A277.139Z20.166
G1X12.433A283.940Z20.628
G1X15.748A290.272Z21.358
G1X18.818A296.135Z22.343
G1X21.581A301.411Z23.538
G1X24.068A306.160Z24.930
G1X26.247A310.323Z26.458
G1X28.212A314.075Z28.130
G1X28.457A314.544Z28.242
G1X28.703A315.013Z28.275
G1X28.949A315.482Z28.230
G1X29.133A315.834Z28.137
G1X31.220A319.821Z26.367
G1X33.431A324.042Z24.836
G1X35.886A328.733Z23.479
G1X38.680A334.068Z22.287
G1X40.000A336.589Z21.866
G1A338.733Z21.509
G1X37.391A333.749Z22.351
G1X34.628A328.473Z23.548
G1X32.172A323.782Z24.920
G1X29.962A319.561Z26.473
G1X27.997A315.809Z28.145
G1X27.782A315.398Z28.244
G1X27.536A314.929Z28.275
G1X27.322A314.519Z28.237
G1X27.076A314.050Z28.121
G1X25.019A310.122Z26.376
G1X22.809A305.900Z24.844
G1X20.322A301.151Z23.472
G1X17.529A295.816Z22.282
G1X14.459A289.953Z21.315
G1X11.113A283.562Z20.593
G1X7.552A276.761Z20.149
G1X3.868A269.726Z20.006
G1X0.215A262.749Z20.168
G1X0.000A262.339Z20.195
G1A263.328Z20.145
G1A264.482Z20.120
G1X2.978A270.169Z20.005
G1X6.631A277.146Z20.166
G1X10.192A283.947Z20.628
G1X13.507A290.279Z21.360
G1X16.577A296.142Z22.345
G1X19.340A301.419Z23.540
G1X21.827A306.168Z24.932
G1X24.006A310.331Z26.462
G1X25.971A314.083Z28.133
G1X26.216A314.552Z28.243
G1X26.462A315.021Z28.275
G1X26.677A315.432Z28.239
G1X26.892A315.842Z28.134
G1X28.979A319.829Z26.364
G1X31.190A324.050Z24.834
G1X33.645A328.740Z23.478
G1X36.439A334.076Z22.286
G1X39.509A339.939Z21.317
G1X40.000A340.877Z21.209
G1A343.021Z20.964
G1X38.219A339.620Z21.363
G1X35.150A333.757Z22.349
G1X32.387A328.481Z23.546
G1X29.931A323.790Z24.918
G1X27.721A319.569Z26.469
G1X25.756A315.817Z28.143
G1X25.541A315.406Z28.243
G1X25.295A314.937Z28.274
G1X25.050A314.468Z28.228
G1X24.835A314.058Z28.124
G1X22.748A310.071Z26.357
G1X20.568A305.908Z24.846
G1X18.081A301.159Z23.474
G1X15.288A295.824Z22.283
G1X12.218A289.961Z21.315
G1X8.872A283.570Z20.593
G1X5.311A276.769Z20.149
G1X1.627A269.734Z20.005
G1X0.000A266.626Z20.073
G1A268.770Z20.027
G1X0.767A270.236Z20.007
G1X4.390A277.154Z20.167
G1X7.920A283.897Z20.623
G1X11.266A290.287Z21.361
G1X14.336A296.150Z22.347
G1X17.099A301.427Z23.543
G1X19.555A306.117Z24.914
G1X21.765A310.339Z26.465
G1X23.730A314.091Z28.135
G1X23.975A314.560Z28.244
G1X24.221A315.029Z28.274
G1X24.467A315.498Z28.227
G1X24.651A315.850Z28.131
G1X26.738A319.837Z26.361
G1X28.918A323.999Z24.849
G1X31.404A328.748Z23.476
G1X34.198A334.084Z22.285
G1X37.268A339.946Z21.316
G1X40.000A345.165Z20.719
G1A346.401Z20.589
G1A347.308Z20.528
G1X39.294A345.960Z20.630
G1X35.979A339.628Z21.361
G1X32.909A333.765Z22.347
G1X30.146A328.488Z23.544
G1X27.690A323.798Z24.915
G1X25.480A319.577Z26.465
G1X23.515A315.824Z28.140
G1X23.300A315.414Z28.241
G1X23.054A314.945Z28.275
G1X22.809A314.476Z28.230
G1X22.594A314.065Z28.126
G1X20.507A310.079Z26.360
G1X18.327A305.916Z24.848
G1X15.840A301.167Z23.475
G1X13.047A295.832Z22.284
G1X9.977A289.969Z21.316
G1X6.631A283.578Z20.594
G1X3.070A276.777Z20.150
G1X0.000A270.914Z20.021
G1A273.058Z20.068
G1X2.149A277.162Z20.167
G1X5.679A283.904Z20.624
G1X9.025A290.295Z21.363
G1X12.095A296.158Z22.348
G1X14.858A301.435Z23.545
G1X17.314A306.125Z24.917
G1X19.524A310.346Z26.468
G1X21.489A314.099Z28.138
G1X21.734A314.568Z28.245
G1X21.980A315.037Z28.274
G1X22.195A315.447Z28.236
G1X22.410A315.858Z28.128
G1X24.497A319.844Z26.358
G1X26.677A324.007Z24.847
G1X29.163A328.756Z23.474
G1X31.957A334.091Z22.284
G1X35.027A339.954Z21.315
G1X38.373A346.345Z20.594
G1X40.000A349.452Z20.386
G1A351.596Z20.243
G1X37.053A345.968Z20.629
G1X33.738A339.636Z21.360
G1X30.668A333.773Z22.345
G1X27.905A328.496Z23.541
G1X25.418A323.747Z24.933
G1X23.239A319.584Z26.462
G1X21.274A315.832Z28.137
G1X21.059A315.422Z28.240
G1X20.814A314.953Z28.275
G1X20.568A314.484Z28.231
G1X20.353A314.073Z28.129
G1X18.266A310.086Z26.362
G1X16.086A305.924Z24.851
G1X13.599A301.175Z23.477
G1X10.806A295.839Z22.286
G1X7.705A289.918Z21.310
G1X4.359A283.527Z20.591
G1X0.798A276.726Z20.148
G1X0.000A275.202Z20.115
G1A277.181Z20.168
G1A277.346Z20.179
G1X3.438A283.912Z20.625
G1X6.784A290.303Z21.364
G1X9.854A296.166Z22.350
G1X12.617A301.442Z23.547
G1X15.073A306.133Z24.920
G1X17.252A310.295Z26.445
G1X19.217A314.048Z28.120
G1X19.463A314.517Z28.237
G1X19.708A314.986Z28.275
G1X19.954A315.455Z28.235
G1X20.169A315.865Z28.125
G1X22.256A319.852Z26.355
G1X24.436A324.015Z24.845
G1X26.922A328.764Z23.473
G1X29.716A334.099Z22.282
G1X32.786A339.962Z21.315
G1X36.132A346.353Z20.593
G1X39.693A353.154Z20.149
G1X40.000A353.740Z20.136
G1A355.884Z20.089
G1X38.342A352.718Z20.170
G1X34.812A345.975Z20.628
G1X31.497A339.644Z21.359
G1X28.427A333.781Z22.343
G1X25.664A328.504Z23.539
G1X23.177A323.755Z24.930
G1X20.998A319.592Z26.459
G1X19.002A315.781Z28.154
G1X18.787A315.371Z28.248
G1X18.542A314.902Z28.274
G1X18.327A314.491Z28.233
G1X18.081A314.022Z28.111
G1X16.025A310.094Z26.365
G1X13.814A305.873Z24.836
G1X11.358A301.182Z23.479
G1X8.565A295.847Z22.287
G1X5.464A289.926Z21.311
G1X2.118A283.535Z20.591
G1X0.000A279.490Z20.322
G1A281.633Z20.465
G1X1.197A283.920Z20.625
G1X4.543A290.311Z21.365
G1X7.613A296.174Z22.352
G1X10.376A301.450Z23.550
G1X12.832A306.141Z24.922
G1X15.012A310.303Z26.449
G1X16.976A314.056Z28.123
G1X17.222A314.525Z28.238
G1X17.467A314.994Z28.275
G1X17.713A315.463Z28.233
G1X17.928A315.873Z28.122
G1X19.985A319.801Z26.373
G1X22.195A324.023Z24.843
G1X24.682A328.772Z23.471
G1X27.475A334.107Z22.281
G1X30.545A339.970Z21.313
G1X33.891A346.361Z20.593
G1X37.452A353.162Z20.149
G1X40.000A358.028Z20.042
G1A360.000Z20.001
G1X39.910Z20.002
G1X36.134A352.788Z20.165
G1X32.573A345.987Z20.627
G1X29.257A339.654Z21.357
G1X26.187A333.791Z22.341
G1X23.424A328.514Z23.536
G1X20.937A323.765Z24.926
G1X18.758A319.602Z26.455
G1X16.762A315.791Z28.152
G1X16.547A315.380Z28.247
G1X16.302A314.911Z28.274
G1X16.056A314.442Z28.223
G1X15.841A314.032Z28.115
G1X13.784A310.103Z26.369
G1X11.574A305.882Z24.839
G1X9.087A301.133Z23.468
G1X6.324A295.856Z22.288
G1X3.224A289.934Z21.312
G1X0.000A283.777Z20.609
G1A285.921Z20.854
G1X2.303A290.320Z21.367
G1X5.344A296.127Z22.342
G1X8.108A301.406Z23.537
G1X10.595A306.156Z24.929
G1X12.776A310.321Z26.457
G1X14.741A314.075Z28.129
G1X14.987A314.544Z28.242
G1X15.232A315.013Z28.275
G1X15.478A315.482Z28.230
G1X15.662A315.834Z28.136
G1X17.751A319.823Z26.366
G1X19.962A324.046Z24.835
G1X22.419A328.738Z23.478
G1X25.213A334.075Z22.286
G1X28.285A339.941Z21.317
G1X31.663A346.392Z20.590
G1X35.194A353.138Z20.149
G1X38.788A360.000Z20.002
G1X37.665Z20.001
G1X33.889A352.789Z20.165
G1X30.329A345.988Z20.627
G1X26.983A339.598Z21.366
G1X23.944A333.794Z22.341
G1X21.181A328.517Z23.535
G1X18.694A323.769Z24.925
G1X16.515A319.606Z26.453
G1X14.520A315.795Z28.150
G1X14.305A315.385Z28.246
G1X14.059A314.916Z28.274
G1X13.844A314.506Z28.235
G1X13.599A314.037Z28.116
G1X11.542A310.109Z26.371
G1X9.332A305.888Z24.840
G1X6.845A301.139Z23.469
G1X4.083A295.862Z22.290
G1X0.982A289.941Z21.313
G1X0.000A288.065Z21.099
G1A290.209Z21.348
G1X3.102A296.132Z22.343
G1X5.865A301.411Z23.538
G1X8.353A306.161Z24.930
G1X10.533A310.325Z26.459
G1X12.498A314.079Z28.131
G1X12.744A314.548Z28.242
G1X12.989A315.017Z28.275
G1X13.235A315.486Z28.229
G1X13.450A315.897Z28.113
G1X15.508A319.826Z26.365
G1X17.719A324.049Z24.835
G1X20.175A328.741Z23.478
G1X22.970A334.078Z22.286
G1X26.040A339.942Z21.317
G1X29.418A346.394Z20.590
G1X32.950A353.138Z20.149
G1X36.543A360.000Z20.001
G1X35.420Z20.001
G1X31.645A352.790Z20.165
G1X28.084A345.990Z20.626
G1X24.739A339.600Z21.366
G1X21.700A333.797Z22.340
G1X18.938A328.521Z23.534
G1X16.452A323.773Z24.924
G1X14.272A319.611Z26.450
G1X12.277A315.801Z28.148
G1X12.062A315.390Z28.245
G1X11.817A314.921Z28.274
G1X11.602A314.511Z28.236
G1X11.356A314.042Z28.118
G1X9.300A310.115Z26.373
G1X7.090A305.894Z24.842
G1X4.604A301.146Z23.471
G1X1.811A295.811Z22.281
G1X0.000A292.353Z21.705
G1A294.497Z22.062
G1X0.890A296.197Z22.357
G1X3.623A301.416Z23.540
G1X6.110A306.166Z24.932
G1X8.290A310.330Z26.461
G1X10.255A314.083Z28.133
G1X10.501A314.552Z28.243
G1X10.747A315.021Z28.274
G1X10.962A315.432Z28.239
G1X11.177A315.842Z28.134
G1X13.265A319.830Z26.363
G1X15.475A324.052Z24.833
G1X17.932A328.744Z23.477
G1X20.726A334.080Z22.285
G1X23.796A339.944Z21.317
G1X27.174A346.395Z20.590
G1X30.705A353.139Z20.149
G1X34.297A360.000Z20.001
G1X33.175Z20.002
G1X29.397A352.784Z20.165
G1X25.833A345.979Z20.628
G1X22.516A339.643Z21.359
G1X19.444A333.776Z22.344
G1X16.680A328.496Z23.541
G1X14.191A323.744Z24.934
G1X12.011A319.579Z26.464
G1X10.045A315.824Z28.140
G1X9.830A315.414Z28.242
G1X9.584A314.944Z28.275
G1X9.338A314.475Z28.230
G1X9.123A314.064Z28.126
G1X7.034A310.075Z26.359
G1X4.853A305.910Z24.847
G1X2.365A301.158Z23.473
G1X0.000A296.641Z22.457
G1A298.784Z22.940
G1X1.382A301.423Z23.542
G1X3.838A306.114Z24.912
G1X6.048A310.336Z26.464
G1X8.013A314.088Z28.134
G1X8.259A314.557Z28.244
G1X8.504A315.027Z28.275
G1X8.750A315.496Z28.227
G1X8.934A315.847Z28.132
G1X11.022A319.835Z26.361
G1X13.202A323.998Z24.850
G1X15.688A328.747Z23.476
G1X18.482A334.083Z22.285
G1X21.552A339.947Z21.316
G1X24.899A346.338Z20.594
G1X28.460A353.140Z20.149
G1X32.052A360.000Z20.002
G1X30.930Z20.001
G1X27.152A352.785Z20.165
G1X23.589A345.980Z20.628
G1X20.272A339.645Z21.359
G1X17.200A333.779Z22.344
G1X14.436A328.499Z23.540
G1X11.948A323.747Z24.933
G1X9.767A319.583Z26.463
G1X7.802A315.828Z28.139
G1X7.587A315.418Z28.241
G1X7.341A314.948Z28.275
G1X7.095A314.479Z28.230
G1X6.880A314.068Z28.127
G1X4.792A310.079Z26.360
G1X2.611A305.915Z24.848
G1X0.123A301.163Z23.475
G1X0.000A300.928Z23.422
G1X0.000A301.670Z23.614
G1X0.000A303.072Z24.021
G1X1.627A306.179Z24.936
G1X3.806A310.342Z26.467
G1X5.771A314.094Z28.136
G1X6.017A314.563Z28.244
G1X6.262A315.032Z28.274
G1X6.477A315.443Z28.237
G1X6.692A315.853Z28.130
G1X8.780A319.840Z26.360
G1X10.959A324.002Z24.848
G1X13.446A328.751Z23.475
G1X16.239A334.086Z22.284
G1X19.309A339.949Z21.316
G1X22.685A346.398Z20.590
G1X26.216A353.141Z20.149
G1X29.807A360.000Z20.001
G1X28.685Z20.001
G1X24.907A352.785Z20.165
G1X21.345A345.981Z20.627
G1X18.028A339.647Z21.359
G1X14.957A333.781Z22.343
G1X12.193A328.502Z23.539
G1X9.705A323.751Z24.931
G1X7.524A319.587Z26.461
G1X5.559A315.833Z28.137
G1X5.344A315.422Z28.240
G1X5.098A314.953Z28.275
G1X4.852A314.484Z28.231
G1X4.637A314.073Z28.129
G1X2.549A310.084Z26.362
G1X0.369A305.920Z24.849
G1X0.000A305.216Z24.645
G1A306.206Z24.946
G1A307.360Z25.367
G1X1.565A310.350Z26.470
G1X3.499A314.043Z28.118
G1X3.745A314.512Z28.236
G1X3.990A314.980Z28.275
G1X4.236A315.449Z28.236
G1X4.450A315.860Z28.127
G1X6.538A319.846Z26.357
G1X8.717A324.008Z24.847
G1X11.203A328.756Z23.474
G1X13.996A334.090Z22.284
G1X17.065A339.952Z21.316
G1X20.441A346.400Z20.590
G1X23.971A353.142Z20.149
G1X27.562A360.000Z20.001
G1X26.440Z20.001
G1X22.663A352.786Z20.165
G1X19.100A345.983Z20.627
G1X15.784A339.649Z21.358
G1X12.713A333.784Z22.343
G1X9.949A328.506Z23.538
G1X7.462A323.755Z24.930
G1X5.282A319.591Z26.459
G1X3.286A315.779Z28.155
G1X3.071A315.369Z28.248
G1X2.825A314.899Z28.274
G1X2.610A314.489Z28.232
G1X2.365A314.020Z28.110
G1X0.307A310.090Z26.364
G1X0.000A309.504Z26.150
G1A310.411Z26.497
G1A311.648Z27.052
G1X1.258A314.051Z28.121
G1X1.504A314.520Z28.237
G1X1.749A314.988Z28.275
G1X1.995A315.457Z28.234
G1X2.210A315.868Z28.124
G1X4.266A319.794Z26.376
G1X6.475A324.014Z24.845
G1X8.961A328.761Z23.473
G1X11.753A334.095Z22.283
G1X14.822A339.956Z21.315
G1X18.167A346.344Z20.594
G1X21.727A353.143Z20.149
G1X25.317A360.000Z20.002
G1X24.195Z20.002
G1X20.418A352.787Z20.165
G1X16.856A345.985Z20.627
G1X13.540A339.652Z21.358
G1X10.470A333.788Z22.342
G1X7.707A328.510Z23.537
G1X5.220A323.760Z24.928
G1X3.040A319.597Z26.457
G1X1.044A315.785Z28.153
G1X0.829A315.375Z28.247
G1X0.583A314.906Z28.274
G1X0.368A314.495Z28.233
G1X0.123A314.026Z28.113
G1X0.000A313.792Z28.012
G1A314.204Z28.169
G1A314.699Z28.261
G1A315.111Z28.272
G1A315.523Z28.222
G1A315.935Z28.097
G1X2.028A319.808Z26.371
G1X4.240A324.033Z24.839
G1X6.728A328.785Z23.468
G1X9.493A334.066Z22.288
G1X12.565A339.933Z21.318
G1X15.945A346.388Z20.591
G1X19.478A353.135Z20.149
G1X23.072A360.000Z20.001
G1X21.950Z20.001
G1X18.174A352.788Z20.165
G1X14.613A345.987Z20.626
G1X11.266A339.597Z21.366
G1X8.227A333.792Z22.341
G1X5.464A328.516Z23.535
G1X2.978A323.766Z24.926
G1X0.798A319.604Z26.454
G1X0.000A318.079Z27.136
G1A319.811Z26.370
G1A320.223Z26.220
G1X1.997A324.037Z24.838
G1X4.485A328.789Z23.467
G1X7.250A334.069Z22.287
G1X10.321A339.936Z21.318
G1X13.700A346.389Z20.590
G1X17.264A353.195Z20.148
G1X20.827A360.000Z20.001
G1X19.705Z20.001
G1X15.929A352.790Z20.165
G1X12.369A345.990Z20.626
G1X9.024A339.601Z21.366
G1X5.985A333.798Z22.340
G1X3.192A328.463Z23.550
G1X0.737A323.774Z24.923
G1X0.000A322.367Z25.437
G1A324.016Z24.844
G1A324.511Z24.701
G1X2.211A328.734Z23.479
G1X5.006A334.073Z22.287
G1X8.078A339.938Z21.317
G1X11.456A346.391Z20.590
G1X14.988A353.137Z20.149
G1X18.582A360.000Z20.002
G1X17.459Z20.002
G1X13.655A352.733Z20.169
G1X10.126A345.994Z20.626
G1X6.781A339.606Z21.365
G1X3.713A333.746Z22.351
G1X0.951A328.472Z23.548
G1X0.000A326.655Z24.077
G1A328.799Z23.465
G1X2.764A334.077Z22.286
G1X5.835A339.942Z21.317
G1X9.213A346.393Z20.590
G1X12.744A353.138Z20.149
G1X16.337A360.000Z20.002
G1X15.214Z20.001
G1X11.441A352.794Z20.164
G1X7.883A345.999Z20.625
G1X4.540A339.613Z21.364
G1X1.472A333.755Z22.350
G1X0.000A330.943Z22.982
G1A333.087Z22.500
G1X0.553A334.142Z22.275
G1X3.592A339.947Z21.316
G1X6.969A346.397Z20.590
G1X10.500A353.140Z20.149
G1X14.092A360.000Z20.001
G1X12.969Z20.001
G1X9.189A352.780Z20.165
G1X5.624A345.972Z20.628
G1X2.305A339.633Z21.361
G1X0.000A335.230Z22.094
G1A337.374Z21.737
G1X1.350A339.953Z21.316
G1X4.696A346.342Z20.594
G1X8.256A353.142Z20.149
G1X11.847A360.000Z20.001
G1X10.724Z20.002
G1X6.945A352.781Z20.165
G1X3.380A345.974Z20.628
G1X0.061A339.636Z21.360
G1X0.000A339.518Z21.380
G1A340.673Z21.234
G1A341.662Z21.121
G1X2.454A346.349Z20.593
G1X6.013A353.145Z20.149
G1X9.602A360.000Z20.002
G1X8.479Z20.001
G1X4.700A352.783Z20.165
G1X1.137A345.977Z20.628
G1X0.000A343.806Z20.876
G1A345.950Z20.631
G1X1.533A348.877Z20.425
G1X3.770A353.151Z20.149
G1X7.357A360.000Z20.001
G1X6.234Z20.001
G1X2.457A352.786Z20.165
G1X0.000A348.094Z20.477
G1A350.238Z20.335
G1X1.540A353.178Z20.149
G1X5.112A360.000Z20.001
G1X3.989Z20.002
G1X0.215A352.792Z20.165
G1X0.000A352.381Z20.192
G1A353.288Z20.146
G1A354.525Z20.119
G1X2.867A360.000Z20.002
G1X1.744Z20.002
G1X0.000A356.669Z20.073
G1A358.813Z20.026
G1X0.621A360.000Z20.001
G1X0.000A360.000Z20.002
G0X0.000A360.000Z30.200
M5
G0Z30.200
G0X0.000A0.000
M2
