(VECTRIC POST REVISION)
(73AEA2D9E9B67AE7697F0CF21BDB8954)
T1
G17
G21
G90
G0Z30.200
G0X0.000A0.000
S28500M3
G0X40.000A0.000Z30.200
G1Z20.000F1500.0
G1X40.000A2.144Z20.000F3000.0
G1X38.877A0.000Z20.000
G0Z30.200
G0X40.000A4.288
G1Z20.000F1500.0
G1X37.755A0.000F3000.0
G1X36.632
G1X40.000A6.432Z20.000
G1A8.576Z20.000
G1X35.510A0.000
G1X34.387
G1X40.000A10.720Z20.000
G1A12.863Z20.000
G1X33.265A0.000Z20.000
G1X32.142
G1X40.000A15.007Z20.000
G1A17.151Z20.000
G1X31.020A0.000Z20.000
G1X29.897
G1X40.000A19.295Z20.000
G1A21.439Z20.000
G1X28.775A0.000Z20.000
G1X27.652
G1X40.000A23.583Z20.000
G1A25.727
G1X26.530A0.000Z20.000
G1X25.407
G1X40.000A27.871Z20.000
G1A30.014
G1X24.284A0.000Z20.000
G1X23.162
G1X40.000A32.158Z20.000
G1A34.302Z20.000
G1X22.039A0.000
G1X20.917
G1X40.000A36.446
G1A38.590Z20.000
G1X19.794A0.000Z20.000
G1X18.672
G1X40.000A40.734
G1A42.878Z20.000
G1X17.549A0.000Z20.000
G1X16.427
G1X40.000A45.022
G1A47.165Z20.000
G1X15.304A0.000Z20.000
G1X14.182
G1X40.000A49.309Z20.000
G1A51.453Z20.000
G1X13.059A0.000Z20.000
G1X11.937
G1X40.000A53.597
G1A55.741Z20.000
G1X10.814A0.000Z20.000
G1X9.692
G1X40.000A57.885Z20.000
G1A60.029Z20.000
G1X8.569A0.000Z20.000
G1X7.447
G1X40.000A62.173
G1A64.316Z20.000
G1X6.324A0.000Z20.000
G1X5.201
G1X40.000A66.460Z20.000
G1A68.604
G1X4.079A0.000Z20.000
G1X2.956
G1X40.000A70.748Z20.000
G1A72.892Z20.000
G1X1.834A0.000Z20.000
G1X0.711
G1X40.000A75.036Z20.000
G1A77.180Z20.000
G1X0.000A0.785Z20.000
G1A2.929Z20.000
G1X40.000A79.324Z20.000
G1A81.468
G1X0.000A5.073
G1A7.217Z20.000
G1X40.000A83.611Z20.000
G1A85.755Z20.000
G1X0.000A9.361Z20.000
G1A11.505Z20.000
G1X40.000A87.899Z20.000
G1A90.043
G1X0.000A13.649
G1A15.793Z20.000
G1X40.000A92.187
G1A94.331Z20.000
G1X0.000A17.936Z20.000
G1A20.080Z20.000
G1X40.000A96.475Z20.000
G1A98.619
G1X0.000A22.224
G1A24.368Z20.000
G1X40.000A100.762Z20.000
G1A102.906Z20.000
G1X0.000A26.512Z20.000
G1A28.656
G1X40.000A105.050Z20.000
G1A107.194Z20.000
G1X0.000A30.800Z20.000
G1A32.944Z20.000
G1X40.000A109.338Z20.000
G1A111.482
G1X0.000A35.087
G1A37.231Z20.000
G1X40.000A113.626Z20.000
G1A115.770Z20.000
G1X0.000A39.375Z20.000
G1A41.519Z20.000
G1X40.000A117.913Z20.000
G1A120.057Z20.000
G1X0.000A43.663Z20.000
G1A45.807
G1X40.000A122.201Z20.000
G1A124.345Z20.000
G1X0.000A47.951Z20.000
G1A50.095Z20.000
G1X40.000A126.489
G1A128.633Z20.000
G1X0.000A52.238Z20.000
G1A54.382Z20.000
G1X40.000A130.777
G1A132.921Z20.000
G1X0.000A56.526
G1A58.670
G1X40.000A135.064
G1A137.208Z20.000
G1X0.000A60.814
G1A62.958Z20.000
G1X40.000A139.352Z20.000
G1A141.496
G1X0.000A65.102Z20.000
G1A67.246Z20.000
G1X40.000A143.640
G1A145.784
G1X0.000A69.389Z20.000
G1A71.533Z20.000
G1X40.000A147.928Z20.000
G1A150.072
G1X0.000A73.677Z20.000
G1A75.821Z20.000
G1X40.000A152.215
G1A154.359Z20.000
G1X0.000A77.965Z20.000
G1A80.109Z20.000
G1X40.000A156.503Z20.000
G1A158.647
G1X0.000A82.253
G1A84.397Z20.000
G1X40.000A160.791Z20.000
G1A162.935Z20.000
G1X0.000A86.541Z20.000
G1A88.684Z20.000
G1X40.000A165.079Z20.000
G1A167.223Z20.000
G1X0.000A90.828Z20.000
G1A92.972Z20.000
G1X40.000A169.367Z20.000
G1A171.510
G1X0.000A95.116Z20.000
G1A97.260Z20.000
G1X40.000A173.654Z20.000
G1A175.798Z20.000
G1X0.000A99.404Z20.000
G1A101.548
G1X40.000A177.942Z20.000
G1A180.086
G1X0.000A103.692Z20.000
G1A105.835
G1X40.000A182.230Z20.000
G1A184.374Z20.000
G1X0.000A107.979Z20.000
G1A110.123Z20.000
G1X40.000A186.518Z20.000
G1A188.661
G1X0.000A112.267
G1A114.411Z20.000
G1X40.000A190.805Z20.000
G1A192.949Z20.000
G1X0.000A116.555
G1A118.699Z20.000
G1X40.000A195.093Z20.000
G1A197.237Z20.000
G1X0.000A120.843
G1A122.986Z20.000
G1X40.000A199.381Z20.000
G1A201.525Z20.000
G1X0.000A125.130Z20.000
G1A127.274Z20.000
G1X40.000A203.669Z20.000
G1A205.812
G1X0.000A129.418Z20.000
G1A131.562Z20.000
G1X40.000A207.956Z20.000
G1A210.100Z20.000
G1X0.000A133.706Z20.000
G1A135.850
G1X40.000A212.244Z20.000
G1A214.388
G1X0.000A137.994Z20.000
G1A140.137Z20.000
G1X40.000A216.532Z20.000
G1A218.676Z20.000
G1X0.000A142.281Z20.000
G1A144.425Z20.000
G1X40.000A220.820Z20.000
G1A222.963Z20.000
G1X0.000A146.569Z20.000
G1A148.713Z20.000
G1X40.000A225.107Z20.000
G1A227.251Z20.000
G1X0.000A150.857Z20.000
G1A153.001Z20.000
G1X40.000A229.395
G1A231.539
G1X0.000A155.145Z20.000
G1A157.288Z20.000
G1X40.000A233.683Z20.000
G1A235.827
G1X0.000A159.432Z20.000
G1A161.576Z20.000
G1X40.000A237.971
G1A240.114Z20.000
G1X0.000A163.720Z20.000
G1A165.864Z20.000
G1X40.000A242.258Z20.000
G1A244.402Z20.000
G1X0.000A168.008Z20.000
G1A170.152
G1X40.000A246.546
G1A248.690
G1X0.000A172.296
G1A174.440Z20.000
G1X40.000A250.834Z20.000
G1A252.978Z20.000
G1X0.000A176.583Z20.000
G1Z28.690
G1X0.031A178.786
G1Z20.000
G1X40.000A255.122Z20.000
G1A257.266Z20.000
G1X0.031A180.930Z20.000
G1Z28.690
G1X0.000A183.015
G1Z20.000
G1X40.000A259.409
G1A261.553Z20.000
G1X0.000A185.159Z20.000
G1A187.303Z20.000
G1X40.000A263.697Z20.000
G1A265.841Z20.000
G1X0.000A189.447Z20.000
G1X0.000A191.591Z20.000
G1X40.000A267.985
G1A270.129
G1X0.000A193.734Z20.000
G1A195.878Z20.000
G1X40.000A272.273Z20.000
G1A274.417Z20.000
G1X0.000A198.022Z20.000
G1A200.166Z20.000
G1X40.000A276.560Z20.000
G1A278.704Z20.000
G1X0.000A202.310Z20.000
G1A204.454Z20.000
G1X40.000A280.848
G1A282.992
G1X0.000A206.598Z20.000
G1A208.742Z20.000
G1X40.000A285.136Z20.000
G1A287.280Z20.000
G1X0.000A210.885Z20.000
G1A213.029
G1X40.000A289.424Z20.000
G1A291.568Z20.000
G1X0.000A215.173Z20.000
G1A217.317Z20.000
G1X40.000A293.711Z20.000
G1A295.855Z20.000
G1X0.000A219.461
G1A221.605
G1X40.000A297.999Z20.000
G1A300.143
G1X0.000A223.749Z20.000
G1A225.893
G1X40.000A302.287
G1A304.431
G1X0.000A228.036Z20.000
G1A230.180Z20.000
G1X40.000A306.575Z20.000
G1A308.719
G1X0.000A232.324Z20.000
G1X0.000A234.468Z20.000
G1X40.000A310.862Z20.000
G1A313.006Z20.000
G1X0.000A236.612Z20.000
G1A238.756Z20.000
G1X40.000A315.150
G1A317.294Z20.000
G1X0.000A240.900Z20.000
G1A243.044Z20.000
G1X40.000A319.438Z20.000
G1A321.582Z20.000
G1X0.000A245.187Z20.000
G1A247.331Z20.000
G1X40.000A323.726
G1A325.870Z20.000
G1X0.000A249.475Z20.000
G1A251.619Z20.000
G1X40.000A328.014
G1A330.157Z20.000
G1X0.000A253.763Z20.000
G1X0.000A255.907Z20.000
G1X40.000A332.301Z20.000
G1A334.445
G1X0.000A258.051Z20.000
G1A260.195
G1X40.000A336.589Z20.000
G1A338.733
G1X0.000A262.339Z20.000
G1A264.482Z20.000
G1X40.000A340.877Z20.000
G1A343.021Z20.000
G1X0.000A266.626Z20.000
G1A268.770Z20.000
G1X40.000A345.165Z20.000
G1A347.308Z20.000
G1X0.000A270.914
G1A273.058Z20.000
G1X40.000A349.452Z20.000
G1A351.596Z20.000
G1X0.000A275.202
G1A277.346Z20.000
G1X40.000A353.740Z20.000
G1A355.884Z20.000
G1X0.000A279.490Z20.000
G1A281.633Z20.000
G1X40.000A358.028Z20.000
G1A360.000
G1X39.910
G1X0.000A283.777Z20.000
G1A285.921Z20.000
G1X38.788A360.000
G1X37.665
G1X0.000A288.065
G1A290.209
G1X36.543A360.000
G1X35.420
G1X0.000A292.353Z20.000
G1A294.497
G1X34.297A360.000Z20.000
G1X33.175
G1X0.000A296.641Z20.000
G1A298.784Z20.000
G1X32.052A360.000Z20.000
G1X30.930
G1X0.000A300.928Z20.000
G1X0.000A303.072Z20.000
G1X29.807A360.000Z20.000
G1X28.685
G1X0.000A305.216
G1A307.360Z20.000
G1X27.562A360.000Z20.000
G1X26.440
G1X0.000A309.504Z20.000
G1A311.648Z20.000
G1X25.317A360.000Z20.000
G1X24.195
G1X0.000A313.792Z20.000
G1A315.935Z20.000
G1X23.072A360.000Z20.000
G1X21.950
G1X0.000A318.079Z20.000
G1A320.223Z20.000
G1X20.827A360.000Z20.000
G1X19.705
G1X0.000A322.367
G1A324.511Z20.000
G1X18.582A360.000Z20.000
G1X17.459
G1X0.000A326.655Z20.000
G1A328.799Z20.000
G1X16.337A360.000
G1X15.214
G1X0.000A330.943Z20.000
G1A333.087Z20.000
G1X14.092A360.000
G1X12.969
G1X0.000A335.230Z20.000
G1A337.374Z20.000
G1X11.847A360.000Z20.000
G1X10.724
G1X0.000A339.518
G1A341.662Z20.000
G1X9.602A360.000Z20.000
G1X8.479
G1X0.000A343.806
G1A345.950
G1X7.357A360.000
G1X6.234
G1X0.000A348.094Z20.000
G1A350.238Z20.000
G1X5.112A360.000Z20.000
G1X3.989
G1X0.000A352.381Z20.000
G1A354.525Z20.000
G1X2.867A360.000Z20.000
G1X1.744
G1X0.000A356.669Z20.000
G1A358.813Z20.000
G1X0.621A360.000Z20.000
G1X0.000A360.000
G0X0.000A360.000Z30.200
M5
G0Z30.200
G0X0.000A0.000
M2
