(VECTRIC POST REVISION)
(73AEA2D9E9B67AE7697F0CF21BDB8954)
T1
G17
G21
G90
G0Z47.200
G0X0.000A0.000
S28500M3
G0X0.000A0.000Z47.200
G1Z20.000F1500.0
G1A360.000F3000.0
G1X0.079
G1A0.000
G1X0.159
G1A360.000
G1X0.238
G1A0.000
G1X0.318
G1A360.000
G1X0.397
G1A0.000
G1X0.476
G1A360.000
G1X0.556
G1A0.000
G1X0.635
G1A360.000
G1X0.714
G1A0.000
G1X0.794
G1A360.000
G1X0.873
G1A0.000
G1X0.953
G1A360.000
G1X1.032
G1A0.000
G1X1.111
G1A360.000
G1X1.191
G1A0.000
G1X1.270
G1A360.000
G1X1.349
G1A0.000
G1X1.429
G1A360.000
G1X1.508
G1A0.000
G1X1.588
G1A360.000
G1X1.667
G1A0.000
G1X1.746
G1A360.000
G1X1.826
G1A0.000
G1X1.905
G1A360.000
G1X1.984
G1A0.000
G1X2.064
G1A360.000
G1X2.143
G1A0.000
G1X2.223
G1A360.000
G1X2.302
G1A0.000
G1X2.381
G1A360.000
G1X2.461
G1A0.000
G1X2.540
G1A360.000
G1X2.619
G1A0.000
G1X2.699
G1A360.000
G1X2.778
G1A0.000
G1X2.858
G1A360.000
G1X2.937
G1A0.000
G1X3.016
G1A360.000
G1X3.096
G1A0.000
G1X3.175
G1A360.000
G1X3.254
G1A0.000
G1X3.334
G1A360.000
G1X3.413
G1A0.000
G1X3.493
G1A360.000
G1X3.572
G1A0.000
G1X3.651
G1A360.000
G1X3.731
G1A0.000
G1X3.810
G1A360.000
G1X3.889
G1A0.000
G1X3.969
G1A360.000
G1X4.048
G1A0.000
G1X4.128
G1A360.000
G1X4.207
G1A0.000
G1X4.286
G1A360.000
G1X4.366
G1A0.000
G1X4.445
G1A360.000
G1X4.524
G1A0.000
G1X4.604
G1A360.000
G1X4.683Z20.115
G1A356.704Z20.129
G1A352.859Z20.057
G1A350.662Z20.000
G1A3.955Z20.010
G1A0.000Z20.115
G1X4.763Z20.327
G1A3.735Z20.224
G1A9.338Z20.000
G1A345.609Z20.009
G1A353.738Z20.286
G1A357.254Z20.343
G1A360.000Z20.327
G1X4.842Z20.532
G1A356.924Z20.545
G1A353.409Z20.477
G1A339.786Z20.000
G1A13.622Z20.009
G1A2.417Z20.472
G1A0.000Z20.532
G1X4.921Z20.729
G1A3.406Z20.633
G1A14.062Z20.171
G1A19.005Z20.000
G1A335.172Z20.008
G1A349.344Z20.521
G1A354.617Z20.702
G1A357.913Z20.746
G1A360.000Z20.729
G1X5.001Z20.918
G1A357.034Z20.928
G1A353.628Z20.857
G1A340.336Z20.361
G1A331.987Z20.051
G1A330.339Z20.000
G1A22.850Z20.006
G1A10.436Z20.493
G1A2.746Z20.844
G1A0.000Z20.918
G1X5.080Z21.106
G1A3.406Z21.007
G1A13.842Z20.537
G1A22.960Z20.183
G1A27.135Z20.000
G1A326.274Z20.009
G1A341.984Z20.604
G1A354.178Z21.062
G1A357.473Z21.120
G1A360.000Z21.106
G1X5.159Z21.306
G1A357.034Z21.315
G1A353.628Z21.240
G1A322.319Z20.036
G1A320.891Z20.000
G1A30.540Z20.007
G1A19.774Z20.496
G1A11.096Z20.838
G1A2.856Z21.227
G1A0.000Z21.306
G1X5.239Z21.500
G1A3.186Z21.408
G1A13.732Z20.904
G1A22.850Z20.538
G1A34.605Z20.000
G1A317.266Z20.006
G1A336.930Z20.768
G1A350.442Z21.304
G1A355.056Z21.471
G1A358.132Z21.514
G1A360.000Z21.500
G1X5.318Z21.689
G1A357.144Z21.695
G1A353.848Z21.617
G1A324.077Z20.423
G1A314.739Z20.052
G1A313.311Z20.000
G1A38.560Z20.006
G1A32.518Z20.251
G1A19.554Z20.851
G1A11.645Z21.172
G1A3.076Z21.601
G1A0.000Z21.689
G1X5.398Z21.870
G1A3.076Z21.782
G1A9.008Z21.479
G1A14.831Z21.202
G1A22.850Z20.873
G1A35.264Z20.290
G1A43.393Z20.000
G1A310.455Z20.010
G1A321.770Z20.490
G1A340.775Z21.257
G1A354.507Z21.815
G1A357.693Z21.879
G1A360.000Z21.870
G1X5.477Z22.045
G1A357.254Z22.048
G1A353.848Z21.962
G1A323.528Z20.708
G1A310.894Z20.173
G1A307.269Z20.000
G1A47.348Z20.010
G1A35.264Z20.443
G1A19.225Z21.193
G1A11.974Z21.495
G1A3.296Z21.948
G1A0.330Z22.040
G1A0.000Z22.045
G1X5.556Z22.212
G1A2.966Z22.130
G1A7.690Z21.888
G1A13.622Z21.577
G1A23.070Z21.177
G1A35.154Z20.600
G1A43.393Z20.303
G1A49.985Z20.052
G1A51.413Z20.000
G1A304.632Z20.006
G1A312.103Z20.380
G1A325.725Z20.948
G1A350.333Z21.976
G1A355.166Z22.167
G1A358.132Z22.220
G1A360.000Z22.212
G1X5.636Z22.377
G1A357.254Z22.377
G1A353.848Z22.289
G1A311.993Z20.525
G1A304.083Z20.127
G1A301.776Z20.000
G1A54.049Z20.010
G1A48.227Z20.284
G1A35.044Z20.765
G1A19.445Z21.504
G1A12.194Z21.809
G1A3.406Z22.276
G1A0.439Z22.370
G1A0.000Z22.377
G1X5.715Z22.551
G1A2.966Z22.470
G1A7.360Z22.246
G1A13.512Z21.915
G1A23.399Z21.490
G1A35.374Z20.909
G1A44.602Z20.575
G1A50.754Z20.328
G1A57.125Z20.000
G1A299.359Z20.004
G1A307.928Z20.476
G1A318.255Z20.947
G1A351.321Z22.353
G1A355.606Z22.515
G1A358.572Z22.559
G1A360.000Z22.551
G1X5.794Z22.720
G1A357.254Z22.715
G1A353.958Z22.626
G1A312.762Z20.849
G1A304.193Z20.424
G1A296.723Z20.000
G1A59.323Z20.010
G1A52.841Z20.376
G1A46.799Z20.646
G1A35.484Z21.058
G1A26.366Z21.505
G1A18.456Z21.872
G1A12.304Z22.139
G1A3.625Z22.613
G1A0.659Z22.709
G1A0.000Z22.720
G1X5.874Z22.883
G1A2.856Z22.811
G1A6.811Z22.613
G1A13.403Z22.246
G1A23.070Z21.822
G1A35.594Z21.205
G1A43.943Z20.898
G1A50.424Z20.639
G1A56.796Z20.307
G1A61.739Z20.000
G1A294.745Z20.003
G1A301.117Z20.393
G1A309.796Z20.850
G1A334.623Z21.953
G1A354.837Z22.816
G1A358.023Z22.886
G1A360.000Z22.883
G1X5.953Z23.041
G1A357.254Z23.033
G1A353.848Z22.935
G1A324.187Z21.643
G1A307.269Z20.861
G1A298.261Z20.366
G1A292.328Z20.000
G1A63.607Z20.003
G1A58.004Z20.378
G1A51.413Z20.735
G1A45.041Z21.002
G1A35.813Z21.343
G1A27.464Z21.758
G1A19.005Z22.162
G1A12.743Z22.436
G1A3.845Z22.930
G1A0.879Z23.028
G1A0.000Z23.041
G1X6.033Z23.194
G1A2.856Z23.126
G1A6.701Z22.936
G1A13.732Z22.540
G1A23.399Z22.111
G1A35.813Z21.487
G1A45.041Z21.143
G1A51.413Z20.874
G1A58.114Z20.510
G1A63.717Z20.133
G1A65.694Z20.000
G1A290.351Z20.007
G1A301.446Z20.683
G1A310.565Z21.154
G1A334.074Z22.230
G1A354.947Z23.125
G1A358.132Z23.195
G1A360.000Z23.194
G1X6.112Z23.342
G1A357.254Z23.329
G1A353.738Z23.225
G1A327.373Z22.073
G1A306.390Z21.086
G1A297.931Z20.616
G1A287.824Z20.000
G1A67.342Z20.009
G1A59.103Z20.589
G1A52.292Z20.969
G1A46.140Z21.239
G1A36.033Z21.618
G1A27.904Z22.030
G1A19.664Z22.431
G1A12.963Z22.727
G1A4.065Z23.226
G1A1.099Z23.326
G1A0.000Z23.342
G1X6.191Z23.489
G1A2.856Z23.423
G1A6.591Z23.241
G1A13.842Z22.830
G1A23.949Z22.378
G1A36.033Z21.765
G1A49.326Z21.252
G1A55.807Z20.927
G1A61.190Z20.595
G1A69.429Z20.000
G1A285.737Z20.007
G1A301.776Z20.978
G1A311.224Z21.461
G1A333.744Z22.508
G1A354.947Z23.417
G1A358.132Z23.489
G1A360.000Z23.489
G1X6.271Z23.642
G1A357.144Z23.626
G1A353.518Z23.515
G1A328.142Z22.405
G1A304.522Z21.263
G1A296.832Z20.824
G1A283.430Z20.010
G1A71.187Z20.007
G1A60.201Z20.803
G1A54.269Z21.153
G1A47.678Z21.466
G1A35.813Z21.922
G1A21.971Z22.626
G1A12.963Z23.030
G1A4.284Z23.519
G1A1.318Z23.622
G1A0.000Z23.642
G1X6.350Z23.791
G1A2.856Z23.730
G1A6.482Z23.558
G1A14.171Z23.122
G1A24.718Z22.644
G1A36.143Z22.052
G1A49.326Z21.534
G1A56.137Z21.190
G1A61.739Z20.839
G1A73.164Z20.000
G1A281.013Z20.007
G1A290.571Z20.569
G1A301.776Z21.248
G1A311.663Z21.749
G1A333.305Z22.789
G1A354.947Z23.715
G1A358.132Z23.789
G1A360.000Z23.791
G1X6.429Z23.937
G1A357.144Z23.918
G1A353.409Z23.801
G1A329.460Z22.758
G1A311.663Z21.879
G1A301.666Z21.372
G1A289.912Z20.660
G1A280.134Z20.085
G1A278.486Z20.000
G1A74.812Z20.008
G1A60.861Z21.036
G1A54.928Z21.394
G1A47.788Z21.739
G1A35.923Z22.205
G1A22.850Z22.882
G1A13.073Z23.328
G1A4.504Z23.810
G1A1.428Z23.916
G1A0.000Z23.937
G1X6.509Z24.078
G1A2.856Z24.020
G1A6.372Z23.860
G1A14.611Z23.396
G1A25.487Z22.899
G1A36.143Z22.335
G1A45.261Z21.977
G1A52.072Z21.676
G1A58.334Z21.333
G1A64.156Z20.936
G1A76.680Z20.001
G1A276.839Z20.005
G1A291.889Z20.911
G1A301.996Z21.518
G1A312.872Z22.064
G1A327.373Z22.793
G1A335.282Z23.163
G1A354.947Z23.999
G1A358.242Z24.075
G1A360.000Z24.078
G1X6.588Z24.216
G1A357.034Z24.193
G1A353.189Z24.070
G1A330.449Z23.085
G1A313.311Z22.210
G1A301.996Z21.643
G1A291.999Z21.044
G1A280.684Z20.357
G1A275.410Z20.028
G1A274.751Z20.000
G1A78.438Z20.004
G1A70.857Z20.557
G1A61.520Z21.257
G1A55.807Z21.612
G1A48.666Z21.968
G1A35.923Z22.482
G1A23.509Z23.137
G1A13.293Z23.607
G1A4.724Z24.086
G1A1.648Z24.193
G1A0.000Z24.216
G1X6.668Z24.350
G1A2.856Z24.296
G1A6.372Z24.141
G1A15.050Z23.657
G1A25.816Z23.162
G1A36.363Z22.596
G1A49.985Z22.037
G1A56.796Z21.685
G1A62.399Z21.324
G1A77.229Z20.211
G1A80.525Z20.000
G1A273.433Z20.009
G1A278.706Z20.366
G1A290.900Z21.101
G1A301.556Z21.745
G1A312.103Z22.278
G1A323.857Z22.873
G1A332.646Z23.324
G1A354.837Z24.265
G1A358.132Z24.344
G1A360.000Z24.350
G1X6.747Z24.484
G1A357.034Z24.461
G1A353.079Z24.334
G1A330.888Z23.376
G1A313.641Z22.482
G1A301.886Z21.893
G1A292.109Z21.307
G1A279.036Z20.506
G1A273.763Z20.155
G1A271.456Z20.000
G1A82.392Z20.005
G1A76.021Z20.425
G1A61.959Z21.489
G1A56.356Z21.844
G1A49.435Z22.196
G1A40.317Z22.563
G1A34.495Z22.822
G1A24.059Z23.384
G1A13.403Z23.877
G1A4.834Z24.352
G1A1.758Z24.460
G1A0.000Z24.484
G1X6.826Z24.623
G1A2.856Z24.571
G1A6.372Z24.419
G1A15.270Z23.926
G1A25.816Z23.440
G1A36.472Z22.865
G1A50.095Z22.301
G1A56.906Z21.947
G1A62.508Z21.586
G1A71.956Z20.859
G1A78.767Z20.358
G1A84.590Z20.000
G1A269.808Z20.008
G1A273.763Z20.274
G1A279.255Z20.637
G1A300.128Z21.921
G1A309.246Z22.396
G1A321.880Z23.034
G1A332.096Z23.575
G1A354.727Z24.534
G1A358.132Z24.617
G1A360.000Z24.623
G1X6.906Z24.760
G1A356.924Z24.733
G1A352.749Z24.596
G1A331.547Z23.687
G1A313.970Z22.752
G1A301.556Z22.127
G1A292.218Z21.567
G1A274.532Z20.447
G1A270.137Z20.139
G1A267.720Z20.000
G1A86.347Z20.009
G1A78.767Z20.479
G1A71.846Z20.996
G1A62.838Z21.695
G1A57.235Z22.062
G1A50.314Z22.423
G1A42.185Z22.764
G1A35.703Z23.041
G1A24.278Z23.659
G1A13.512Z24.158
G1A5.053Z24.625
G1A1.868Z24.735
G1A0.000Z24.760
G1X6.985Z24.893
G1A2.856Z24.844
G1A6.482Z24.692
G1A15.929Z24.177
G1A26.256Z23.699
G1A36.692Z23.128
G1A50.204Z22.559
G1A57.235Z22.193
G1A62.838Z21.826
G1A71.077Z21.183
G1A78.328Z20.629
G1A85.468Z20.174
G1A88.544Z20.000
G1A266.292Z20.010
G1A272.444Z20.405
G1A277.058Z20.729
G1A298.590Z22.081
G1A306.939Z22.530
G1A319.902Z23.185
G1A331.767Z23.834
G1A352.530Z24.722
G1A356.814Z24.863
G1A359.890Z24.894
G1A360.000Z24.893
G1X7.064Z25.024
G1A356.924Z24.996
G1A352.640Z24.859
G1A332.096Z23.984
G1A323.308Z23.501
G1A312.981Z22.947
G1A301.007Z22.340
G1A292.109Z21.803
G1A274.092Z20.637
G1A269.808Z20.334
G1A264.425Z20.000
G1A90.302Z20.005
G1A81.184Z20.552
G1A75.032Z20.992
G1A63.387Z21.915
G1A57.785Z22.289
G1A50.864Z22.657
G1A42.734Z23.007
G1A36.033Z23.295
G1A24.718Z23.913
G1A13.622Z24.432
G1A5.273Z24.885
G1A1.977Z24.999
G1A0.000Z25.024
G1X7.144Z25.152
G1A2.966Z25.102
G1A6.591Z24.954
G1A16.588Z24.419
G1A26.695Z23.947
G1A36.802Z23.389
G1A50.424Z22.805
G1A57.455Z22.436
G1A62.948Z22.074
G1A70.528Z21.475
G1A77.998Z20.885
G1A84.480Z20.456
G1A92.499Z20.000
G1A262.887Z20.005
G1A272.225Z20.608
G1A276.948Z20.942
G1A288.703Z21.697
G1A298.261Z22.301
G1A306.720Z22.756
G1A318.804Z23.372
G1A331.767Z24.099
G1A339.127Z24.420
G1A353.738Z25.029
G1A357.583Z25.136
G1A360.000Z25.152
G1X7.223Z25.277
G1A356.924Z25.249
G1A352.640Z25.115
G1A341.324Z24.641
G1A332.426Z24.261
G1A324.846Z23.840
G1A314.629Z23.266
G1A300.897Z22.569
G1A292.218Z22.045
G1A277.058Z21.061
G1A272.115Z20.711
G1A261.019Z20.000
G1A94.367Z20.006
G1A84.590Z20.564
G1A77.778Z21.018
G1A70.308Z21.613
G1A63.058Z22.191
G1A57.675Z22.548
G1A50.644Z22.920
G1A41.855Z23.299
G1A35.594Z23.579
G1A25.157Z24.157
G1A13.622Z24.701
G1A5.493Z25.135
G1A2.087Z25.251
G1A0.000Z25.277
G1X7.303Z25.401
G1A2.966Z25.353
G1A6.701Z25.205
G1A17.357Z24.645
G1A27.025Z24.191
G1A36.912Z23.640
G1A50.973Z23.027
G1A57.785Z22.665
G1A63.277Z22.299
G1A70.857Z21.692
G1A78.218Z21.106
G1A85.029Z20.651
G1A94.147Z20.130
G1A96.674Z20.000
G1A259.591Z20.008
G1A272.334Z20.835
G1A277.388Z21.190
G1A296.613Z22.442
G1A304.852Z22.901
G1A318.145Z23.578
G1A332.096Z24.370
G1A339.237Z24.683
G1A352.200Z25.222
G1A356.704Z25.368
G1A359.890Z25.401
G1A360.000Z25.401
G1X7.382Z25.530
G1A356.814Z25.500
G1A352.310Z25.357
G1A341.874Z24.923
G1A332.536Z24.523
G1A325.175Z24.111
G1A314.849Z23.523
G1A300.348Z22.780
G1A292.218Z22.285
G1A276.509Z21.238
G1A269.478Z20.748
G1A258.712Z20.058
G1A257.724Z20.000
G1A98.541Z20.008
G1A87.775Z20.596
G1A80.305Z21.073
G1A74.483Z21.514
G1A64.156Z22.362
G1A58.773Z22.735
G1A52.511Z23.082
G1A44.162Z23.461
G1A36.472Z23.792
G1A25.267Z24.412
G1A13.622Z24.963
G1A5.603Z25.387
G1A2.197Z25.503
G1A0.000Z25.530
G1X7.461Z25.658
G1A3.076Z25.609
G1A6.921Z25.457
G1A17.687Z24.896
G1A27.244Z24.445
G1A37.022Z23.898
G1A50.973Z23.286
G1A57.785Z22.924
G1A63.168Z22.565
G1A70.198Z21.995
G1A77.888Z21.362
G1A84.370Z20.913
G1A92.280Z20.448
G1A100.848Z20.000
G1A256.295Z20.007
G1A268.709Z20.806
G1A273.103Z21.099
G1A294.855Z22.572
G1A302.875Z23.036
G1A317.486Z23.787
G1A331.657Z24.610
G1A338.139Z24.902
G1A352.090Z25.478
G1A356.704Z25.625
G1A359.890Z25.658
G1A360.000Z25.658
G1X7.541Z25.783
G1A356.814Z25.753
G1A352.090Z25.606
G1A342.313Z25.205
G1A332.975Z24.806
G1A326.274Z24.430
G1A315.398Z23.791
G1A299.799Z22.983
G1A292.109Z22.509
G1A269.149Z20.935
G1A254.428Z20.000
G1A102.496Z20.009
G1A87.885Z20.803
G1A80.745Z21.266
G1A74.812Z21.723
G1A64.486Z22.591
G1A59.213Z22.963
G1A53.061Z23.310
G1A44.492Z23.706
G1A36.472Z24.057
G1A25.487Z24.667
G1A13.622Z25.233
G1A5.932Z25.633
G1A2.417Z25.752
G1A0.000Z25.783
G1X7.620Z25.906
G1A3.186Z25.857
G1A7.141Z25.705
G1A18.785Z25.109
G1A27.794Z24.679
G1A37.132Z24.154
G1A51.193Z23.528
G1A58.004Z23.164
G1A63.277Z22.808
G1A69.649Z22.285
G1A77.778Z21.596
G1A84.040Z21.148
G1A91.181Z20.719
G1A104.693Z20.000
G1A252.780Z20.005
G1A272.334Z21.245
G1A294.525Z22.780
G1A302.325Z23.236
G1A316.826Z23.988
G1A331.657Z24.865
G1A337.809Z25.149
G1A351.651Z25.715
G1A356.594Z25.872
G1A359.890Z25.906
G1A360.000Z25.906
G1X7.699Z26.026
G1A356.704Z25.995
G1A351.871Z25.847
G1A342.643Z25.474
G1A333.305Z25.075
G1A326.823Z24.710
G1A315.398Z24.023
G1A299.359Z23.184
G1A292.109Z22.731
G1A277.168Z21.684
G1A269.039Z21.133
G1A252.341Z20.084
G1A250.583Z20.000
G1A106.451Z20.005
G1A87.885Z21.011
G1A81.294Z21.441
G1A75.471Z21.894
G1A64.815Z22.811
G1A59.652Z23.184
G1A53.720Z23.526
G1A44.712Z23.950
G1A36.472Z24.315
G1A25.706Z24.914
G1A13.403Z25.506
G1A6.152Z25.874
G1A2.527Z25.995
G1A0.000Z26.026
G1X7.779Z26.145
G1A3.186Z26.099
G1A7.141Z25.953
G1A20.653Z25.278
G1A28.453Z24.897
G1A37.241Z24.403
G1A51.303Z23.770
G1A58.114Z23.403
G1A63.277Z23.052
G1A68.990Z22.578
G1A77.449Z21.841
G1A83.491Z21.398
G1A90.412Z20.973
G1A108.099Z20.031
G1A108.978Z20.000
G1A248.605Z20.006
G1A253.549Z20.262
G1A272.554Z21.466
G1A286.726Z22.459
G1A294.965Z23.028
G1A302.655Z23.475
G1A316.167Z24.180
G1A331.657Z25.113
G1A337.699Z25.397
G1A351.102Z25.940
G1A356.375Z26.106
G1A359.670Z26.145
G1A360.000Z26.145
G1X7.858Z26.261
G1A356.704Z26.230
G1A351.651Z26.079
G1A343.192Z25.744
G1A333.744Z25.341
G1A327.482Z24.989
G1A315.948Z24.282
G1A298.920Z23.382
G1A291.889Z22.938
G1A276.509Z21.838
G1A268.489Z21.305
G1A252.341Z20.301
G1A247.617Z20.073
G1A245.310Z20.000
G1A155.886Z20.010
G1A151.492Z20.075
G1A146.219Z20.063
G1A139.738Z20.000
G1A111.065Z20.006
G1A105.133Z20.284
G1A87.446Z21.251
G1A80.964Z21.684
G1A75.252Z22.139
G1A64.706Z23.059
G1A59.652Z23.427
G1A53.830Z23.763
G1A44.712Z24.197
G1A36.363Z24.571
G1A25.816Z25.158
G1A12.963Z25.782
G1A6.372Z26.107
G1A2.527Z26.231
G1A0.000Z26.261
G1X7.938Z26.382
G1A3.296Z26.334
G1A7.360Z26.185
G1A22.960Z25.415
G1A29.332Z25.093
G1A37.461Z24.639
G1A51.523Z24.001
G1A58.224Z23.638
G1A63.387Z23.284
G1A68.880Z22.825
G1A77.778Z22.040
G1A83.491Z21.612
G1A89.753Z21.220
G1A107.989Z20.244
G1A113.152Z20.035
G1A114.690Z20.000
G1A133.476Z20.009
G1A145.780Z20.191
G1A151.163Z20.216
G1A155.557Z20.161
G1A160.720Z20.008
G1A211.364Z20.010
G1A216.637Z20.070
G1A224.876Z20.060
G1A232.237Z20.000
G1A241.355Z20.009
G1A245.749Z20.114
G1A250.363Z20.303
G1A256.186Z20.635
G1A273.213Z21.709
G1A284.309Z22.492
G1A293.427Z23.153
G1A300.458Z23.583
G1A316.277Z24.419
G1A331.547Z25.348
G1A337.479Z25.631
G1A350.662Z26.164
G1A356.265Z26.341
G1A359.670Z26.382
G1A360.000Z26.382
G1X8.017Z26.502
G1A356.594Z26.469
G1A351.321Z26.312
G1A343.302Z25.996
G1A333.964Z25.599
G1A327.812Z25.253
G1A315.179Z24.472
G1A298.700Z23.594
G1A291.999Z23.165
G1A277.168Z22.076
G1A268.489Z21.502
G1A252.341Z20.511
G1A247.507Z20.283
G1A243.003Z20.147
G1A238.279Z20.088
G1A232.347Z20.110
G1A222.569Z20.200
G1A215.099Z20.201
G1A210.156Z20.132
G1A205.432Z20.000
G1A164.565Z20.007
G1A157.754Z20.249
G1A153.250Z20.339
G1A148.636Z20.347
G1A138.200Z20.216
G1A126.335Z20.025
G1A120.952Z20.000
G1A116.448Z20.051
G1A111.834Z20.183
G1A106.231Z20.433
G1A87.336Z21.465
G1A81.184Z21.881
G1A75.581Z22.337
G1A65.255Z23.260
G1A60.092Z23.644
G1A54.489Z23.975
G1A45.151Z24.426
G1A36.363Z24.822
G1A25.816Z25.407
G1A12.853Z26.038
G1A6.482Z26.348
G1A2.637Z26.471
G1A0.000Z26.502
G1X8.096Z26.620
G1A3.406Z26.573
G1A7.690Z26.420
G1A25.047Z25.571
G1A31.419Z25.229
G1A38.010Z24.868
G1A51.083Z24.274
G1A58.004Z23.901
G1A62.948Z23.564
G1A68.221Z23.124
G1A77.888Z22.248
G1A83.491Z21.818
G1A89.313Z21.449
G1A107.879Z20.452
G1A113.042Z20.242
G1A117.547Z20.134
G1A122.161Z20.104
G1A127.983Z20.158
G1A143.692Z20.429
G1A149.954Z20.488
G1A154.568Z20.458
G1A159.182Z20.347
G1A168.740Z20.000
G1A202.246Z20.009
G1A207.849Z20.220
G1A212.463Z20.316
G1A218.834Z20.346
G1A225.645Z20.310
G1A234.983Z20.205
G1A239.597Z20.205
G1A244.101Z20.278
G1A248.496Z20.427
G1A253.659Z20.688
G1A273.213Z21.899
G1A282.441Z22.551
G1A292.878Z23.333
G1A299.579Z23.754
G1A315.948Z24.632
G1A331.437Z25.590
G1A337.260Z25.874
G1A350.003Z26.388
G1A356.045Z26.576
G1A359.561Z26.620
G1A360.000Z26.620
G1X8.176Z26.736
G1A356.485Z26.703
G1A350.882Z26.540
G1A343.412Z26.249
G1A334.403Z25.867
G1A328.361Z25.530
G1A314.849Z24.682
G1A298.480Z23.798
G1A292.109Z23.384
G1A278.047Z22.324
G1A269.149Z21.731
G1A252.341Z20.716
G1A247.507Z20.490
G1A243.113Z20.360
G1A238.499Z20.306
G1A233.116Z20.333
G1A222.679Z20.467
G1A215.319Z20.484
G1A210.375Z20.428
G1A205.652Z20.294
G1A198.291Z20.000
G1A172.914Z20.007
G1A165.554Z20.257
G1A158.084Z20.525
G1A153.689Z20.615
G1A149.185Z20.627
G1A142.045Z20.537
G1A126.005Z20.239
G1A120.842Z20.207
G1A116.338Z20.256
G1A111.834Z20.384
G1A106.231Z20.633
G1A87.226Z21.672
G1A81.514Z22.063
G1A76.131Z22.507
G1A65.584Z23.473
G1A60.641Z23.853
G1A55.258Z24.182
G1A45.920Z24.644
G1A36.253Z25.083
G1A25.816Z25.659
G1A12.304Z26.321
G1A6.372Z26.596
G1A2.417Z26.712
G1A0.000Z26.736
G1X8.255Z26.851
G1A3.406Z26.806
G1A7.800Z26.658
G1A16.698Z26.223
G1A29.112Z25.610
G1A37.681Z25.137
G1A51.083Z24.521
G1A58.004Z24.145
G1A62.948Z23.805
G1A68.111Z23.367
G1A77.778Z22.467
G1A83.161Z22.041
G1A88.764Z21.677
G1A107.659Z20.660
G1A112.823Z20.448
G1A117.217Z20.340
G1A121.721Z20.309
G1A127.104Z20.363
G1A143.253Z20.688
G1A149.735Z20.769
G1A154.129Z20.755
G1A158.633Z20.658
G1A172.035Z20.183
G1A179.506Z20.001
G1A194.007Z20.010
G1A199.170Z20.184
G1A206.970Z20.495
G1A211.474Z20.598
G1A216.747Z20.629
G1A224.986Z20.574
G1A234.324Z20.432
G1A239.048Z20.414
G1A243.442Z20.470
G1A247.836Z20.604
G1A252.780Z20.839
G1A270.247Z21.897
G1A278.926Z22.483
G1A293.317Z23.571
G1A299.799Z23.980
G1A315.508Z24.832
G1A331.327Z25.825
G1A337.150Z26.115
G1A349.234Z26.601
G1A355.825Z26.804
G1A359.451Z26.851
G1A360.000Z26.851
G1X8.334Z26.963
G1A356.375Z26.928
G1A350.442Z26.761
G1A343.302Z26.487
G1A334.843Z26.129
G1A328.801Z25.793
G1A314.300Z24.872
G1A298.370Z24.000
G1A291.889Z23.572
G1A277.717Z22.490
G1A269.039Z21.917
G1A252.341Z20.917
G1A247.507Z20.693
G1A243.113Z20.565
G1A238.718Z20.517
G1A233.885Z20.547
G1A222.679Z20.726
G1A215.539Z20.770
G1A210.595Z20.734
G1A206.311Z20.629
G1A195.545Z20.207
G1A190.931Z20.101
G1A186.317Z20.073
G1A180.824Z20.127
G1A173.573Z20.289
G1A166.323Z20.529
G1A158.523Z20.808
G1A154.129Z20.897
G1A149.735Z20.907
G1A143.253Z20.818
G1A134.684Z20.635
G1A125.566Z20.445
G1A120.952Z20.411
G1A116.558Z20.453
G1A112.054Z20.576
G1A106.561Z20.816
G1A87.226Z21.871
G1A81.843Z22.241
G1A76.460Z22.687
G1A65.584Z23.708
G1A60.751Z24.085
G1A55.478Z24.412
G1A45.920Z24.891
G1A35.923Z25.350
G1A25.816Z25.903
G1A8.129Z26.762
G1A3.625Z26.915
G1A0.110Z26.963
G1A0.000Z26.963
G1X8.414Z27.073
G1A3.515Z27.029
G1A8.020Z26.883
G1A14.611Z26.572
G1A29.661Z25.821
G1A37.901Z25.374
G1A50.644Z24.784
G1A57.785Z24.397
G1A62.728Z24.058
G1A67.562Z23.644
G1A77.669Z22.688
G1A82.942Z22.261
G1A88.325Z21.906
G1A107.440Z20.875
G1A112.603Z20.659
G1A116.997Z20.549
G1A121.392Z20.516
G1A126.445Z20.566
G1A135.014Z20.761
G1A145.121Z20.982
G1A150.723Z21.048
G1A155.008Z21.028
G1A159.622Z20.921
G1A172.255Z20.475
G1A179.616Z20.297
G1A185.328Z20.226
G1A190.052Z20.240
G1A194.556Z20.331
G1A200.049Z20.532
G1A206.530Z20.789
G1A210.815Z20.885
G1A215.868Z20.909
G1A223.229Z20.847
G1A234.654Z20.645
G1A239.268Z20.625
G1A243.662Z20.682
G1A248.056Z20.819
G1A253.219Z21.067
G1A271.675Z22.176
G1A279.475Z22.710
G1A292.658Z23.733
G1A298.920Z24.140
G1A315.069Z25.026
G1A330.998Z26.040
G1A336.820Z26.340
G1A348.904Z26.824
G1A355.716Z27.026
G1A359.451Z27.073
G1A360.000Z27.073
G1X8.493Z27.185
G1A356.375Z27.151
G1A350.113Z26.978
G1A342.753Z26.700
G1A335.063Z26.373
G1A328.911Z26.029
G1A314.190Z25.086
G1A298.261Z24.207
G1A292.218Z23.805
G1A277.937Z22.688
G1A269.808Z22.147
G1A252.450Z21.127
G1A247.507Z20.901
G1A243.113Z20.776
G1A238.718Z20.732
G1A233.885Z20.766
G1A227.074Z20.896
G1A221.800Z20.990
G1A215.099Z21.048
G1A210.156Z21.021
G1A205.981Z20.923
G1A195.215Z20.502
G1A190.601Z20.397
G1A185.987Z20.372
G1A180.494Z20.429
G1A173.244Z20.594
G1A165.554Z20.854
G1A158.523Z21.097
G1A154.239Z21.177
G1A149.844Z21.178
G1A143.363Z21.076
G1A133.805Z20.844
G1A125.566Z20.660
G1A120.732Z20.620
G1A116.448Z20.660
G1A111.944Z20.783
G1A106.451Z21.024
G1A87.116Z22.078
G1A82.063Z22.428
G1A76.680Z22.884
G1A65.804Z23.917
G1A61.080Z24.295
G1A55.917Z24.624
G1A46.359Z25.112
G1A35.374Z25.623
G1A25.816Z26.139
G1A9.118Z26.953
G1A4.065Z27.128
G1A0.439Z27.184
G1A0.000Z27.185
G1X8.573Z27.299
G1A3.625Z27.254
G1A8.239Z27.107
G1A14.501Z26.814
G1A30.211Z26.028
G1A37.901Z25.616
G1A50.534Z25.026
G1A57.675Z24.639
G1A62.618Z24.299
G1A67.342Z23.895
G1A77.998Z22.869
G1A83.161Z22.444
G1A88.105Z22.116
G1A106.890Z21.102
G1A112.273Z20.872
G1A116.668Z20.757
G1A120.952Z20.724
G1A125.676Z20.770
G1A134.135Z20.971
G1A145.230Z21.239
G1A150.833Z21.317
G1A155.117Z21.305
G1A159.622Z21.207
G1A172.804Z20.753
G1A180.055Z20.584
G1A185.658Z20.521
G1A190.272Z20.541
G1A194.776Z20.639
G1A200.708Z20.865
G1A206.421Z21.085
G1A210.485Z21.168
G1A215.429Z21.182
G1A222.130Z21.109
G1A234.654Z20.867
G1A239.268Z20.839
G1A243.552Z20.888
G1A247.836Z21.016
G1A252.890Z21.251
G1A270.906Z22.303
G1A278.267Z22.800
G1A286.726Z23.473
G1A293.537Z24.002
G1A299.799Z24.404
G1A314.959Z25.245
G1A330.778Z26.260
G1A336.710Z26.569
G1A348.795Z27.053
G1A355.606Z27.250
G1A359.451Z27.299
G1A360.000Z27.299
G1X8.652Z27.411
G1A356.155Z27.374
G1A349.564Z27.197
G1A340.116Z26.836
G1A333.854Z26.550
G1A327.153Z26.156
G1A313.750Z25.285
G1A298.151Z24.409
G1A292.328Z24.014
G1A283.650Z23.311
G1A276.839Z22.782
G1A269.478Z22.299
G1A252.341Z21.321
G1A247.397Z21.100
G1A243.113Z20.982
G1A238.828Z20.944
G1A234.104Z20.985
G1A225.645Z21.171
G1A217.296Z21.300
G1A211.913Z21.319
G1A207.739Z21.265
G1A203.235Z21.120
G1A195.325Z20.805
G1A190.821Z20.696
G1A186.207Z20.666
G1A180.714Z20.718
G1A173.573Z20.876
G1A165.664Z21.139
G1A158.743Z21.371
G1A154.458Z21.446
G1A150.174Z21.442
G1A143.473Z21.328
G1A133.586Z21.074
G1A125.456Z20.872
G1A120.842Z20.826
G1A116.558Z20.860
G1A112.164Z20.975
G1A106.781Z21.206
G1A88.435Z22.193
G1A83.601Z22.510
G1A78.547Z22.922
G1A71.956Z23.557
G1A65.694Z24.162
G1A61.080Z24.534
G1A55.917Z24.865
G1A46.359Z25.355
G1A35.154Z25.879
G1A25.706Z26.384
G1A9.667Z27.168
G1A4.724Z27.341
G1A0.879Z27.408
G1A0.000Z27.411
G1X8.731Z27.522
G1A3.735Z27.478
G1A8.569Z27.330
G1A14.281Z27.071
G1A30.980Z26.231
G1A38.560Z25.836
G1A49.985Z25.301
G1A57.455Z24.894
G1A62.179Z24.571
G1A66.683Z24.188
G1A78.108Z23.063
G1A83.052Z22.647
G1A87.885Z22.320
G1A104.034Z21.443
G1A110.626Z21.131
G1A115.130Z20.987
G1A119.304Z20.929
G1A123.699Z20.949
G1A129.301Z21.068
G1A142.704Z21.441
G1A149.625Z21.569
G1A154.019Z21.582
G1A158.413Z21.515
G1A164.785Z21.312
G1A173.354Z21.025
G1A180.494Z20.866
G1A185.987Z20.811
G1A190.601Z20.838
G1A195.105Z20.944
G1A205.871Z21.358
G1A209.826Z21.439
G1A214.879Z21.450
G1A221.581Z21.373
G1A227.623Z21.243
G1A234.654Z21.085
G1A239.158Z21.048
G1A243.332Z21.088
G1A247.617Z21.208
G1A252.780Z21.441
G1A269.258Z22.374
G1A276.179Z22.824
G1A282.881Z23.337
G1A292.218Z24.104
G1A298.041Z24.504
G1A307.818Z25.058
G1A315.948Z25.532
G1A330.009Z26.451
G1A336.161Z26.784
G1A346.158Z27.195
G1A352.859Z27.410
G1A357.913Z27.511
G1A360.000Z27.522
G1X8.811Z27.630
G1A356.045Z27.593
G1A349.234Z27.419
G1A339.457Z27.049
G1A333.305Z26.756
G1A326.164Z26.326
G1A313.421Z25.485
G1A298.041Z24.604
G1A292.328Z24.208
G1A278.486Z23.080
G1A272.005Z22.629
G1A259.481Z21.903
G1A251.022Z21.450
G1A246.298Z21.262
G1A242.124Z21.170
G1A237.949Z21.154
G1A233.006Z21.224
G1A222.350Z21.486
G1A215.648Z21.584
G1A210.595Z21.588
G1A206.640Z21.521
G1A201.367Z21.333
G1A194.776Z21.078
G1A190.272Z20.977
G1A185.658Z20.954
G1A180.055Z21.015
G1A172.914Z21.179
G1A158.962Z21.643
G1A154.678Z21.718
G1A150.394Z21.713
G1A144.352Z21.607
G1A135.343Z21.363
G1A126.225Z21.098
G1A121.611Z21.030
G1A117.437Z21.044
G1A113.152Z21.138
G1A108.099Z21.338
G1A94.806Z22.028
G1A87.006Z22.467
G1A82.392Z22.793
G1A77.449Z23.223
G1A66.024Z24.362
G1A61.410Z24.747
G1A56.466Z25.073
G1A47.568Z25.544
G1A34.165Z26.179
G1A24.828Z26.665
G1A10.546Z27.368
G1A5.383Z27.549
G1A1.208Z27.625
G1A0.000Z27.630
G1X8.890Z27.737
G1A3.955Z27.692
G1A8.898Z27.548
G1A14.281Z27.311
G1A32.188Z26.406
G1A39.658Z26.036
G1A49.655Z25.560
G1A57.235Z25.145
G1A61.849Z24.829
G1A66.244Z24.453
G1A73.384Z23.729
G1A78.987Z23.179
G1A83.930Z22.772
G1A88.984Z22.443
G1A106.341Z21.518
G1A111.944Z21.275
G1A116.338Z21.158
G1A120.513Z21.125
G1A124.907Z21.174
G1A131.169Z21.344
G1A142.923Z21.700
G1A149.735Z21.839
G1A154.129Z21.860
G1A158.413Z21.799
G1A164.785Z21.601
G1A173.464Z21.315
G1A180.604Z21.158
G1A186.097Z21.105
G1A190.711Z21.135
G1A195.325Z21.247
G1A205.652Z21.643
G1A209.606Z21.724
G1A214.330Z21.730
G1A220.702Z21.647
G1A227.513Z21.480
G1A234.324Z21.305
G1A238.828Z21.253
G1A243.003Z21.282
G1A247.287Z21.392
G1A252.231Z21.604
G1A269.149Z22.541
G1A275.410Z22.942
G1A281.892Z23.438
G1A292.109Z24.288
G1A298.151Z24.709
G1A308.697Z25.318
G1A316.387Z25.782
G1A329.240Z26.635
G1A335.722Z26.997
G1A342.643Z27.293
G1A349.893Z27.553
G1A356.485Z27.708
G1A360.000Z27.737
G1X8.969Z27.842
G1A355.825Z27.803
G1A348.795Z27.633
G1A339.457Z27.282
G1A333.305Z26.985
G1A325.944Z26.540
G1A312.872Z25.667
G1A297.711Z24.781
G1A291.999Z24.377
G1A278.596Z23.261
G1A272.554Z22.833
G1A263.985Z22.335
G1A251.352Z21.661
G1A246.518Z21.467
G1A242.344Z21.372
G1A238.279Z21.356
G1A233.665Z21.423
G1A221.251Z21.763
G1A214.770Z21.862
G1A209.936Z21.869
G1A205.981Z21.801
G1A200.598Z21.605
G1A194.446Z21.373
G1A189.942Z21.277
G1A185.328Z21.259
G1A179.506Z21.328
G1A172.365Z21.496
G1A159.292Z21.919
G1A155.008Z21.991
G1A150.723Z21.984
G1A144.901Z21.875
G1A137.211Z21.655
G1A126.335Z21.308
G1A121.941Z21.233
G1A117.766Z21.238
G1A113.592Z21.322
G1A108.648Z21.509
G1A97.333Z22.084
G1A87.666Z22.617
G1A83.052Z22.935
G1A78.218Z23.350
G1A72.066Z23.969
G1A66.024Z24.584
G1A61.630Z24.960
G1A56.906Z25.282
G1A48.557Z25.736
G1A37.571Z26.254
G1A11.645Z27.553
G1A6.482Z27.738
G1A1.977Z27.830
G1A0.000Z27.842
G1X9.049Z27.947
G1A4.065Z27.902
G1A9.228Z27.760
G1A14.391Z27.539
G1A38.450Z26.335
G1A48.117Z25.878
G1A56.796Z25.404
G1A61.630Z25.072
G1A65.914Z24.703
G1A72.615Z24.018
G1A78.657Z23.409
G1A83.491Z22.996
G1A88.215Z22.677
G1A101.398Z21.967
G1A109.747Z21.561
G1A114.471Z21.398
G1A118.535Z21.333
G1A122.710Z21.344
G1A127.543Z21.445
G1A142.484Z21.936
G1A149.405Z22.096
G1A153.909Z22.131
G1A158.084Z22.085
G1A163.906Z21.921
G1A173.793Z21.605
G1A180.824Z21.456
G1A186.317Z21.408
G1A190.821Z21.441
G1A195.325Z21.552
G1A205.322Z21.929
G1A209.167Z22.004
G1A213.781Z22.005
G1A219.384Z21.924
G1A225.975Z21.758
G1A233.775Z21.526
G1A238.389Z21.460
G1A242.563Z21.478
G1A246.848Z21.578
G1A251.901Z21.785
G1A268.050Z22.645
G1A274.422Z23.038
G1A280.574Z23.502
G1A292.218Z24.491
G1A297.931Z24.896
G1A307.708Z25.470
G1A315.288Z25.928
G1A328.471Z26.814
G1A335.282Z27.202
G1A341.654Z27.486
G1A349.234Z27.757
G1A356.485Z27.918
G1A360.000Z27.947
G1X9.128Z28.054
G1A355.716Z28.015
G1A348.685Z27.851
G1A340.116Z27.537
G1A333.854Z27.238
G1A326.494Z26.799
G1A312.652Z25.869
G1A298.041Z25.003
G1A292.328Z24.595
G1A284.748Z23.945
G1A278.047Z23.383
G1A272.225Z22.974
G1A264.425Z22.529
G1A251.132Z21.847
G1A246.189Z21.658
G1A242.014Z21.573
G1A237.949Z21.568
G1A233.335Z21.646
G1A220.592Z22.024
G1A214.550Z22.130
G1A209.716Z22.147
G1A205.871Z22.088
G1A200.818Z21.913
G1A194.336Z21.672
G1A189.832Z21.577
G1A185.108Z21.561
G1A179.176Z21.632
G1A172.035Z21.801
G1A159.622Z22.188
G1A155.227Z22.258
G1A150.943Z22.246
G1A145.340Z22.135
G1A137.870Z21.909
G1A126.774Z21.531
G1A122.161Z21.441
G1A118.096Z21.437
G1A113.921Z21.513
G1A109.088Z21.688
G1A98.212Z22.226
G1A87.775Z22.795
G1A83.271Z23.106
G1A78.547Z23.517
G1A72.395Z24.147
G1A66.134Z24.794
G1A61.849Z25.166
G1A57.125Z25.497
G1A48.666Z25.967
G1A39.768Z26.397
G1A30.980Z26.819
G1A11.974Z27.764
G1A6.591Z27.952
G1A1.977Z28.043
G1A0.000Z28.054
G1X9.208Z28.161
G1A4.175Z28.118
G1A9.338Z27.981
G1A14.391Z27.768
G1A27.904Z27.090
G1A37.791Z26.605
G1A46.909Z26.175
G1A56.576Z25.647
G1A61.520Z25.308
G1A65.694Z24.948
G1A71.407Z24.358
G1A78.218Z23.645
G1A82.942Z23.225
G1A87.336Z22.912
G1A95.795Z22.443
G1A108.648Z21.805
G1A113.592Z21.621
G1A117.766Z21.540
G1A121.831Z21.540
G1A126.335Z21.625
G1A135.124Z21.929
G1A143.802Z22.215
G1A150.064Z22.361
G1A154.458Z22.392
G1A158.743Z22.342
G1A165.334Z22.156
G1A174.562Z21.878
G1A181.483Z21.743
G1A186.866Z21.707
G1A191.370Z21.750
G1A196.094Z21.877
G1A204.883Z22.203
G1A208.728Z22.277
G1A213.122Z22.274
G1A218.724Z22.186
G1A223.778Z22.054
G1A233.995Z21.739
G1A238.389Z21.669
G1A242.453Z21.680
G1A246.628Z21.771
G1A251.681Z21.968
G1A267.171Z22.757
G1A273.653Z23.147
G1A279.585Z23.585
G1A292.438Z24.697
G1A298.151Z25.109
G1A309.027Z25.760
G1A316.826Z26.253
G1A327.922Z27.006
G1A335.063Z27.417
G1A341.324Z27.701
G1A349.014Z27.976
G1A356.265Z28.131
G1A360.000Z28.161
G1X9.287Z28.266
G1A355.386Z28.224
G1A348.245Z28.067
G1A339.347Z27.737
G1A332.975Z27.420
G1A325.285Z26.951
G1A312.103Z26.054
G1A298.041Z25.198
G1A292.438Z24.788
G1A285.188Z24.154
G1A278.377Z23.572
G1A272.664Z23.163
G1A265.414Z22.745
G1A251.462Z22.054
G1A246.408Z21.863
G1A242.234Z21.778
G1A238.169Z21.774
G1A233.775Z21.852
G1A225.096Z22.136
G1A219.493Z22.291
G1A213.671Z22.397
G1A209.167Z22.414
G1A205.322Z22.355
G1A199.939Z22.169
G1A193.897Z21.955
G1A189.393Z21.868
G1A184.669Z21.858
G1A178.517Z21.936
G1A171.157Z22.113
G1A159.731Z22.453
G1A155.337Z22.517
G1A151.053Z22.499
G1A145.011Z22.371
G1A137.540Z22.134
G1A126.445Z21.734
G1A122.051Z21.644
G1A118.096Z21.636
G1A114.031Z21.707
G1A109.088Z21.883
G1A97.113Z22.465
G1A87.666Z22.980
G1A83.161Z23.297
G1A78.547Z23.708
G1A72.066Z24.390
G1A66.024Z25.027
G1A61.849Z25.397
G1A57.125Z25.731
G1A48.776Z26.199
G1A40.208Z26.619
G1A30.650Z27.070
G1A17.138Z27.747
G1A11.425Z28.018
G1A6.372Z28.179
G1A1.648Z28.259
G1A0.000Z28.266
G1X9.366Z28.369
G1A4.394Z28.327
G1A9.667Z28.195
G1A14.501Z27.998
G1A26.805Z27.376
G1A38.560Z26.817
G1A46.799Z26.424
G1A56.576Z25.882
G1A61.300Z25.553
G1A65.365Z25.200
G1A70.638Z24.650
G1A78.108Z23.846
G1A82.612Z23.431
G1A86.897Z23.115
G1A93.488Z22.741
G1A107.550Z22.047
G1A112.933Z21.837
G1A117.107Z21.745
G1A121.062Z21.735
G1A125.237Z21.805
G1A130.949Z21.998
G1A141.276Z22.384
G1A148.416Z22.582
G1A153.030Z22.646
G1A157.205Z22.628
G1A162.588Z22.510
G1A174.782Z22.158
G1A181.703Z22.030
G1A187.086Z21.998
G1A191.590Z22.046
G1A196.424Z22.179
G1A204.553Z22.471
G1A208.398Z22.541
G1A213.012Z22.533
G1A218.615Z22.439
G1A223.888Z22.293
G1A233.885Z21.955
G1A238.279Z21.875
G1A242.234Z21.878
G1A246.408Z21.961
G1A251.572Z22.152
G1A263.985Z22.755
G1A271.565Z23.173
G1A276.839Z23.535
G1A282.661Z24.014
G1A292.218Z24.860
G1A297.821Z25.279
G1A307.379Z25.872
G1A315.728Z26.402
G1A326.933Z27.173
G1A334.513Z27.618
G1A340.665Z27.908
G1A348.685Z28.192
G1A356.045Z28.338
G1A360.000Z28.369
G1X9.446Z28.471
G1A354.947Z28.425
G1A348.245Z28.289
G1A340.446Z28.014
G1A334.184Z27.713
G1A326.384Z27.252
G1A311.114Z26.206
G1A298.151Z25.395
G1A292.109Z24.943
G1A283.869Z24.207
G1A277.827Z23.690
G1A272.554Z23.313
G1A265.963Z22.938
G1A251.681Z22.250
G1A246.408Z22.057
G1A242.234Z21.977
G1A238.279Z21.977
G1A233.995Z22.058
G1A227.183Z22.296
G1A220.372Z22.522
G1A214.989Z22.641
G1A209.936Z22.685
G1A206.091Z22.646
G1A201.587Z22.512
G1A194.007Z22.244
G1A189.393Z22.155
G1A184.559Z22.145
G1A178.297Z22.223
G1A170.827Z22.400
G1A159.841Z22.718
G1A155.337Z22.780
G1A151.053Z22.758
G1A145.340Z22.632
G1A137.321Z22.364
G1A126.665Z21.949
G1A122.270Z21.847
G1A118.316Z21.832
G1A114.251Z21.897
G1A109.417Z22.061
G1A98.322Z22.583
G1A88.325Z23.116
G1A83.930Z23.417
G1A79.536Z23.797
G1A74.153Z24.360
G1A66.463Z25.199
G1A62.289Z25.585
G1A57.894Z25.912
G1A51.083Z26.314
G1A41.746Z26.799
G1A29.551Z27.357
G1A18.346Z27.913
G1A12.524Z28.201
G1A7.800Z28.359
G1A2.527Z28.457
G1A0.000Z28.471
G1X9.525Z28.571
G1A4.724Z28.528
G1A10.107Z28.401
G1A14.721Z28.215
G1A26.585Z27.612
G1A38.230Z27.078
G1A45.371Z26.741
G1A56.027Z26.145
G1A60.751Z25.819
G1A65.035Z25.446
G1A70.088Z24.913
G1A77.449Z24.101
G1A81.953Z23.670
G1A86.347Z23.331
G1A91.840Z23.007
G1A104.474Z22.378
G1A111.175Z22.088
G1A115.679Z21.962
G1A119.634Z21.926
G1A123.589Z21.970
G1A128.312Z22.111
G1A140.726Z22.607
G1A147.757Z22.821
G1A152.591Z22.905
G1A156.765Z22.902
G1A161.599Z22.813
G1A175.111Z22.436
G1A182.032Z22.314
G1A187.415Z22.289
G1A191.919Z22.341
G1A196.973Z22.487
G1A204.443Z22.750
G1A208.288Z22.816
G1A212.463Z22.806
G1A218.065Z22.708
G1A223.888Z22.532
G1A233.775Z22.169
G1A238.059Z22.080
G1A242.014Z22.073
G1A246.189Z22.147
G1A251.132Z22.321
G1A265.743Z23.007
G1A272.225Z23.369
G1A277.388Z23.734
G1A283.100Z24.220
G1A291.999Z25.025
G1A297.492Z25.444
G1A307.928Z26.111
G1A316.277Z26.661
G1A326.164Z27.350
G1A334.074Z27.818
G1A340.446Z28.127
G1A347.586Z28.378
G1A353.079Z28.498
G1A359.121Z28.569
G1A360.000Z28.571
G1X9.604Z28.669
G1A354.397Z28.621
G1A348.245Z28.504
G1A341.324Z28.274
G1A335.282Z27.992
G1A327.153Z27.524
G1A319.573Z27.008
G1A310.565Z26.381
G1A297.711Z25.555
G1A292.218Z25.134
G1A284.529Z24.434
G1A278.377Z23.889
G1A273.103Z23.500
G1A267.281Z23.163
G1A253.549Z22.520
G1A247.507Z22.284
G1A243.113Z22.183
G1A239.158Z22.169
G1A234.983Z22.239
G1A229.600Z22.423
G1A221.141Z22.744
G1A215.429Z22.891
G1A210.156Z22.955
G1A206.311Z22.930
G1A202.026Z22.819
G1A193.897Z22.538
G1A189.283Z22.451
G1A184.449Z22.442
G1A178.187Z22.520
G1A170.168Z22.708
G1A159.841Z22.988
G1A155.447Z23.041
G1A151.163Z23.015
G1A145.340Z22.880
G1A137.101Z22.587
G1A126.774Z22.159
G1A122.490Z22.049
G1A118.645Z22.026
G1A114.690Z22.080
G1A109.966Z22.232
G1A99.200Z22.723
G1A89.533Z23.221
G1A85.139Z23.505
G1A80.964Z23.850
G1A76.240Z24.325
G1A66.134Z25.440
G1A62.069Z25.820
G1A57.675Z26.151
G1A50.644Z26.571
G1A41.746Z27.044
G1A27.794Z27.666
G1A18.566Z28.127
G1A12.963Z28.406
G1A8.459Z28.554
G1A2.856Z28.654
G1A0.000Z28.669
G1X9.684Z28.772
G1A4.834Z28.730
G1A10.546Z28.602
G1A14.721Z28.436
G1A26.475Z27.837
G1A36.912Z27.375
G1A43.723Z27.066
G1A55.368Z26.409
G1A60.201Z26.078
G1A64.486Z25.708
G1A69.210Z25.214
G1A77.888Z24.245
G1A82.283Z23.822
G1A86.677Z23.483
G1A92.060Z23.168
G1A103.595Z22.609
G1A111.285Z22.282
G1A115.789Z22.158
G1A119.744Z22.127
G1A123.699Z22.175
G1A128.312Z22.318
G1A139.957Z22.814
G1A146.988Z23.047
G1A152.151Z23.153
G1A156.326Z23.165
G1A161.050Z23.094
G1A175.771Z22.713
G1A182.691Z22.603
G1A187.965Z22.590
G1A192.579Z22.654
G1A198.181Z22.824
G1A204.333Z23.028
G1A208.178Z23.086
G1A212.243Z23.069
G1A217.846Z22.961
G1A223.888Z22.765
G1A233.665Z22.379
G1A237.949Z22.284
G1A241.904Z22.272
G1A246.079Z22.342
G1A251.462Z22.525
G1A265.743Z23.162
G1A271.785Z23.491
G1A276.729Z23.833
G1A282.112Z24.289
G1A291.999Z25.204
G1A297.492Z25.634
G1A306.500Z26.225
G1A314.959Z26.785
G1A325.285Z27.516
G1A333.305Z27.994
G1A340.006Z28.329
G1A345.829Z28.539
G1A351.212Z28.673
G1A358.462Z28.767
G1A360.000Z28.772
G1X9.763Z28.873
G1A354.178Z28.825
G1A348.245Z28.716
G1A341.544Z28.501
G1A335.502Z28.220
G1A326.933Z27.729
G1A319.902Z27.252
G1A310.674Z26.599
G1A298.151Z25.775
G1A292.658Z25.348
G1A285.957Z24.731
G1A279.475Z24.133
G1A274.422Z23.741
G1A269.368Z23.426
G1A262.447Z23.086
G1A250.034Z22.565
G1A245.090Z22.418
G1A241.025Z22.370
G1A237.071Z22.401
G1A232.676Z22.520
G1A221.031Z22.984
G1A215.429Z23.142
G1A210.046Z23.218
G1A206.091Z23.199
G1A201.807Z23.094
G1A193.567Z22.824
G1A188.953Z22.743
G1A183.900Z22.739
G1A177.309Z22.825
G1A168.300Z23.037
G1A159.622Z23.253
G1A155.227Z23.295
G1A150.943Z23.258
G1A144.791Z23.103
G1A136.771Z22.801
G1A127.104Z22.380
G1A122.820Z22.261
G1A118.975Z22.227
G1A115.020Z22.273
G1A110.296Z22.416
G1A99.420Z22.892
G1A90.522Z23.335
G1A85.908Z23.623
G1A81.733Z23.959
G1A77.229Z24.407
G1A66.353Z25.628
G1A62.289Z26.017
G1A57.894Z26.353
G1A50.754Z26.791
G1A41.855Z27.278
G1A27.135Z27.914
G1A18.785Z28.335
G1A13.293Z28.608
G1A8.898Z28.755
G1A3.076Z28.857
G1A0.000Z28.873
G1X9.843Z28.973
G1A5.163Z28.933
G1A10.546Z28.820
G1A14.611Z28.662
G1A26.475Z28.058
G1A35.703Z27.656
G1A42.295Z27.374
G1A53.500Z26.745
G1A58.993Z26.388
G1A63.277Z26.037
G1A67.562Z25.602
G1A77.998Z24.416
G1A82.283Z23.997
G1A86.457Z23.669
G1A91.401Z23.370
G1A100.409Z22.935
G1A110.626Z22.501
G1A115.240Z22.368
G1A119.194Z22.328
G1A123.039Z22.368
G1A127.324Z22.495
G1A140.287Z23.056
G1A147.098Z23.288
G1A152.261Z23.399
G1A156.436Z23.415
G1A161.160Z23.351
G1A176.100Z22.989
G1A183.021Z22.889
G1A188.294Z22.883
G1A192.908Z22.951
G1A199.170Z23.144
G1A204.553Z23.305
G1A208.398Z23.349
G1A212.572Z23.316
G1A218.065Z23.196
G1A224.217Z22.979
G1A233.555Z22.598
G1A237.730Z22.494
G1A241.575Z22.473
G1A245.749Z22.531
G1A251.132Z22.699
G1A263.876Z23.229
G1A270.357Z23.557
G1A275.301Z23.879
G1A280.354Z24.287
G1A292.658Z25.434
G1A298.261Z25.876
G1A315.508Z27.044
G1A324.956Z27.717
G1A332.865Z28.189
G1A339.896Z28.546
G1A345.279Z28.742
G1A350.992Z28.883
G1A358.682Z28.970
G1A360.000Z28.973
G1X9.922Z29.072
G1A353.079Z29.017
G1A347.806Z28.921
G1A341.874Z28.740
G1A336.161Z28.477
G1A327.043Z27.963
G1A320.342Z27.511
G1A309.686Z26.746
G1A298.151Z25.959
G1A292.548Z25.510
G1A284.748Z24.776
G1A278.706Z24.221
G1A273.763Z23.844
G1A268.599Z23.535
G1A260.800Z23.174
G1A249.924Z22.749
G1A244.870Z22.610
G1A240.806Z22.572
G1A236.851Z22.613
G1A232.457Z22.744
G1A221.361Z23.208
G1A215.648Z23.378
G1A210.265Z23.468
G1A206.311Z23.463
G1A202.136Z23.377
G1A193.128Z23.098
G1A188.404Z23.025
G1A183.131Z23.029
G1A176.100Z23.127
G1A163.247Z23.429
G1A157.864Z23.527
G1A153.580Z23.532
G1A148.966Z23.456
G1A142.704Z23.266
G1A135.124Z22.957
G1A126.994Z22.588
G1A122.820Z22.466
G1A118.975Z22.428
G1A115.020Z22.471
G1A110.186Z22.614
G1A98.212Z23.120
G1A90.742Z23.487
G1A86.018Z23.782
G1A81.953Z24.111
G1A77.778Z24.528
G1A66.244Z25.847
G1A62.179Z26.242
G1A57.785Z26.585
G1A50.644Z27.027
G1A41.965Z27.510
G1A34.605Z27.818
G1A25.157Z28.232
G1A13.842Z28.809
G1A9.667Z28.952
G1A3.735Z29.052
G1A0.000Z29.072
G1X10.001Z29.169
G1A5.713Z29.128
G1A10.986Z29.023
G1A14.721Z28.880
G1A26.256Z28.291
G1A34.715Z27.933
G1A41.416Z27.658
G1A48.666Z27.259
G1A57.235Z26.733
G1A61.630Z26.395
G1A65.584Z26.018
G1A71.187Z25.382
G1A78.108Z24.579
G1A82.392Z24.158
G1A86.567Z23.830
G1A91.401Z23.536
G1A99.640Z23.141
G1A110.626Z22.694
G1A115.349Z22.563
G1A119.304Z22.528
G1A123.149Z22.574
G1A127.434Z22.711
G1A139.628Z23.268
G1A146.659Z23.517
G1A151.932Z23.639
G1A156.216Z23.664
G1A160.940Z23.607
G1A176.100Z23.263
G1A183.131Z23.167
G1A188.404Z23.164
G1A193.128Z23.236
G1A204.114Z23.556
G1A208.178Z23.601
G1A212.353Z23.569
G1A218.065Z23.439
G1A224.107Z23.220
G1A233.445Z22.814
G1A237.620Z22.701
G1A241.465Z22.672
G1A245.639Z22.723
G1A251.352Z22.889
G1A262.887Z23.342
G1A269.478Z23.655
G1A274.422Z23.962
G1A279.365Z24.352
G1A286.396Z25.017
G1A292.878Z25.625
G1A299.030Z26.114
G1A315.838Z27.291
G1A324.406Z27.908
G1A332.096Z28.367
G1A339.786Z28.764
G1A344.730Z28.947
G1A350.882Z29.090
G1A359.121Z29.168
G1A360.000Z29.169
G1X10.081Z29.265
G1A351.980Z29.207
G1A346.488Z29.101
G1A341.544Z28.948
G1A335.722Z28.672
G1A326.274Z28.139
G1A319.902Z27.706
G1A308.148Z26.848
G1A297.492Z26.089
G1A291.999Z25.634
G1A279.475Z24.436
G1A274.641Z24.049
G1A269.808Z23.746
G1A263.656Z23.452
G1A250.803Z22.961
G1A245.310Z22.812
G1A241.245Z22.771
G1A237.400Z22.807
G1A233.226Z22.928
G1A221.361Z23.448
G1A215.868Z23.623
G1A210.375Z23.724
G1A206.311Z23.724
G1A202.136Z23.642
G1A193.128Z23.371
G1A188.294Z23.299
G1A182.911Z23.304
G1A175.880Z23.401
G1A159.402Z23.763
G1A155.008Z23.791
G1A150.613Z23.740
G1A144.461Z23.568
G1A137.431Z23.292
G1A126.994Z22.798
G1A122.820Z22.669
G1A119.085Z22.627
G1A115.130Z22.665
G1A110.186Z22.804
G1A99.969Z23.215
G1A91.840Z23.596
G1A86.787Z23.899
G1A82.612Z24.225
G1A78.547Z24.622
G1A72.835Z25.276
G1A66.244Z26.046
G1A62.179Z26.451
G1A57.785Z26.802
G1A51.303Z27.216
G1A42.295Z27.736
G1A36.912Z27.970
G1A28.453Z28.301
G1A20.983Z28.662
G1A14.501Z29.000
G1A10.656Z29.139
G1A5.053Z29.235
G1A0.000Z29.265
G1X10.160Z29.360
G1A6.262Z29.319
G1A11.315Z29.225
G1A15.050Z29.083
G1A25.926Z28.522
G1A33.506Z28.209
G1A40.427Z27.947
G1A46.030Z27.646
G1A56.686Z26.986
G1A61.080Z26.650
G1A65.145Z26.261
G1A70.528Z25.647
G1A78.108Z24.757
G1A82.173Z24.350
G1A86.237Z24.020
G1A91.071Z23.720
G1A97.882Z23.392
G1A109.966Z22.905
G1A115.020Z22.764
G1A118.975Z22.726
G1A122.710Z22.767
G1A126.774Z22.893
G1A133.476Z23.214
G1A140.177Z23.525
G1A147.208Z23.774
G1A152.151Z23.889
G1A156.436Z23.915
G1A161.269Z23.858
G1A176.540Z23.530
G1A183.570Z23.443
G1A188.843Z23.446
G1A193.677Z23.527
G1A203.894Z23.821
G1A207.849Z23.863
G1A212.243Z23.826
G1A218.285Z23.675
G1A224.327Z23.443
G1A233.335Z23.029
G1A237.510Z22.906
G1A241.355Z22.870
G1A245.529Z22.912
G1A250.803Z23.053
G1A263.656Z23.527
G1A269.588Z23.804
G1A274.312Z24.096
G1A279.146Z24.479
G1A285.847Z25.121
G1A292.768Z25.788
G1A298.480Z26.256
G1A316.277Z27.545
G1A323.857Z28.096
G1A331.108Z28.529
G1A339.786Z28.982
G1A344.400Z29.154
G1A350.772Z29.292
G1A359.561Z29.359
G1A360.000Z29.360
G1X10.239Z29.456
G1A350.882Z29.393
G1A344.730Z29.269
G1A340.226Z29.108
G1A331.877Z28.678
G1A324.297Z28.235
G1A317.705Z27.764
G1A305.401Z26.852
G1A296.942Z26.227
G1A291.450Z25.751
G1A279.695Z24.600
G1A275.191Z24.231
G1A270.687Z23.935
G1A265.304Z23.669
G1A255.307Z23.296
G1A247.287Z23.046
G1A242.783Z22.972
G1A238.938Z22.983
G1A234.983Z23.073
G1A230.040Z23.278
G1A221.910Z23.661
G1A216.198Z23.858
G1A210.705Z23.973
G1A206.530Z23.988
G1A202.356Z23.920
G1A192.579Z23.644
G1A187.745Z23.581
G1A182.142Z23.595
G1A174.123Z23.711
G1A159.512Z24.013
G1A155.008Z24.037
G1A150.504Z23.979
G1A144.571Z23.807
G1A137.650Z23.531
G1A126.994Z23.005
G1A122.930Z22.872
G1A119.194Z22.825
G1A115.240Z22.857
G1A110.186Z22.994
G1A97.882Z23.476
G1A91.291Z23.789
G1A86.457Z24.085
G1A82.392Z24.414
G1A78.438Z24.809
G1A72.066Z25.557
G1A65.914Z26.277
G1A61.739Z26.692
G1A57.455Z27.037
G1A49.875Z27.525
G1A42.075Z27.985
G1A37.351Z28.191
G1A28.782Z28.503
G1A21.861Z28.829
G1A14.721Z29.205
G1A10.876Z29.340
G1A5.273Z29.426
G1A0.000Z29.456
G1X10.319Z29.554
G1A6.701Z29.511
G1A11.645Z29.421
G1A15.380Z29.280
G1A25.597Z28.748
G1A32.408Z28.471
G1A39.768Z28.213
G1A44.602Z27.960
G1A56.466Z27.210
G1A61.190Z26.843
G1A65.255Z26.447
G1A70.418Z25.851
G1A78.108Z24.932
G1A82.173Z24.516
G1A86.128Z24.189
G1A90.742Z23.899
G1A96.894Z23.601
G1A109.307Z23.120
G1A114.690Z22.968
G1A118.645Z22.925
G1A122.380Z22.961
G1A126.225Z23.076
G1A131.828Z23.345
G1A139.078Z23.709
G1A145.890Z23.967
G1A151.053Z24.108
G1A155.447Z24.158
G1A160.061Z24.128
G1A176.979Z23.798
G1A184.010Z23.722
G1A189.283Z23.733
G1A194.226Z23.822
G1A203.564Z24.078
G1A207.519Z24.118
G1A212.023Z24.077
G1A218.175Z23.916
G1A223.888Z23.690
G1A233.226Z23.240
G1A237.180Z23.114
G1A241.025Z23.068
G1A245.200Z23.101
G1A251.022Z23.245
G1A263.216Z23.656
G1A269.039Z23.917
G1A273.763Z24.200
G1A278.486Z24.566
G1A283.979Z25.084
G1A292.438Z25.925
G1A298.151Z26.412
G1A315.948Z27.738
G1A323.198Z28.273
G1A329.789Z28.668
G1A339.896Z29.198
G1A344.291Z29.361
G1A350.882Z29.494
G1A360.000Z29.554
G1X10.398Z29.650
G1A350.552Z29.593
G1A344.291Z29.467
G1A339.896Z29.304
G1A329.350Z28.750
G1A322.868Z28.359
G1A315.728Z27.828
G1A297.601Z26.457
G1A291.999Z25.965
G1A280.024Z24.777
G1A275.520Z24.398
G1A271.126Z24.103
G1A266.073Z23.847
G1A258.822Z23.576
G1A248.056Z23.257
G1A243.222Z23.176
G1A239.268Z23.183
G1A235.313Z23.270
G1A230.589Z23.463
G1A221.910Z23.890
G1A216.417Z24.089
G1A210.925Z24.215
G1A206.640Z24.242
G1A202.466Z24.185
G1A192.139Z23.912
G1A187.196Z23.857
G1A181.263Z23.879
G1A171.706Z24.021
G1A159.512Z24.256
G1A155.008Z24.275
G1A150.394Z24.211
G1A144.681Z24.041
G1A137.870Z23.766
G1A127.214Z23.223
G1A123.149Z23.082
G1A119.414Z23.029
G1A115.459Z23.054
G1A110.406Z23.180
G1A98.651Z23.610
G1A92.060Z23.906
G1A87.116Z24.198
G1A83.161Z24.509
G1A79.207Z24.896
G1A73.824Z25.525
G1A66.353Z26.425
G1A62.289Z26.846
G1A58.224Z27.189
G1A51.962Z27.609
G1A42.405Z28.199
G1A38.120Z28.395
G1A29.002Z28.705
G1A22.301Z29.015
G1A14.831Z29.411
G1A10.986Z29.543
G1A5.603Z29.622
G1A0.000Z29.650
G1X10.478Z29.745
G1A7.470Z29.703
G1A11.974Z29.623
G1A15.600Z29.484
G1A25.377Z28.972
G1A31.749Z28.713
G1A39.439Z28.457
G1A43.723Z28.236
G1A56.247Z27.437
G1A60.531Z27.106
G1A64.376Z26.737
G1A69.100Z26.196
G1A77.998Z25.113
G1A81.953Z24.699
G1A85.798Z24.372
G1A90.082Z24.091
G1A95.685Z23.812
G1A106.231Z23.413
G1A113.262Z23.197
G1A117.547Z23.132
G1A121.282Z23.149
G1A125.127Z23.247
G1A129.850Z23.457
G1A138.749Z23.918
G1A145.450Z24.182
G1A151.053Z24.338
G1A155.447Z24.392
G1A160.061Z24.367
G1A176.649Z24.069
G1A184.120Z23.993
G1A189.503Z24.008
G1A194.556Z24.100
G1A203.345Z24.329
G1A207.409Z24.366
G1A212.023Z24.316
G1A218.065Z24.151
G1A223.558Z23.928
G1A233.226Z23.453
G1A237.290Z23.320
G1A241.135Z23.271
G1A245.420Z23.300
G1A251.791Z23.446
G1A261.569Z23.746
G1A267.830Z23.998
G1A272.554Z24.259
G1A276.948Z24.579
G1A281.782Z25.018
G1A292.987Z26.138
G1A298.920Z26.651
G1A321.880Z28.402
G1A327.702Z28.768
G1A339.786Z29.407
G1A344.071Z29.569
G1A350.223Z29.691
G1A359.780Z29.745
G1A360.000Z29.745
G1X10.557Z29.839
G1A350.223Z29.792
G1A344.181Z29.679
G1A340.006Z29.524
G1A326.933Z28.834
G1A321.330Z28.477
G1A299.689Z26.801
G1A293.317Z26.250
G1A286.616Z25.582
G1A279.695Z24.891
G1A275.301Z24.518
G1A270.796Z24.221
G1A265.853Z23.981
G1A258.493Z23.722
G1A248.605Z23.456
G1A243.442Z23.375
G1A239.487Z23.384
G1A235.642Z23.470
G1A231.028Z23.661
G1A222.020Z24.115
G1A216.527Z24.318
G1A211.034Z24.450
G1A206.640Z24.485
G1A202.356Z24.435
G1A191.810Z24.172
G1A186.756Z24.123
G1A180.494Z24.151
G1A169.509Z24.311
G1A159.182Z24.494
G1A154.678Z24.505
G1A149.954Z24.431
G1A142.923Z24.209
G1A136.662Z23.934
G1A127.104Z23.431
G1A123.039Z23.287
G1A119.304Z23.232
G1A115.349Z23.255
G1A109.966Z23.383
G1A98.761Z23.767
G1A92.280Z24.052
G1A87.556Z24.327
G1A83.601Z24.631
G1A79.646Z25.012
G1A74.812Z25.575
G1A66.353Z26.613
G1A62.289Z27.044
G1A58.224Z27.396
G1A52.182Z27.815
G1A42.405Z28.428
G1A38.340Z28.617
G1A28.782Z28.932
G1A22.521Z29.218
G1A14.940Z29.623
G1A11.205Z29.745
G1A6.042Z29.814
G1A0.000Z29.839
G1X10.636Z29.932
G1A8.569Z29.888
G1A12.853Z29.806
G1A16.259Z29.666
G1A25.047Z29.199
G1A31.089Z28.957
G1A38.999Z28.711
G1A43.064Z28.507
G1A55.697Z27.684
G1A60.201Z27.333
G1A64.156Z26.949
G1A68.880Z26.402
G1A77.669Z25.317
G1A81.514Z24.904
G1A85.359Z24.567
G1A89.533Z24.281
G1A94.806Z24.012
G1A103.375Z23.683
G1A112.273Z23.414
G1A116.887Z23.337
G1A120.732Z23.346
G1A124.468Z23.433
G1A128.862Z23.622
G1A138.639Z24.145
G1A145.230Z24.409
G1A151.053Z24.574
G1A155.557Z24.630
G1A160.281Z24.603
G1A175.771Z24.335
G1A184.120Z24.254
G1A189.612Z24.270
G1A194.886Z24.366
G1A203.345Z24.576
G1A207.409Z24.609
G1A212.023Z24.555
G1A218.065Z24.387
G1A223.448Z24.166
G1A233.226Z23.666
G1A237.290Z23.527
G1A241.135Z23.471
G1A245.420Z23.492
G1A252.560Z23.638
G1A262.777Z23.936
G1A268.380Z24.162
G1A272.884Z24.416
G1A276.948Z24.717
G1A282.002Z25.183
G1A292.878Z26.292
G1A299.030Z26.834
G1A320.562Z28.535
G1A325.835Z28.881
G1A340.006Z29.630
G1A344.071Z29.781
G1A349.564Z29.883
G1A356.924Z29.925
G1A360.000Z29.932
G1X10.716Z30.023
G1A350.113Z29.988
G1A344.400Z29.894
G1A340.446Z29.754
G1A325.835Z28.991
G1A320.671Z28.656
G1A311.553Z27.934
G1A296.723Z26.726
G1A291.010Z26.189
G1A280.574Z25.113
G1A275.960Z24.703
G1A271.785Z24.413
G1A267.171Z24.174
G1A261.349Z23.962
G1A250.143Z23.668
G1A244.211Z23.575
G1A240.037Z23.579
G1A236.192Z23.660
G1A231.907Z23.833
G1A222.020Z24.347
G1A216.637Z24.554
G1A210.925Z24.697
G1A206.640Z24.734
G1A202.356Z24.687
G1A191.700Z24.429
G1A186.646Z24.382
G1A180.275Z24.412
G1A168.959Z24.571
G1A159.292Z24.735
G1A154.788Z24.744
G1A150.064Z24.669
G1A143.143Z24.450
G1A137.101Z24.185
G1A127.104Z23.643
G1A123.039Z23.493
G1A119.304Z23.434
G1A115.240Z23.453
G1A109.527Z23.579
G1A99.420Z23.908
G1A92.939Z24.176
G1A88.215Z24.441
G1A84.260Z24.734
G1A80.415Z25.096
G1A76.021Z25.598
G1A66.244Z26.807
G1A62.179Z27.246
G1A58.114Z27.605
G1A52.182Z28.026
G1A42.514Z28.654
G1A38.670Z28.840
G1A28.673Z29.150
G1A22.850Z29.410
G1A15.050Z29.830
G1A11.645Z29.938
G1A6.701Z30.000
G1A0.000Z30.023
G1X10.795Z30.114
G1A9.448Z30.072
G1A13.403Z29.993
G1A16.698Z29.852
G1A24.828Z29.415
G1A30.320Z29.197
G1A38.670Z28.956
G1A42.514Z28.767
G1A53.940Z28.010
G1A59.103Z27.621
G1A63.168Z27.238
G1A67.672Z26.729
G1A77.998Z25.445
G1A81.953Z25.021
G1A85.688Z24.696
G1A89.753Z24.422
G1A94.806Z24.168
G1A102.606Z23.881
G1A111.614Z23.617
G1A116.558Z23.537
G1A120.403Z23.544
G1A124.138Z23.629
G1A128.422Z23.813
G1A138.529Z24.369
G1A144.791Z24.624
G1A150.943Z24.804
G1A155.337Z24.864
G1A160.061Z24.845
G1A175.661Z24.598
G1A184.229Z24.518
G1A189.722Z24.536
G1A194.995Z24.632
G1A202.905Z24.823
G1A207.190Z24.857
G1A211.803Z24.800
G1A217.846Z24.631
G1A223.009Z24.416
G1A233.335Z23.872
G1A237.400Z23.728
G1A241.245Z23.668
G1A245.749Z23.685
G1A252.670Z23.814
G1A262.338Z24.064
G1A267.720Z24.264
G1A272.225Z24.506
G1A276.399Z24.805
G1A281.013Z25.223
G1A293.317Z26.496
G1A299.469Z27.048
G1A319.573Z28.686
G1A324.626Z29.029
G1A338.139Z29.745
G1A342.643Z29.945
G1A346.598Z30.041
G1A352.969Z30.102
G1A360.000Z30.114
G1X10.874Z30.208
G1A350.003Z30.177
G1A344.730Z30.106
G1A340.885Z29.978
G1A325.066Z29.163
G1A320.232Z28.846
G1A312.981Z28.261
G1A297.052Z26.925
G1A291.230Z26.366
G1A281.013Z25.292
G1A276.289Z24.864
G1A272.225Z24.573
G1A267.830Z24.337
G1A262.557Z24.140
G1A253.879Z23.925
G1A245.749Z23.779
G1A241.465Z23.764
G1A237.510Z23.825
G1A233.445Z23.971
G1A227.183Z24.304
G1A221.251Z24.612
G1A215.648Z24.818
G1A210.375Z24.944
G1A206.421Z24.977
G1A202.136Z24.934
G1A191.590Z24.692
G1A186.427Z24.648
G1A179.725Z24.681
G1A168.190Z24.830
G1A159.182Z24.971
G1A154.568Z24.974
G1A149.954Z24.896
G1A143.143Z24.679
G1A137.431Z24.427
G1A127.104Z23.852
G1A123.149Z23.701
G1A119.414Z23.634
G1A115.349Z23.645
G1A109.857Z23.755
G1A99.420Z24.069
G1A93.158Z24.318
G1A88.544Z24.571
G1A84.699Z24.851
G1A80.964Z25.198
G1A76.790Z25.670
G1A66.353Z26.977
G1A62.179Z27.434
G1A58.114Z27.798
G1A51.742Z28.260
G1A42.405Z28.885
G1A38.670Z29.069
G1A33.616Z29.212
G1A28.343Z29.370
G1A22.960Z29.608
G1A15.270Z30.025
G1A12.084Z30.127
G1A6.701Z30.188
G1A0.000Z30.208
G1X10.954Z30.302
G1A9.667Z30.263
G1A13.512Z30.190
G1A16.698Z30.055
G1A24.608Z29.626
G1A29.771Z29.422
G1A38.340Z29.193
G1A41.746Z29.033
G1A48.007Z28.619
G1A57.455Z27.949
G1A61.410Z27.604
G1A65.365Z27.182
G1A71.517Z26.421
G1A78.218Z25.580
G1A82.173Z25.153
G1A85.908Z24.829
G1A89.973Z24.557
G1A94.806Z24.319
G1A101.947Z24.067
G1A111.614Z23.808
G1A116.668Z23.733
G1A120.513Z23.745
G1A124.248Z23.837
G1A128.532Z24.029
G1A138.419Z24.588
G1A144.242Z24.831
G1A150.833Z25.029
G1A155.117Z25.090
G1A159.841Z25.079
G1A175.111Z24.857
G1A184.559Z24.779
G1A190.162Z24.801
G1A195.764Z24.907
G1A202.795Z25.067
G1A207.190Z25.096
G1A211.913Z25.033
G1A218.175Z24.849
G1A223.338Z24.625
G1A233.226Z24.084
G1A237.290Z23.931
G1A241.025Z23.866
G1A245.529Z23.873
G1A253.879Z24.007
G1A261.898Z24.191
G1A267.281Z24.381
G1A271.675Z24.605
G1A275.740Z24.886
G1A280.354Z25.296
G1A287.605Z26.055
G1A294.086Z26.730
G1A300.787Z27.337
G1A319.024Z28.864
G1A323.747Z29.192
G1A330.449Z29.549
G1A341.324Z30.096
G1A345.060Z30.212
G1A351.212Z30.287
G1A360.000Z30.302
G1X11.033Z30.394
G1A350.003Z30.374
G1A344.840Z30.311
G1A341.105Z30.191
G1A324.626Z29.350
G1A320.012Z29.047
G1A313.311Z28.499
G1A297.382Z27.121
G1A291.340Z26.528
G1A280.684Z25.396
G1A276.070Z24.979
G1A272.115Z24.696
G1A267.720Z24.466
G1A262.557Z24.282
G1A255.526Z24.118
G1A245.969Z23.973
G1A241.355Z23.965
G1A237.510Z24.029
G1A233.445Z24.178
G1A227.623Z24.494
G1A221.691Z24.816
G1A216.417Z25.022
G1A210.925Z25.167
G1A206.970Z25.212
G1A202.685Z25.185
G1A191.260Z24.942
G1A186.097Z24.905
G1A178.737Z24.944
G1A167.861Z25.072
G1A158.962Z25.199
G1A154.349Z25.195
G1A149.954Z25.119
G1A143.473Z24.914
G1A137.980Z24.676
G1A127.104Z24.060
G1A123.149Z23.905
G1A119.414Z23.837
G1A115.240Z23.845
G1A108.978Z23.961
G1A99.310Z24.229
G1A93.378Z24.455
G1A88.764Z24.704
G1A84.809Z24.991
G1A81.294Z25.317
G1A77.229Z25.777
G1A66.024Z27.193
G1A61.959Z27.643
G1A57.894Z28.012
G1A51.303Z28.493
G1A41.965Z29.127
G1A38.560Z29.295
G1A34.385Z29.410
G1A29.222Z29.543
G1A24.168Z29.752
G1A15.160Z30.233
G1A12.194Z30.325
G1A7.141Z30.378
G1A0.000Z30.394
G1X11.113Z30.485
G1A10.327Z30.452
G1A13.952Z30.381
G1A17.028Z30.246
G1A24.498Z29.838
G1A29.551Z29.639
G1A38.230Z29.416
G1A41.636Z29.255
G1A47.678Z28.851
G1A57.125Z28.170
G1A61.190Z27.810
G1A65.145Z27.383
G1A71.077Z26.643
G1A78.108Z25.748
G1A82.063Z25.317
G1A85.688Z24.996
G1A89.643Z24.725
G1A94.367Z24.488
G1A100.738Z24.261
G1A110.296Z24.022
G1A116.009Z23.938
G1A120.073Z23.947
G1A123.808Z24.031
G1A127.873Z24.206
G1A138.529Z24.812
G1A144.022Z25.044
G1A150.504Z25.241
G1A154.788Z25.308
G1A159.512Z25.304
G1A174.782Z25.102
G1A185.108Z25.029
G1A190.711Z25.057
G1A196.643Z25.174
G1A203.015Z25.307
G1A207.299Z25.325
G1A211.584Z25.266
G1A217.406Z25.101
G1A222.569Z24.883
G1A233.335Z24.290
G1A237.400Z24.136
G1A241.245Z24.066
G1A245.969Z24.067
G1A255.856Z24.200
G1A263.326Z24.373
G1A268.380Z24.561
G1A272.554Z24.788
G1A276.399Z25.071
G1A280.903Z25.485
G1A293.537Z26.830
G1A300.348Z27.473
G1A317.705Z28.978
G1A322.539Z29.332
G1A327.812Z29.629
G1A341.434Z30.308
G1A345.060Z30.418
G1A350.442Z30.474
G1A360.000Z30.485
G1X11.192Z30.575
G1A349.564Z30.565
G1A344.840Z30.515
G1A341.215Z30.401
G1A324.187Z29.544
G1A319.683Z29.244
G1A313.750Z28.753
G1A297.272Z27.273
G1A291.230Z26.670
G1A280.793Z25.540
G1A276.399Z25.134
G1A272.554Z24.850
G1A268.489Z24.630
G1A263.656Z24.451
G1A256.955Z24.298
G1A248.276Z24.179
G1A242.673Z24.156
G1A238.608Z24.208
G1A234.654Z24.337
G1A229.710Z24.591
G1A222.350Z25.008
G1A217.186Z25.223
G1A211.474Z25.382
G1A207.299Z25.439
G1A203.015Z25.421
G1A196.643Z25.292
G1A190.491Z25.175
G1A184.229Z25.152
G1A170.497Z25.263
G1A158.962Z25.423
G1A154.349Z25.418
G1A149.954Z25.341
G1A143.692Z25.146
G1A138.309Z24.916
G1A131.169Z24.502
G1A126.115Z24.228
G1A122.270Z24.092
G1A118.425Z24.035
G1A113.811Z24.057
G1A106.121Z24.201
G1A98.432Z24.412
G1A92.829Z24.631
G1A88.435Z24.873
G1A84.590Z25.161
G1A80.964Z25.507
G1A76.790Z25.988
G1A65.804Z27.390
G1A61.630Z27.856
G1A57.565Z28.229
G1A50.534Z28.751
G1A42.295Z29.327
G1A38.889Z29.504
G1A35.154Z29.614
G1A29.112Z29.757
G1A24.278Z29.951
G1A18.456Z30.270
G1A14.831Z30.451
G1A11.974Z30.529
G1A6.591Z30.566
G1A0.000Z30.575
G1X11.271Z30.664
G1A10.876Z30.639
G1A14.281Z30.572
G1A17.357Z30.432
G1A24.168Z30.056
G1A28.892Z29.867
G1A34.165Z29.744
G1A38.230Z29.640
G1A41.526Z29.482
G1A47.238Z29.090
G1A56.906Z28.375
G1A60.751Z28.032
G1A64.815Z27.591
G1A70.748Z26.850
G1A77.998Z25.920
G1A81.953Z25.481
G1A85.578Z25.153
G1A89.423Z24.885
G1A93.927Z24.655
G1A99.860Z24.445
G1A108.099Z24.242
G1A114.910Z24.142
G1A119.304Z24.143
G1A123.039Z24.217
G1A126.994Z24.377
G1A133.366Z24.747
G1A139.078Z25.067
G1A144.681Z25.296
G1A151.273Z25.486
G1A156.216Z25.543
G1A161.489Z25.512
G1A174.013Z25.346
G1A185.328Z25.271
G1A191.041Z25.303
G1A197.302Z25.428
G1A203.235Z25.544
G1A207.519Z25.556
G1A211.803Z25.492
G1A217.516Z25.328
G1A222.679Z25.106
G1A233.445Z24.497
G1A237.510Z24.338
G1A241.465Z24.262
G1A246.518Z24.256
G1A254.867Z24.342
G1A262.228Z24.479
G1A267.171Z24.637
G1A271.346Z24.839
G1A275.081Z25.090
G1A279.475Z25.474
G1A284.968Z26.051
G1A293.427Z26.976
G1A300.018Z27.612
G1A316.826Z29.127
G1A321.550Z29.489
G1A326.164Z29.760
G1A337.589Z30.325
G1A342.203Z30.540
G1A345.719Z30.630
G1A352.530Z30.671
G1A360.000Z30.664
G1X11.351Z30.752
G1A348.685Z30.752
G1A344.510Z30.706
G1A340.995Z30.591
G1A329.020Z30.002
G1A323.418Z29.718
G1A319.243Z29.432
G1A313.641Z28.955
G1A296.173Z27.331
G1A289.912Z26.674
G1A281.013Z25.690
G1A276.729Z25.288
G1A272.994Z25.004
G1A269.039Z24.781
G1A264.645Z24.611
G1A258.712Z24.476
G1A248.605Z24.357
G1A242.673Z24.349
G1A238.499Z24.413
G1A234.544Z24.551
G1A229.490Z24.821
G1A222.350Z25.236
G1A217.296Z25.450
G1A211.913Z25.605
G1A207.739Z25.670
G1A203.564Z25.666
G1A198.071Z25.567
G1A191.370Z25.432
G1A185.658Z25.396
G1A173.464Z25.472
G1A158.413Z25.652
G1A154.019Z25.638
G1A149.515Z25.554
G1A143.583Z25.370
G1A138.309Z25.142
G1A131.718Z24.754
G1A126.445Z24.456
G1A122.600Z24.308
G1A118.755Z24.239
G1A114.031Z24.244
G1A107.220Z24.346
G1A98.981Z24.548
G1A93.378Z24.752
G1A88.984Z24.983
G1A85.249Z25.253
G1A81.623Z25.589
G1A77.449Z26.063
G1A65.914Z27.546
G1A61.630Z28.030
G1A57.455Z28.421
G1A50.204Z28.973
G1A42.185Z29.548
G1A38.779Z29.729
G1A35.264Z29.831
G1A29.222Z29.959
G1A24.608Z30.134
G1A19.115Z30.431
G1A15.380Z30.629
G1A12.743Z30.709
G1A7.690Z30.747
G1A0.000Z30.752
G1X11.430Z30.842
G1A11.645Z30.820
G1A14.721Z30.753
G1A17.797Z30.606
G1A24.059Z30.258
G1A28.563Z30.079
G1A33.396Z29.971
G1A37.681Z29.878
G1A40.867Z29.733
G1A45.481Z29.421
G1A57.016Z28.548
G1A60.861Z28.197
G1A64.925Z27.749
G1A71.187Z26.955
G1A78.108Z26.059
G1A82.283Z25.594
G1A86.018Z25.262
G1A89.753Z25.007
G1A94.257Z24.786
G1A99.969Z24.595
G1A108.209Z24.414
G1A114.361Z24.335
G1A118.975Z24.341
G1A122.820Z24.418
G1A126.774Z24.578
G1A132.707Z24.925
G1A138.639Z25.270
G1A143.912Z25.494
G1A150.064Z25.678
G1A155.008Z25.760
G1A160.061Z25.750
G1A173.903Z25.586
G1A186.097Z25.520
G1A191.700Z25.558
G1A202.905Z25.775
G1A206.860Z25.789
G1A210.705Z25.744
G1A215.978Z25.608
G1A221.031Z25.412
G1A226.305Z25.124
G1A233.226Z24.718
G1A237.290Z24.548
G1A241.355Z24.458
G1A246.518Z24.435
G1A257.064Z24.523
G1A263.216Z24.636
G1A268.050Z24.800
G1A272.115Z25.011
G1A275.740Z25.270
G1A280.024Z25.656
G1A285.627Z26.260
G1A293.756Z27.164
G1A300.787Z27.856
G1A316.717Z29.334
G1A321.221Z29.686
G1A325.505Z29.939
G1A336.271Z30.452
G1A341.764Z30.721
G1A345.169Z30.816
G1A350.113Z30.849
G1A360.000Z30.842
G1X11.509Z30.932
G1A348.136Z30.937
G1A344.181Z30.892
G1A340.775Z30.775
G1A330.449Z30.267
G1A323.857Z29.957
G1A319.902Z29.700
G1A315.069Z29.293
G1A296.723Z27.545
G1A290.351Z26.866
G1A281.233Z25.844
G1A276.948Z25.434
G1A273.103Z25.137
G1A269.258Z24.918
G1A264.754Z24.745
G1A259.371Z24.625
G1A250.803Z24.546
G1A243.442Z24.532
G1A239.158Z24.595
G1A235.203Z24.727
G1A230.479Z24.975
G1A222.569Z25.447
G1A217.736Z25.661
G1A212.353Z25.822
G1A207.849Z25.895
G1A203.894Z25.898
G1A198.731Z25.817
G1A191.260Z25.671
G1A184.669Z25.642
G1A169.728Z25.740
G1A158.413Z25.870
G1A154.129Z25.857
G1A149.295Z25.767
G1A143.253Z25.581
G1A138.200Z25.358
G1A131.608Z24.964
G1A126.335Z24.661
G1A122.490Z24.510
G1A118.535Z24.435
G1A113.811Z24.432
G1A106.121Z24.536
G1A98.651Z24.706
G1A93.378Z24.893
G1A89.094Z25.116
G1A85.359Z25.385
G1A81.733Z25.723
G1A77.559Z26.200
G1A65.804Z27.725
G1A61.520Z28.217
G1A57.455Z28.603
G1A50.644Z29.131
G1A41.965Z29.769
G1A38.670Z29.947
G1A35.264Z30.045
G1A29.112Z30.161
G1A24.718Z30.323
G1A19.554Z30.600
G1A15.600Z30.814
G1A13.073Z30.892
G1A8.349Z30.929
G1A0.000Z30.932
G1X11.589Z31.022
G1A11.865Z31.007
G1A14.831Z30.942
G1A17.797Z30.800
G1A24.059Z30.451
G1A28.453Z30.278
G1A33.067Z30.182
G1A37.241Z30.102
G1A40.208Z29.975
G1A44.382Z29.699
G1A56.466Z28.777
G1A60.531Z28.404
G1A64.596Z27.953
G1A70.748Z27.170
G1A78.108Z26.207
G1A82.173Z25.748
G1A85.798Z25.420
G1A89.643Z25.152
G1A94.037Z24.935
G1A99.310Z24.761
G1A106.781Z24.607
G1A114.141Z24.526
G1A118.865Z24.536
G1A122.820Z24.622
G1A126.774Z24.787
G1A132.707Z25.140
G1A138.529Z25.484
G1A143.583Z25.703
G1A149.625Z25.882
G1A154.678Z25.970
G1A159.402Z25.971
G1A173.683Z25.818
G1A186.646Z25.761
G1A192.249Z25.803
G1A202.905Z26.001
G1A206.860Z26.012
G1A210.925Z25.963
G1A216.088Z25.829
G1A221.031Z25.634
G1A226.305Z25.341
G1A233.335Z24.918
G1A237.510Z24.740
G1A241.355Z24.651
G1A246.738Z24.620
G1A256.955Z24.665
G1A262.777Z24.758
G1A267.501Z24.904
G1A271.456Z25.095
G1A275.081Z25.342
G1A279.255Z25.708
G1A284.309Z26.247
G1A294.196Z27.360
G1A301.886Z28.133
G1A316.717Z29.545
G1A320.891Z29.878
G1A324.846Z30.114
G1A335.502Z30.605
G1A341.654Z30.910
G1A345.060Z31.006
G1A349.674Z31.037
G1A360.000Z31.022
G1X11.668Z31.111
G1A347.367Z31.127
G1A343.741Z31.077
G1A340.226Z30.947
G1A331.108Z30.495
G1A323.747Z30.160
G1A320.012Z29.920
G1A315.398Z29.530
G1A297.931Z27.824
G1A290.571Z27.034
G1A281.123Z25.961
G1A277.058Z25.567
G1A273.103Z25.259
G1A269.258Z25.041
G1A264.974Z24.880
G1A259.811Z24.771
G1A253.329Z24.717
G1A244.211Z24.720
G1A239.597Z24.783
G1A235.642Z24.911
G1A231.248Z25.137
G1A222.679Z25.659
G1A217.846Z25.878
G1A212.572Z26.037
G1A207.959Z26.113
G1A204.223Z26.122
G1A199.170Z26.052
G1A191.260Z25.905
G1A184.559Z25.878
G1A169.179Z25.966
G1A158.193Z26.082
G1A153.799Z26.064
G1A148.306Z25.956
G1A142.374Z25.765
G1A137.431Z25.533
G1A126.884Z24.895
G1A123.039Z24.730
G1A119.085Z24.641
G1A114.251Z24.620
G1A106.781Z24.689
G1A99.640Z24.825
G1A94.147Z25.002
G1A89.753Z25.217
G1A86.018Z25.474
G1A82.392Z25.799
G1A78.328Z26.253
G1A71.956Z27.084
G1A65.145Z27.966
G1A60.861Z28.454
G1A56.796Z28.839
G1A47.568Z29.559
G1A41.526Z29.999
G1A38.340Z30.166
G1A35.154Z30.253
G1A29.112Z30.361
G1A24.828Z30.514
G1A19.774Z30.783
G1A15.709Z31.006
G1A13.183Z31.084
G1A8.679Z31.113
G1A0.000Z31.111
G1X11.748Z31.199
G1A12.304Z31.193
G1A15.160Z31.127
G1A18.236Z30.974
G1A23.949Z30.653
G1A28.233Z30.486
G1A32.627Z30.396
G1A37.022Z30.317
G1A39.878Z30.199
G1A43.723Z29.948
G1A56.247Z28.974
G1A60.311Z28.594
G1A64.486Z28.124
G1A71.187Z27.263
G1A78.328Z26.327
G1A82.283Z25.883
G1A85.908Z25.553
G1A89.643Z25.293
G1A93.927Z25.082
G1A99.200Z24.911
G1A105.572Z24.785
G1A113.152Z24.717
G1A118.425Z24.734
G1A122.490Z24.818
G1A126.445Z24.979
G1A131.938Z25.304
G1A138.200Z25.681
G1A143.143Z25.902
G1A149.185Z26.084
G1A154.349Z26.176
G1A158.853Z26.186
G1A172.804Z26.046
G1A186.976Z25.992
G1A192.579Z26.035
G1A203.015Z26.220
G1A207.080Z26.226
G1A211.584Z26.167
G1A216.747Z26.026
G1A221.691Z25.818
G1A227.513Z25.477
G1A233.665Z25.109
G1A237.730Z24.936
G1A241.904Z24.839
G1A248.166Z24.795
G1A256.405Z24.806
G1A262.338Z24.880
G1A266.951Z25.006
G1A270.906Z25.185
G1A274.532Z25.421
G1A278.596Z25.768
G1A282.991Z26.229
G1A293.976Z27.485
G1A303.204Z28.434
G1A315.838Z29.677
G1A320.122Z30.035
G1A323.967Z30.279
G1A331.108Z30.595
G1A338.029Z30.934
G1A342.313Z31.131
G1A345.609Z31.209
G1A351.212Z31.221
G1A360.000Z31.199
G1X11.827Z31.286
G1A346.488Z31.312
G1A343.082Z31.253
G1A339.347Z31.098
G1A331.767Z30.722
G1A324.077Z30.392
G1A320.452Z30.168
G1A316.387Z29.833
G1A308.367Z29.042
G1A294.745Z27.644
G1A287.055Z26.764
G1A280.574Z26.027
G1A276.619Z25.649
G1A272.774Z25.356
G1A268.929Z25.145
G1A264.645Z24.995
G1A259.591Z24.903
G1A252.341Z24.869
G1A243.772Z24.910
G1A239.158Z24.994
G1A235.093Z25.144
G1A230.259Z25.412
G1A222.679Z25.878
G1A217.846Z26.099
G1A212.682Z26.255
G1A207.959Z26.332
G1A204.114Z26.340
G1A198.950Z26.269
G1A191.150Z26.128
G1A184.339Z26.105
G1A168.740Z26.189
G1A158.084Z26.297
G1A153.470Z26.275
G1A147.428Z26.150
G1A141.715Z25.958
G1A136.881Z25.721
G1A126.994Z25.115
G1A122.930Z24.937
G1A118.865Z24.840
G1A113.702Z24.807
G1A106.341Z24.853
G1A99.420Z24.979
G1A94.147Z25.143
G1A89.863Z25.349
G1A86.237Z25.596
G1A82.612Z25.921
G1A78.877Z26.334
G1A73.164Z27.075
G1A65.475Z28.082
G1A60.970Z28.605
G1A56.906Z29.002
G1A48.996Z29.639
G1A41.746Z30.187
G1A38.670Z30.362
G1A35.484Z30.460
G1A29.002Z30.564
G1A24.828Z30.709
G1A19.994Z30.965
G1A15.929Z31.192
G1A13.512Z31.269
G1A9.667Z31.294
G1A0.000Z31.286
G1X11.906Z31.372
G1A12.634Z31.376
G1A15.490Z31.306
G1A18.566Z31.148
G1A23.839Z30.850
G1A28.013Z30.688
G1A32.298Z30.605
G1A36.692Z30.536
G1A39.548Z30.421
G1A43.174Z30.184
G1A55.807Z29.181
G1A60.201Z28.768
G1A64.376Z28.296
G1A70.857Z27.460
G1A78.328Z26.473
G1A82.063Z26.046
G1A85.688Z25.709
G1A89.313Z25.449
G1A93.488Z25.238
G1A98.432Z25.075
G1A104.913Z24.952
G1A111.395Z24.899
G1A117.327Z24.919
G1A121.611Z25.000
G1A125.566Z25.150
G1A130.400Z25.424
G1A137.760Z25.881
G1A142.594Z26.104
G1A148.416Z26.285
G1A154.019Z26.387
G1A158.523Z26.402
G1A173.024Z26.269
G1A187.305Z26.223
G1A192.798Z26.266
G1A203.015Z26.443
G1A207.409Z26.447
G1A212.133Z26.379
G1A217.186Z26.235
G1A221.910Z26.030
G1A227.513Z25.696
G1A233.665Z25.319
G1A237.840Z25.135
G1A242.124Z25.026
G1A249.045Z24.958
G1A257.614Z24.955
G1A262.997Z25.019
G1A267.391Z25.142
G1A271.236Z25.322
G1A274.861Z25.566
G1A278.816Z25.909
G1A283.210Z26.380
G1A294.306Z27.670
G1A303.204Z28.602
G1A315.398Z29.845
G1A319.573Z30.209
G1A323.198Z30.451
G1A327.922Z30.666
G1A334.733Z30.955
G1A341.764Z31.303
G1A344.950Z31.389
G1A349.234Z31.407
G1A360.000Z31.372
G1X11.986Z31.457
G1A346.268Z31.496
G1A342.972Z31.438
G1A339.237Z31.281
G1A332.206Z30.934
G1A324.077Z30.603
G1A320.562Z30.389
G1A316.717Z30.071
G1A310.125Z29.410
G1A295.075Z27.829
G1A287.055Z26.896
G1A280.903Z26.186
G1A277.058Z25.808
G1A273.103Z25.498
G1A269.368Z25.286
G1A265.194Z25.133
G1A260.690Z25.046
G1A254.648Z25.021
G1A245.310Z25.074
G1A240.037Z25.166
G1A235.862Z25.314
G1A231.358Z25.556
G1A222.789Z26.093
G1A217.955Z26.319
G1A213.012Z26.470
G1A208.068Z26.551
G1A203.674Z26.557
G1A197.852Z26.471
G1A190.711Z26.355
G1A184.120Z26.340
G1A168.081Z26.413
G1A157.864Z26.510
G1A153.030Z26.483
G1A146.659Z26.347
G1A141.276Z26.161
G1A136.442Z25.916
G1A126.884Z25.322
G1A122.820Z25.140
G1A118.535Z25.032
G1A112.933Z24.985
G1A106.231Z25.016
G1A99.640Z25.117
G1A94.477Z25.267
G1A90.302Z25.458
G1A86.677Z25.697
G1A83.052Z26.015
G1A79.426Z26.410
G1A74.153Z27.090
G1A65.694Z28.210
G1A61.080Z28.757
G1A57.016Z29.161
G1A48.666Z29.846
G1A41.636Z30.390
G1A38.450Z30.574
G1A35.374Z30.668
G1A28.892Z30.762
G1A24.828Z30.899
G1A20.214Z31.142
G1A16.149Z31.372
G1A13.732Z31.450
G1A10.107Z31.472
G1A0.000Z31.457
G1X12.065Z31.545
G1A12.853Z31.554
G1A15.600Z31.488
G1A18.785Z31.323
G1A23.839Z31.036
G1A27.904Z30.883
G1A32.078Z30.807
G1A36.363Z30.747
G1A39.329Z30.629
G1A42.954Z30.388
G1A55.807Z29.353
G1A59.982Z28.954
G1A64.266Z28.464
G1A71.077Z27.578
G1A78.438Z26.600
G1A82.063Z26.182
G1A85.688Z25.842
G1A89.313Z25.581
G1A93.268Z25.381
G1A97.992Z25.226
G1A104.034Z25.116
G1A111.175Z25.072
G1A116.558Z25.099
G1A121.172Z25.189
G1A125.237Z25.344
G1A129.960Z25.611
G1A137.540Z26.087
G1A142.374Z26.315
G1A147.867Z26.486
G1A153.909Z26.596
G1A158.523Z26.611
G1A172.145Z26.495
G1A187.745Z26.452
G1A193.348Z26.499
G1A203.235Z26.663
G1A208.068Z26.659
G1A213.122Z26.577
G1A217.955Z26.429
G1A222.789Z26.202
G1A230.040Z25.744
G1A234.983Z25.456
G1A239.158Z25.287
G1A244.101Z25.177
G1A253.659Z25.096
G1A259.921Z25.102
G1A264.754Z25.183
G1A268.929Z25.325
G1A272.664Z25.529
G1A276.509Z25.821
G1A280.354Z26.189
G1A286.506Z26.895
G1A295.075Z27.902
G1A306.170Z29.085
G1A315.728Z30.079
G1A319.683Z30.427
G1A323.088Z30.654
G1A327.373Z30.845
G1A334.184Z31.115
G1A341.764Z31.489
G1A344.950Z31.574
G1A349.124Z31.586
G1A360.000Z31.545
G1X12.144Z31.632
G1A346.158Z31.677
G1A342.972Z31.622
G1A339.347Z31.471
G1A332.646Z31.139
G1A324.077Z30.808
G1A320.781Z30.612
G1A317.046Z30.303
G1A311.224Z29.712
G1A295.624Z28.037
G1A285.957Z26.895
G1A280.134Z26.228
G1A276.289Z25.861
G1A272.444Z25.573
G1A268.819Z25.380
G1A264.645Z25.241
G1A259.811Z25.167
G1A254.538Z25.165
G1A244.431Z25.264
G1A239.817Z25.362
G1A235.642Z25.524
G1A230.919Z25.792
G1A223.009Z26.298
G1A218.175Z26.530
G1A213.451Z26.678
G1A208.178Z26.764
G1A203.235Z26.769
G1A195.545Z26.643
G1A189.942Z26.575
G1A184.229Z26.566
G1A167.531Z26.629
G1A157.644Z26.716
G1A152.371Z26.681
G1A145.999Z26.543
G1A140.946Z26.364
G1A136.112Z26.113
G1A126.774Z25.526
G1A122.600Z25.336
G1A118.206Z25.217
G1A113.042Z25.163
G1A106.012Z25.173
G1A99.750Z25.255
G1A94.806Z25.388
G1A90.632Z25.572
G1A87.006Z25.805
G1A83.381Z26.116
G1A79.866Z26.495
G1A74.702Z27.158
G1A65.584Z28.373
G1A60.861Z28.939
G1A56.686Z29.359
G1A48.666Z30.027
G1A41.636Z30.576
G1A38.450Z30.768
G1A35.484Z30.866
G1A28.673Z30.957
G1A24.828Z31.083
G1A20.214Z31.327
G1A16.149Z31.556
G1A13.732Z31.633
G1A9.997Z31.650
G1A0.000Z31.632
G1X12.224Z31.719
G1A9.008Z31.737
G1A13.403Z31.733
G1A16.039Z31.656
G1A19.554Z31.462
G1A24.168Z31.208
G1A28.013Z31.069
G1A32.188Z31.000
G1A36.143Z30.947
G1A39.109Z30.830
G1A42.624Z30.600
G1A55.038Z29.589
G1A59.213Z29.193
G1A63.277Z28.733
G1A69.759Z27.898
G1A78.218Z26.767
G1A81.953Z26.330
G1A85.578Z25.986
G1A89.204Z25.722
G1A93.049Z25.524
G1A97.663Z25.370
G1A102.936Z25.275
G1A109.637Z25.240
G1A116.118Z25.280
G1A120.732Z25.373
G1A124.907Z25.533
G1A129.631Z25.800
G1A137.431Z26.295
G1A142.154Z26.520
G1A147.318Z26.683
G1A153.580Z26.797
G1A158.523Z26.812
G1A171.706Z26.709
G1A188.294Z26.675
G1A193.897Z26.724
G1A203.345Z26.873
G1A208.398Z26.867
G1A213.671Z26.780
G1A218.395Z26.628
G1A223.119Z26.398
G1A233.995Z25.708
G1A238.279Z25.508
G1A242.893Z25.383
G1A252.231Z25.255
G1A258.053Z25.226
G1A262.997Z25.269
G1A267.281Z25.378
G1A271.016Z25.546
G1A274.641Z25.787
G1A278.486Z26.121
G1A282.881Z26.595
G1A295.514Z28.096
G1A311.334Z29.821
G1A317.156Z30.412
G1A320.781Z30.713
G1A324.077Z30.909
G1A334.294Z31.308
G1A341.764Z31.675
G1A344.840Z31.758
G1A348.904Z31.769
G1A360.000Z31.719
G1X12.303Z31.805
G1A346.048Z31.862
G1A342.862Z31.807
G1A339.237Z31.653
G1A332.756Z31.335
G1A324.187Z31.014
G1A320.891Z30.821
G1A317.376Z30.534
G1A312.103Z29.999
G1A295.294Z28.143
G1A286.176Z27.050
G1A280.464Z26.384
G1A276.839Z26.026
G1A272.994Z25.724
G1A269.368Z25.520
G1A265.414Z25.379
G1A261.019Z25.305
G1A255.526Z25.299
G1A247.617Z25.391
G1A241.025Z25.520
G1A236.631Z25.676
G1A232.237Z25.911
G1A223.009Z26.509
G1A218.285Z26.739
G1A213.671Z26.886
G1A208.398Z26.969
G1A203.345Z26.975
G1A196.424Z26.869
G1A190.381Z26.793
G1A184.559Z26.783
G1A167.312Z26.835
G1A157.315Z26.917
G1A151.822Z26.873
G1A145.780Z26.746
G1A140.836Z26.570
G1A136.112Z26.324
G1A126.555Z25.719
G1A122.490Z25.531
G1A117.986Z25.406
G1A112.054Z25.332
G1A105.352Z25.327
G1A99.640Z25.396
G1A94.696Z25.527
G1A90.632Z25.705
G1A87.006Z25.938
G1A83.491Z26.241
G1A79.976Z26.621
G1A75.032Z27.254
G1A65.584Z28.518
G1A60.641Z29.115
G1A56.576Z29.531
G1A49.326Z30.151
G1A41.636Z30.766
G1A38.450Z30.961
G1A35.594Z31.059
G1A28.453Z31.154
G1A24.608Z31.282
G1A20.214Z31.516
G1A16.259Z31.740
G1A13.842Z31.817
G1A10.217Z31.830
G1A0.659Z31.804
G1A0.000Z31.805
G1X12.383Z31.890
G1A8.349Z31.907
G1A13.183Z31.916
G1A15.819Z31.852
G1A19.005Z31.684
G1A23.729Z31.415
G1A27.574Z31.271
G1A31.639Z31.203
G1A35.923Z31.151
G1A38.670Z31.046
G1A42.075Z30.825
G1A53.061Z29.924
G1A58.004Z29.471
G1A62.399Z28.987
G1A68.331Z28.233
G1A78.438Z26.878
G1A82.283Z26.430
G1A85.798Z26.099
G1A89.313Z25.846
G1A93.158Z25.651
G1A97.663Z25.507
G1A103.265Z25.417
G1A108.978Z25.398
G1A115.459Z25.456
G1A120.623Z25.570
G1A124.907Z25.738
G1A129.631Z26.008
G1A137.321Z26.499
G1A142.045Z26.726
G1A147.098Z26.886
G1A153.470Z26.999
G1A158.633Z27.015
G1A171.596Z26.917
G1A188.843Z26.889
G1A194.556Z26.944
G1A203.125Z27.077
G1A207.959Z27.077
G1A213.341Z26.998
G1A217.846Z26.861
G1A222.460Z26.644
G1A228.392Z26.269
G1A234.214Z25.899
G1A238.499Z25.698
G1A243.442Z25.553
G1A252.560Z25.398
G1A258.822Z25.358
G1A263.546Z25.398
G1A267.611Z25.505
G1A271.236Z25.671
G1A274.751Z25.909
G1A278.486Z26.238
G1A282.881Z26.717
G1A295.624Z28.254
G1A313.860Z30.282
G1A318.364Z30.724
G1A321.660Z30.977
G1A324.956Z31.151
G1A333.964Z31.480
G1A341.874Z31.866
G1A344.950Z31.943
G1A349.014Z31.947
G1A360.000Z31.890
G1X12.462Z31.974
G1A345.829Z32.041
G1A342.753Z31.987
G1A339.127Z31.831
G1A333.085Z31.535
G1A324.187Z31.220
G1A321.001Z31.035
G1A317.595Z30.755
G1A312.652Z30.247
G1A294.635Z28.211
G1A281.782Z26.649
G1A277.937Z26.242
G1A274.202Z25.924
G1A270.687Z25.698
G1A266.951Z25.539
G1A262.887Z25.447
G1A258.163Z25.422
G1A251.681Z25.484
G1A243.332Z25.644
G1A238.389Z25.799
G1A233.995Z26.013
G1A226.964Z26.473
G1A221.800Z26.790
G1A217.186Z26.996
G1A212.682Z27.120
G1A207.080Z27.188
G1A202.246Z27.172
G1A191.150Z27.012
G1A184.889Z26.997
G1A167.202Z27.045
G1A157.534Z27.120
G1A151.932Z27.083
G1A145.890Z26.962
G1A141.056Z26.794
G1A136.332Z26.551
G1A126.445Z25.923
G1A122.051Z25.718
G1A117.217Z25.579
G1A111.065Z25.489
G1A105.243Z25.477
G1A99.420Z25.538
G1A94.696Z25.658
G1A90.632Z25.834
G1A87.116Z26.059
G1A83.601Z26.362
G1A80.085Z26.744
G1A75.471Z27.335
G1A65.804Z28.636
G1A60.751Z29.254
G1A56.576Z29.688
G1A49.326Z30.321
G1A41.416Z30.963
G1A38.340Z31.157
G1A35.703Z31.254
G1A31.089Z31.306
G1A27.135Z31.377
G1A23.399Z31.522
G1A16.259Z31.924
G1A13.732Z32.000
G1A9.887Z32.003
G1A1.318Z31.971
G1A0.000Z31.974
G1X12.541Z32.057
G1A7.141Z32.070
G1A13.183Z32.092
G1A15.819Z32.033
G1A18.895Z31.872
G1A23.619Z31.602
G1A27.354Z31.463
G1A31.309Z31.400
G1A35.594Z31.352
G1A38.230Z31.255
G1A41.306Z31.059
G1A49.545Z30.384
G1A56.576Z29.768
G1A60.751Z29.329
G1A66.134Z28.664
G1A78.767Z26.971
G1A82.612Z26.527
G1A86.128Z26.200
G1A89.643Z25.953
G1A93.488Z25.766
G1A97.882Z25.635
G1A103.265Z25.560
G1A109.527Z25.558
G1A115.349Z25.631
G1A120.623Z25.767
G1A125.127Z25.957
G1A130.290Z26.266
G1A137.211Z26.710
G1A141.935Z26.938
G1A146.878Z27.093
G1A153.140Z27.199
G1A158.743Z27.216
G1A171.376Z27.128
G1A185.108Z27.105
G1A191.590Z27.123
G1A203.454Z27.286
G1A208.728Z27.281
G1A213.891Z27.203
G1A218.395Z27.058
G1A223.009Z26.830
G1A229.381Z26.413
G1A234.764Z26.070
G1A239.158Z25.864
G1A244.541Z25.702
G1A253.000Z25.538
G1A258.932Z25.484
G1A263.436Z25.513
G1A267.501Z25.616
G1A271.126Z25.779
G1A274.641Z26.016
G1A278.377Z26.343
G1A282.771Z26.823
G1A296.393Z28.489
G1A314.190Z30.506
G1A318.474Z30.933
G1A321.770Z31.188
G1A324.956Z31.353
G1A333.744Z31.654
G1A341.984Z32.051
G1A344.950Z32.123
G1A349.014Z32.121
G1A360.000Z32.057
G1X12.621Z32.140
G1A348.795Z32.208
G1A344.950Z32.210
G1A341.984Z32.139
G1A336.820Z31.888
G1A332.096Z31.680
G1A324.516Z31.434
G1A321.440Z31.265
G1A318.145Z30.999
G1A313.641Z30.538
G1A295.624Z28.469
G1A282.112Z26.807
G1A278.047Z26.369
G1A274.312Z26.047
G1A270.796Z25.818
G1A267.171Z25.662
G1A263.107Z25.569
G1A258.602Z25.546
G1A252.780Z25.613
G1A243.662Z25.809
G1A238.499Z25.984
G1A233.995Z26.214
G1A223.009Z26.937
G1A218.395Z27.166
G1A214.001Z27.308
G1A208.728Z27.384
G1A203.564Z27.388
G1A197.742Z27.311
G1A190.711Z27.223
G1A184.779Z27.215
G1A172.804Z27.230
G1A164.675Z27.270
G1A157.205Z27.318
G1A151.492Z27.280
G1A145.670Z27.168
G1A140.946Z27.003
G1A136.222Z26.760
G1A126.225Z26.118
G1A121.721Z25.904
G1A116.558Z25.744
G1A111.285Z25.654
G1A105.023Z25.624
G1A99.530Z25.670
G1A94.916Z25.778
G1A90.961Z25.942
G1A87.446Z26.160
G1A84.040Z26.448
G1A80.525Z26.824
G1A76.350Z27.351
G1A65.914Z28.762
G1A60.641Z29.415
G1A56.466Z29.857
G1A49.435Z30.478
G1A41.086Z31.162
G1A38.120Z31.351
G1A35.484Z31.449
G1A30.870Z31.497
G1A27.025Z31.563
G1A23.399Z31.701
G1A16.369Z32.098
G1A13.842Z32.173
G1A9.997Z32.173
G1A1.868Z32.136
G1A0.000Z32.140
G1X12.700Z32.225
G1A6.811Z32.235
G1A13.183Z32.265
G1A15.819Z32.209
G1A19.005Z32.043
G1A23.619Z31.779
G1A27.244Z31.646
G1A31.199Z31.588
G1A35.374Z31.544
G1A37.901Z31.451
G1A41.196Z31.241
G1A48.996Z30.598
G1A56.027Z29.977
G1A60.201Z29.537
G1A65.255Z28.916
G1A74.043Z27.733
G1A79.207Z27.046
G1A83.052Z26.609
G1A86.457Z26.300
G1A89.973Z26.059
G1A93.818Z25.879
G1A98.212Z25.757
G1A103.485Z25.699
G1A109.527Z25.716
G1A115.789Z25.813
G1A121.062Z25.975
G1A125.676Z26.190
G1A131.498Z26.558
G1A137.431Z26.935
G1A142.045Z27.154
G1A146.768Z27.299
G1A152.920Z27.396
G1A158.962Z27.412
G1A171.266Z27.333
G1A184.339Z27.325
G1A190.052Z27.324
G1A196.863Z27.398
G1A203.345Z27.486
G1A208.508Z27.487
G1A213.671Z27.420
G1A217.846Z27.294
G1A222.350Z27.080
G1A227.623Z26.742
G1A234.214Z26.299
G1A238.718Z26.068
G1A243.662Z25.896
G1A253.439Z25.671
G1A258.602Z25.609
G1A263.107Z25.628
G1A267.061Z25.716
G1A270.687Z25.869
G1A274.092Z26.086
G1A277.717Z26.395
G1A281.562Z26.803
G1A288.374Z27.637
G1A297.711Z28.788
G1A313.970Z30.664
G1A318.364Z31.113
G1A321.550Z31.369
G1A324.516Z31.532
G1A330.009Z31.704
G1A334.733Z31.874
G1A341.984Z32.226
G1A344.840Z32.295
G1A348.685Z32.295
G1A359.890Z32.226
G1A360.000Z32.225
G1X12.779Z32.309
G1A349.564Z32.374
G1A345.279Z32.390
G1A342.313Z32.328
G1A338.139Z32.134
G1A333.085Z31.896
G1A324.516Z31.628
G1A321.550Z31.464
G1A318.255Z31.195
G1A313.750Z30.731
G1A299.689Z29.095
G1A290.131Z27.923
G1A282.112Z26.925
G1A278.047Z26.483
G1A274.422Z26.166
G1A270.906Z25.935
G1A267.391Z25.782
G1A263.436Z25.690
G1A258.932Z25.671
G1A253.769Z25.732
G1A244.101Z25.970
G1A238.828Z26.154
G1A234.324Z26.389
G1A226.854Z26.898
G1A221.910Z27.208
G1A217.406Z27.416
G1A213.232Z27.533
G1A207.849Z27.591
G1A202.466Z27.577
G1A191.150Z27.433
G1A184.998Z27.424
G1A174.892Z27.435
G1A166.543Z27.453
G1A156.985Z27.511
G1A150.943Z27.473
G1A145.450Z27.369
G1A140.836Z27.209
G1A136.222Z26.970
G1A125.896Z26.302
G1A121.172Z26.073
G1A116.448Z25.919
G1A110.296Z25.803
G1A104.254Z25.766
G1A99.200Z25.805
G1A94.696Z25.912
G1A90.742Z26.079
G1A87.226Z26.304
G1A83.821Z26.598
G1A80.085Z27.005
G1A75.801Z27.558
G1A65.475Z28.955
G1A60.311Z29.596
G1A56.137Z30.041
G1A49.326Z30.652
G1A41.306Z31.321
G1A38.120Z31.529
G1A35.484Z31.632
G1A31.968Z31.676
G1A27.904Z31.721
G1A24.388Z31.834
G1A20.323Z32.050
G1A16.369Z32.275
G1A13.842Z32.348
G1A10.107Z32.346
G1A2.087Z32.304
G1A0.000Z32.309
G1X12.859Z32.393
G1A6.372Z32.401
G1A13.183Z32.440
G1A15.709Z32.392
G1A18.785Z32.235
G1A23.509Z31.964
G1A27.135Z31.831
G1A30.980Z31.775
G1A35.154Z31.734
G1A37.791Z31.637
G1A40.977Z31.431
G1A48.776Z30.780
G1A55.917Z30.137
G1A60.092Z29.691
G1A65.255Z29.052
G1A74.593Z27.791
G1A79.426Z27.151
G1A83.271Z26.717
G1A86.677Z26.409
G1A90.192Z26.172
G1A94.037Z25.998
G1A98.432Z25.883
G1A103.595Z25.834
G1A109.307Z25.867
G1A115.349Z25.979
G1A120.842Z26.154
G1A125.456Z26.376
G1A131.498Z26.764
G1A137.321Z27.138
G1A141.935Z27.357
G1A146.549Z27.497
G1A152.481Z27.586
G1A158.853Z27.603
G1A171.376Z27.532
G1A183.790Z27.534
G1A189.612Z27.526
G1A196.424Z27.591
G1A203.454Z27.681
G1A208.837Z27.684
G1A213.891Z27.623
G1A217.955Z27.499
G1A222.460Z27.280
G1A227.733Z26.937
G1A234.434Z26.477
G1A238.828Z26.248
G1A244.431Z26.045
G1A253.549Z25.804
G1A258.932Z25.733
G1A263.326Z25.746
G1A267.171Z25.831
G1A270.687Z25.978
G1A274.092Z26.196
G1A277.717Z26.507
G1A281.672Z26.932
G1A288.374Z27.763
G1A298.041Z28.970
G1A313.201Z30.761
G1A317.815Z31.249
G1A321.001Z31.520
G1A323.967Z31.697
G1A327.922Z31.833
G1A333.525Z32.004
G1A339.127Z32.275
G1A342.753Z32.431
G1A345.719Z32.481
G1A351.102Z32.444
G1A360.000Z32.393
G1X12.938Z32.475
G1A350.333Z32.536
G1A345.609Z32.568
G1A342.753Z32.520
G1A339.127Z32.363
G1A333.744Z32.102
G1A328.691Z31.948
G1A324.406Z31.815
G1A321.550Z31.656
G1A318.474Z31.405
G1A314.190Z30.962
G1A304.413Z29.810
G1A292.548Z28.360
G1A282.441Z27.080
G1A278.157Z26.605
G1A274.532Z26.283
G1A271.016Z26.050
G1A267.501Z25.895
G1A263.656Z25.807
G1A259.371Z25.791
G1A254.318Z25.857
G1A247.397Z26.036
G1A240.146Z26.284
G1A235.423Z26.517
G1A230.040Z26.871
G1A223.558Z27.317
G1A219.054Z27.555
G1A214.989Z27.699
G1A210.485Z27.771
G1A204.333Z27.786
G1A197.852Z27.710
G1A190.711Z27.631
G1A184.779Z27.629
G1A174.782Z27.633
G1A166.543Z27.648
G1A156.655Z27.703
G1A150.394Z27.662
G1A145.011Z27.559
G1A140.397Z27.394
G1A135.783Z27.150
G1A125.786Z26.493
G1A120.952Z26.255
G1A115.459Z26.068
G1A109.527Z25.944
G1A104.254Z25.904
G1A99.091Z25.938
G1A94.696Z26.037
G1A90.851Z26.198
G1A87.446Z26.412
G1A84.040Z26.704
G1A80.305Z27.109
G1A76.131Z27.647
G1A65.804Z29.049
G1A60.421Z29.723
G1A56.027Z30.199
G1A49.435Z30.802
G1A40.977Z31.516
G1A37.791Z31.726
G1A35.154Z31.827
G1A31.309Z31.868
G1A27.354Z31.916
G1A23.949Z32.033
G1A19.774Z32.263
G1A16.369Z32.453
G1A13.842Z32.522
G1A10.217Z32.516
G1A2.417Z32.469
G1A0.000Z32.475
G1X13.018Z32.556
G1A5.822Z32.562
G1A13.293Z32.611
G1A15.819Z32.562
G1A18.785Z32.411
G1A23.509Z32.141
G1A27.025Z32.014
G1A30.870Z31.963
G1A34.934Z31.924
G1A37.571Z31.825
G1A40.757Z31.615
G1A48.666Z30.947
G1A55.807Z30.294
G1A59.982Z29.846
G1A65.365Z29.174
G1A74.593Z27.924
G1A79.536Z27.265
G1A83.271Z26.843
G1A86.677Z26.532
G1A90.082Z26.300
G1A93.818Z26.128
G1A98.102Z26.017
G1A103.045Z25.973
G1A108.758Z26.007
G1A114.580Z26.127
G1A120.293Z26.322
G1A125.346Z26.569
G1A131.498Z26.968
G1A137.211Z27.336
G1A141.825Z27.556
G1A146.439Z27.697
G1A152.261Z27.782
G1A158.853Z27.798
G1A171.376Z27.731
G1A183.570Z27.737
G1A189.832Z27.729
G1A197.083Z27.800
G1A203.894Z27.881
G1A209.716Z27.878
G1A214.330Z27.817
G1A218.285Z27.691
G1A222.679Z27.472
G1A228.062Z27.116
G1A234.654Z26.660
G1A239.377Z26.408
G1A245.749Z26.166
G1A253.219Z25.949
G1A258.493Z25.857
G1A262.777Z25.853
G1A266.622Z25.922
G1A270.247Z26.063
G1A273.763Z26.280
G1A277.388Z26.585
G1A281.233Z26.995
G1A287.165Z27.730
G1A297.711Z29.073
G1A312.981Z30.913
G1A317.705Z31.424
G1A321.001Z31.712
G1A323.857Z31.887
G1A327.373Z32.009
G1A333.305Z32.174
G1A338.029Z32.392
G1A342.203Z32.589
G1A345.060Z32.650
G1A349.014Z32.635
G1A356.704Z32.570
G1A360.000Z32.556
G1X13.097Z32.637
G1A350.882Z32.695
G1A345.719Z32.739
G1A342.862Z32.695
G1A339.457Z32.552
G1A333.964Z32.286
G1A329.350Z32.149
G1A324.846Z32.025
G1A321.990Z31.875
G1A318.914Z31.629
G1A314.849Z31.210
G1A307.269Z30.314
G1A293.976Z28.673
G1A282.661Z27.220
G1A278.377Z26.739
G1A274.861Z26.419
G1A271.456Z26.183
G1A268.050Z26.024
G1A264.315Z25.928
G1A260.360Z25.903
G1A255.636Z25.960
G1A248.496Z26.153
G1A241.135Z26.419
G1A236.192Z26.663
G1A230.919Z27.010
G1A223.888Z27.504
G1A219.384Z27.749
G1A215.319Z27.898
G1A211.034Z27.970
G1A204.992Z27.986
G1A198.840Z27.924
G1A190.821Z27.837
G1A184.779Z27.836
G1A174.782Z27.838
G1A166.433Z27.847
G1A156.216Z27.897
G1A149.625Z27.854
G1A144.681Z27.757
G1A140.177Z27.592
G1A135.563Z27.345
G1A125.566Z26.682
G1A120.403Z26.419
G1A114.690Z26.212
G1A109.527Z26.093
G1A103.814Z26.041
G1A98.871Z26.067
G1A94.587Z26.162
G1A90.851Z26.318
G1A87.446Z26.533
G1A84.150Z26.816
G1A80.525Z27.208
G1A76.240Z27.760
G1A65.914Z29.169
G1A60.201Z29.890
G1A55.917Z30.358
G1A49.435Z30.956
G1A40.757Z31.696
G1A37.571Z31.911
G1A34.934Z32.014
G1A31.309Z32.053
G1A27.244Z32.097
G1A23.839Z32.212
G1A19.664Z32.443
G1A16.369Z32.625
G1A13.952Z32.690
G1A10.327Z32.682
G1A2.746Z32.630
G1A0.000Z32.637
G1X13.176Z32.716
G1A5.822Z32.721
G1A13.183Z32.777
G1A15.600Z32.738
G1A18.456Z32.601
G1A23.509Z32.312
G1A26.915Z32.192
G1A30.760Z32.146
G1A34.605Z32.111
G1A37.241Z32.013
G1A40.427Z31.801
G1A47.788Z31.179
G1A55.038Z30.519
G1A59.432Z30.049
G1A64.706Z29.393
G1A73.933Z28.144
G1A79.426Z27.403
G1A83.052Z26.987
G1A86.457Z26.669
G1A89.863Z26.431
G1A93.488Z26.259
G1A97.553Z26.149
G1A102.276Z26.106
G1A107.769Z26.141
G1A113.482Z26.256
G1A119.085Z26.453
G1A124.468Z26.717
G1A130.180Z27.084
G1A136.552Z27.509
G1A141.056Z27.734
G1A145.560Z27.882
G1A150.833Z27.966
G1A157.754Z27.990
G1A171.816Z27.931
G1A182.911Z27.943
G1A190.272Z27.935
G1A198.071Z28.012
G1A204.883Z28.082
G1A211.034Z28.071
G1A215.209Z28.005
G1A219.274Z27.858
G1A223.668Z27.621
G1A229.820Z27.190
G1A235.423Z26.803
G1A240.256Z26.544
G1A246.628Z26.291
G1A254.538Z26.048
G1A259.371Z25.967
G1A263.546Z25.973
G1A267.281Z26.053
G1A270.796Z26.201
G1A274.202Z26.422
G1A277.717Z26.729
G1A281.782Z27.173
G1A288.154Z27.977
G1A298.810Z29.351
G1A313.091Z31.094
G1A317.815Z31.611
G1A321.001Z31.895
G1A323.747Z32.070
G1A326.933Z32.185
G1A333.195Z32.344
G1A337.589Z32.539
G1A342.203Z32.758
G1A344.950Z32.819
G1A348.685Z32.804
G1A355.496Z32.737
G1A360.000Z32.716
G1X13.256Z32.797
G1A351.102Z32.854
G1A345.719Z32.905
G1A342.972Z32.866
G1A339.567Z32.724
G1A334.184Z32.465
G1A329.789Z32.338
G1A325.175Z32.223
G1A322.429Z32.086
G1A319.463Z31.855
G1A315.618Z31.464
G1A308.917Z30.678
G1A295.185Z28.959
G1A282.991Z27.376
G1A278.596Z26.873
G1A275.081Z26.545
G1A271.675Z26.304
G1A268.270Z26.141
G1A264.645Z26.044
G1A260.690Z26.019
G1A256.186Z26.072
G1A250.143Z26.244
G1A241.465Z26.572
G1A236.302Z26.841
G1A230.919Z27.206
G1A223.998Z27.703
G1A219.493Z27.951
G1A215.429Z28.102
G1A211.364Z28.168
G1A204.883Z28.178
G1A197.742Z28.104
G1A189.942Z28.034
G1A175.551Z28.040
G1A167.092Z28.038
G1A155.337Z28.084
G1A148.636Z28.039
G1A143.912Z27.939
G1A139.408Z27.764
G1A134.904Z27.512
G1A125.237Z26.859
G1A119.854Z26.574
G1A114.690Z26.373
G1A108.978Z26.232
G1A103.485Z26.172
G1A98.651Z26.192
G1A94.477Z26.285
G1A90.742Z26.442
G1A87.336Z26.661
G1A84.040Z26.948
G1A80.415Z27.342
G1A76.021Z27.916
G1A66.353Z29.240
G1A60.201Z30.026
G1A55.917Z30.503
G1A49.875Z31.072
G1A40.647Z31.867
G1A37.351Z32.089
G1A34.825Z32.192
G1A31.639Z32.232
G1A27.464Z32.267
G1A24.168Z32.367
G1A20.214Z32.577
G1A16.478Z32.787
G1A14.062Z32.854
G1A10.546Z32.848
G1A2.966Z32.791
G1A0.000Z32.797
G1X13.335Z32.878
G1A5.822Z32.884
G1A13.183Z32.943
G1A15.600Z32.905
G1A18.456Z32.769
G1A23.399Z32.486
G1A26.805Z32.366
G1A30.540Z32.323
G1A34.275Z32.291
G1A36.912Z32.197
G1A39.988Z31.999
G1A47.348Z31.373
G1A54.599Z30.706
G1A58.993Z30.235
G1A64.486Z29.550
G1A73.494Z28.331
G1A79.316Z27.540
G1A82.942Z27.120
G1A86.347Z26.799
G1A89.753Z26.557
G1A93.378Z26.383
G1A97.333Z26.275
G1A101.947Z26.232
G1A107.220Z26.273
G1A112.823Z26.396
G1A118.645Z26.605
G1A124.138Z26.888
G1A130.180Z27.286
G1A136.332Z27.703
G1A140.726Z27.925
G1A145.230Z28.075
G1A150.174Z28.153
G1A157.534Z28.175
G1A171.926Z28.126
G1A182.472Z28.143
G1A190.821Z28.136
G1A200.049Z28.228
G1A206.530Z28.278
G1A212.682Z28.255
G1A216.417Z28.174
G1A220.482Z28.005
G1A224.986Z27.739
G1A235.203Z27.000
G1A240.037Z26.725
G1A247.397Z26.415
G1A254.648Z26.170
G1A259.481Z26.084
G1A263.546Z26.084
G1A267.281Z26.160
G1A270.687Z26.302
G1A274.092Z26.520
G1A277.498Z26.816
G1A281.453Z27.248
G1A287.385Z27.997
G1A300.458Z29.701
G1A312.212Z31.159
G1A317.376Z31.739
G1A320.781Z32.053
G1A323.528Z32.239
G1A326.494Z32.355
G1A333.085Z32.510
G1A337.260Z32.689
G1A342.093Z32.922
G1A344.840Z32.985
G1A348.465Z32.972
G1A355.276Z32.901
G1A360.000Z32.878
G1X13.414Z32.958
G1A351.431Z33.014
G1A345.829Z33.075
G1A343.082Z33.039
G1A339.786Z32.905
G1A334.294Z32.640
G1A330.009Z32.519
G1A325.285Z32.406
G1A322.539Z32.270
G1A319.683Z32.050
G1A315.838Z31.660
G1A309.576Z30.922
G1A296.393Z29.246
G1A282.991Z27.490
G1A278.596Z26.982
G1A275.081Z26.651
G1A271.675Z26.409
G1A268.270Z26.246
G1A264.645Z26.153
G1A260.800Z26.132
G1A256.405Z26.191
G1A250.912Z26.353
G1A241.794Z26.726
G1A236.411Z27.012
G1A231.028Z27.388
G1A224.107Z27.896
G1A219.603Z28.148
G1A215.648Z28.297
G1A211.803Z28.362
G1A204.773Z28.365
G1A190.711Z28.232
G1A175.771Z28.235
G1A166.872Z28.228
G1A154.019Z28.267
G1A147.647Z28.220
G1A143.143Z28.115
G1A138.639Z27.930
G1A134.135Z27.664
G1A124.907Z27.027
G1A119.854Z26.749
G1A114.031Z26.512
G1A108.428Z26.363
G1A103.375Z26.300
G1A98.651Z26.316
G1A94.477Z26.405
G1A90.851Z26.555
G1A87.446Z26.772
G1A84.040Z27.069
G1A80.525Z27.454
G1A76.131Z28.028
G1A66.463Z29.354
G1A60.201Z30.157
G1A55.807Z30.653
G1A49.875Z31.221
G1A40.427Z32.044
G1A37.132Z32.271
G1A34.495Z32.375
G1A30.980Z32.410
G1A27.025Z32.449
G1A23.729Z32.557
G1A19.335Z32.802
G1A16.149Z32.970
G1A13.732Z33.024
G1A9.667Z33.002
G1A3.076Z32.953
G1A0.000Z32.958
G1X13.494Z33.038
G1A5.932Z33.045
G1A13.293Z33.109
G1A15.819Z33.066
G1A18.785Z32.919
G1A23.509Z32.652
G1A26.805Z32.541
G1A30.650Z32.501
G1A34.275Z32.469
G1A36.912Z32.366
G1A40.098Z32.148
G1A49.106Z31.364
G1A55.258Z30.778
G1A59.652Z30.291
G1A65.694Z29.521
G1A74.593Z28.305
G1A79.756Z27.609
G1A83.381Z27.195
G1A86.787Z26.882
G1A90.192Z26.649
G1A93.818Z26.485
G1A97.772Z26.388
G1A102.386Z26.361
G1A107.550Z26.413
G1A113.042Z26.556
G1A118.645Z26.780
G1A124.358Z27.086
G1A130.729Z27.522
G1A136.332Z27.904
G1A140.616Z28.120
G1A145.011Z28.265
G1A149.735Z28.338
G1A157.534Z28.358
G1A171.596Z28.316
G1A182.142Z28.337
G1A191.150Z28.330
G1A200.928Z28.424
G1A207.849Z28.466
G1A213.232Z28.444
G1A216.967Z28.355
G1A221.141Z28.170
G1A225.645Z27.889
G1A235.093Z27.189
G1A240.366Z26.879
G1A248.386Z26.519
G1A254.648Z26.297
G1A259.262Z26.201
G1A263.216Z26.190
G1A266.951Z26.255
G1A270.467Z26.394
G1A273.872Z26.608
G1A277.278Z26.901
G1A281.123Z27.319
G1A286.616Z28.014
G1A300.568Z29.855
G1A311.443Z31.231
G1A316.936Z31.863
G1A320.452Z32.204
G1A323.308Z32.407
G1A326.054Z32.524
G1A333.415Z32.694
G1A337.589Z32.875
G1A342.203Z33.095
G1A344.950Z33.155
G1A348.575Z33.136
G1A355.056Z33.060
G1A360.000Z33.038
G1X13.573Z33.115
G1A351.871Z33.168
G1A345.938Z33.240
G1A343.192Z33.208
G1A340.006Z33.081
G1A334.513Z32.818
G1A330.449Z32.705
G1A325.615Z32.601
G1A322.978Z32.477
G1A320.122Z32.261
G1A316.387Z31.886
G1A310.455Z31.189
G1A297.711Z29.554
G1A283.320Z27.643
G1A278.926Z27.123
G1A275.520Z26.792
G1A272.225Z26.547
G1A268.929Z26.375
G1A265.523Z26.273
G1A261.788Z26.239
G1A257.614Z26.284
G1A252.560Z26.427
G1A245.200Z26.728
G1A238.718Z27.054
G1A233.775Z27.373
G1A224.437Z28.068
G1A220.153Z28.318
G1A216.198Z28.476
G1A212.572Z28.547
G1A206.201Z28.558
G1A198.621Z28.493
G1A190.162Z28.421
G1A176.210Z28.428
G1A166.982Z28.416
G1A153.250Z28.452
G1A147.208Z28.405
G1A142.704Z28.295
G1A138.309Z28.112
G1A133.915Z27.847
G1A124.797Z27.208
G1A119.085Z26.886
G1A113.482Z26.645
G1A108.428Z26.500
G1A103.155Z26.428
G1A98.541Z26.438
G1A94.587Z26.518
G1A90.961Z26.664
G1A87.666Z26.872
G1A84.260Z27.165
G1A80.745Z27.549
G1A76.460Z28.106
G1A66.573Z29.468
G1A59.982Z30.317
G1A55.697Z30.802
G1A49.655Z31.385
G1A40.098Z32.224
G1A36.912Z32.448
G1A34.275Z32.555
G1A30.870Z32.589
G1A26.915Z32.624
G1A23.619Z32.731
G1A19.225Z32.975
G1A16.259Z33.131
G1A13.842Z33.187
G1A9.997Z33.167
G1A3.296Z33.111
G1A0.000Z33.115
G1X13.653Z33.192
G1A5.932Z33.201
G1A13.293Z33.269
G1A15.709Z33.232
G1A18.566Z33.096
G1A23.399Z32.823
G1A26.585Z32.716
G1A30.430Z32.678
G1A33.946Z32.648
G1A36.363Z32.558
G1A39.439Z32.352
G1A48.117Z31.597
G1A54.599Z30.986
G1A59.103Z30.489
G1A65.035Z29.736
G1A73.604Z28.568
G1A79.316Z27.785
G1A83.052Z27.346
G1A86.457Z27.024
G1A89.753Z26.788
G1A93.268Z26.618
G1A97.113Z26.516
G1A101.398Z26.483
G1A106.341Z26.529
G1A111.724Z26.658
G1A117.107Z26.872
G1A122.930Z27.185
G1A129.081Z27.598
G1A135.783Z28.070
G1A139.957Z28.291
G1A144.352Z28.445
G1A148.856Z28.524
G1A156.216Z28.545
G1A171.926Z28.510
G1A182.032Z28.532
G1A191.370Z28.525
G1A206.421Z28.654
G1A212.682Z28.645
G1A216.198Z28.577
G1A220.262Z28.414
G1A224.547Z28.161
G1A231.138Z27.664
G1A236.631Z27.268
G1A242.124Z26.952
G1A249.704Z26.603
G1A255.526Z26.393
G1A259.811Z26.305
G1A263.656Z26.299
G1A267.281Z26.370
G1A270.687Z26.510
G1A274.092Z26.730
G1A277.498Z27.029
G1A281.343Z27.454
G1A287.165Z28.201
G1A301.007Z30.054
G1A311.553Z31.401
G1A317.046Z32.038
G1A320.562Z32.383
G1A323.418Z32.590
G1A326.164Z32.707
G1A333.525Z32.866
G1A337.589Z33.038
G1A342.313Z33.263
G1A344.950Z33.319
G1A348.465Z33.299
G1A354.947Z33.215
G1A360.000Z33.192
G1X13.732Z33.268
G1A352.200Z33.318
G1A346.048Z33.401
G1A343.302Z33.373
G1A340.116Z33.247
G1A334.733Z32.990
G1A330.888Z32.885
G1A325.835Z32.785
G1A323.198Z32.663
G1A320.342Z32.446
G1A316.607Z32.070
G1A310.784Z31.383
G1A300.348Z30.038
G1A283.869Z27.823
G1A279.255Z27.268
G1A275.850Z26.927
G1A272.444Z26.665
G1A269.149Z26.489
G1A265.633Z26.381
G1A262.008Z26.347
G1A258.053Z26.387
G1A253.329Z26.525
G1A245.639Z26.855
G1A239.377Z27.182
G1A233.995Z27.539
G1A224.767Z28.245
G1A220.482Z28.503
G1A216.527Z28.668
G1A212.902Z28.742
G1A206.530Z28.749
G1A196.533Z28.661
G1A188.624Z28.615
G1A176.869Z28.627
G1A166.762Z28.606
G1A151.492Z28.635
G1A146.329Z28.587
G1A141.935Z28.470
G1A137.650Z28.280
G1A133.146Z27.994
G1A124.248Z27.358
G1A118.316Z27.012
G1A113.262Z26.785
G1A107.879Z26.625
G1A102.826Z26.550
G1A98.322Z26.556
G1A94.367Z26.636
G1A90.851Z26.782
G1A87.556Z26.992
G1A84.150Z27.290
G1A80.635Z27.680
G1A76.350Z28.243
G1A66.793Z29.564
G1A59.762Z30.474
G1A55.258Z30.986
G1A49.435Z31.551
G1A39.878Z32.392
G1A36.472Z32.631
G1A34.056Z32.730
G1A30.870Z32.763
G1A26.805Z32.795
G1A23.619Z32.895
G1A19.445Z33.123
G1A16.259Z33.291
G1A13.842Z33.346
G1A10.107Z33.325
G1A3.296Z33.264
G1A0.000Z33.268
G1X13.811Z33.346
G1A5.932Z33.355
G1A13.183Z33.426
G1A15.600Z33.392
G1A18.456Z33.261
G1A23.290Z32.990
G1A26.475Z32.883
G1A30.211Z32.850
G1A33.616Z32.823
G1A36.033Z32.733
G1A38.889Z32.547
G1A45.151Z32.009
G1A53.171Z31.267
G1A57.785Z30.773
G1A63.168Z30.105
G1A71.956Z28.920
G1A79.097Z27.931
G1A82.722Z27.497
G1A86.128Z27.165
G1A89.423Z26.921
G1A92.829Z26.748
G1A96.564Z26.639
G1A100.629Z26.601
G1A105.352Z26.641
G1A110.626Z26.768
G1A116.009Z26.976
G1A121.392Z27.267
G1A127.653Z27.686
G1A135.453Z28.251
G1A139.518Z28.473
G1A143.912Z28.631
G1A148.306Z28.710
G1A155.337Z28.727
G1A171.486Z28.701
G1A181.703Z28.728
G1A191.590Z28.718
G1A207.190Z28.843
G1A213.122Z28.837
G1A216.747Z28.760
G1A220.592Z28.597
G1A224.876Z28.336
G1A236.082Z27.477
G1A241.575Z27.136
G1A250.363Z26.708
G1A255.856Z26.498
G1A260.140Z26.412
G1A263.985Z26.410
G1A267.501Z26.481
G1A270.906Z26.625
G1A274.202Z26.843
G1A277.608Z27.146
G1A281.343Z27.564
G1A287.495Z28.359
G1A302.435Z30.384
G1A311.334Z31.529
G1A316.936Z32.184
G1A320.671Z32.555
G1A323.528Z32.766
G1A326.164Z32.881
G1A333.634Z33.033
G1A337.589Z33.196
G1A342.313Z33.422
G1A344.950Z33.478
G1A348.465Z33.455
G1A354.947Z33.369
G1A360.000Z33.346
G1X13.891Z33.423
G1A352.310Z33.473
G1A346.048Z33.561
G1A343.302Z33.532
G1A340.226Z33.412
G1A334.843Z33.155
G1A331.218Z33.057
G1A326.164Z32.966
G1A323.528Z32.848
G1A320.671Z32.637
G1A317.046Z32.276
G1A311.443Z31.621
G1A303.094Z30.543
G1A284.199Z27.979
G1A279.585Z27.411
G1A276.179Z27.061
G1A272.884Z26.798
G1A269.698Z26.616
G1A266.292Z26.499
G1A262.667Z26.454
G1A258.822Z26.486
G1A254.318Z26.608
G1A248.386Z26.865
G1A240.476Z27.278
G1A235.423Z27.608
G1A224.657Z28.447
G1A220.592Z28.695
G1A216.747Z28.857
G1A213.232Z28.932
G1A207.519Z28.936
G1A197.412Z28.856
G1A189.283Z28.806
G1A177.089Z28.820
G1A166.103Z28.791
G1A149.844Z28.815
G1A145.230Z28.759
G1A140.836Z28.628
G1A136.771Z28.431
G1A132.048Z28.110
G1A123.808Z27.506
G1A118.316Z27.171
G1A112.933Z26.920
G1A107.659Z26.752
G1A102.716Z26.668
G1A98.322Z26.672
G1A94.477Z26.747
G1A90.961Z26.890
G1A87.666Z27.099
G1A84.370Z27.384
G1A80.964Z27.758
G1A76.790Z28.301
G1A67.013Z29.657
G1A59.652Z30.613
G1A55.148Z31.131
G1A49.326Z31.702
G1A39.329Z32.589
G1A36.363Z32.796
G1A33.836Z32.900
G1A30.650Z32.933
G1A26.695Z32.960
G1A23.619Z33.055
G1A19.445Z33.283
G1A16.149Z33.454
G1A13.732Z33.504
G1A9.558Z33.475
G1A3.296Z33.419
G1A0.000Z33.423
G1X13.970Z33.500
G1A5.932Z33.511
G1A13.293Z33.585
G1A15.819Z33.546
G1A18.895Z33.396
G1A23.399Z33.147
G1A26.585Z33.046
G1A30.540Z33.017
G1A33.726Z32.986
G1A36.143Z32.888
G1A39.219Z32.672
G1A49.655Z31.740
G1A55.258Z31.184
G1A59.872Z30.648
G1A67.672Z29.630
G1A79.316Z28.022
G1A83.052Z27.578
G1A86.347Z27.261
G1A89.643Z27.020
G1A93.049Z26.852
G1A96.784Z26.749
G1A100.848Z26.720
G1A105.572Z26.768
G1A110.735Z26.909
G1A116.009Z27.131
G1A121.721Z27.454
G1A128.093Z27.903
G1A135.343Z28.441
G1A139.298Z28.661
G1A143.583Z28.815
G1A147.977Z28.894
G1A154.678Z28.905
G1A169.069Z28.884
G1A181.593Z28.918
G1A191.810Z28.907
G1A208.398Z29.031
G1A213.561Z29.023
G1A217.077Z28.942
G1A220.922Z28.774
G1A224.986Z28.519
G1A235.972Z27.654
G1A241.465Z27.300
G1A250.034Z26.850
G1A255.307Z26.633
G1A259.591Z26.528
G1A263.436Z26.509
G1A266.951Z26.567
G1A270.357Z26.698
G1A273.543Z26.895
G1A276.839Z27.174
G1A280.464Z27.565
G1A285.847Z28.251
G1A304.522Z30.804
G1A311.993Z31.765
G1A317.486Z32.403
G1A321.001Z32.747
G1A323.747Z32.945
G1A326.384Z33.056
G1A333.634Z33.196
G1A337.479Z33.352
G1A342.423Z33.586
G1A345.060Z33.640
G1A348.575Z33.614
G1A354.947Z33.523
G1A360.000Z33.500
G1X14.049Z33.576
G1A352.640Z33.623
G1A346.048Z33.721
G1A343.412Z33.695
G1A340.336Z33.576
G1A335.063Z33.325
G1A331.327Z33.226
G1A326.274Z33.139
G1A323.747Z33.029
G1A321.001Z32.828
G1A317.376Z32.468
G1A311.773Z31.813
G1A304.413Z30.860
G1A289.252Z28.771
G1A282.331Z27.846
G1A278.377Z27.381
G1A275.081Z27.066
G1A271.785Z26.827
G1A268.489Z26.666
G1A265.084Z26.577
G1A261.459Z26.561
G1A257.504Z26.625
G1A252.780Z26.788
G1A246.298Z27.104
G1A239.158Z27.520
G1A233.775Z27.906
G1A224.767Z28.628
G1A220.592Z28.887
G1A216.747Z29.049
G1A213.232Z29.120
G1A207.080Z29.115
G1A190.711Z28.995
G1A177.089Z29.007
G1A164.565Z28.970
G1A148.966Z28.993
G1A144.571Z28.934
G1A140.287Z28.800
G1A136.442Z28.606
G1A131.718Z28.274
G1A123.918Z27.687
G1A117.986Z27.312
G1A112.713Z27.053
G1A107.659Z26.879
G1A102.716Z26.790
G1A98.432Z26.785
G1A94.587Z26.855
G1A91.071Z26.995
G1A87.775Z27.202
G1A84.480Z27.488
G1A81.074Z27.861
G1A76.900Z28.406
G1A67.232Z29.751
G1A59.652Z30.739
G1A55.148Z31.260
G1A49.435Z31.829
G1A38.999Z32.764
G1A36.033Z32.972
G1A33.726Z33.069
G1A30.650Z33.102
G1A26.585Z33.129
G1A23.509Z33.223
G1A19.335Z33.449
G1A16.039Z33.617
G1A13.512Z33.663
G1A8.679Z33.620
G1A2.856Z33.572
G1A0.000Z33.576
G1X14.129Z33.650
G1A5.822Z33.662
G1A13.183Z33.741
G1A15.709Z33.706
G1A18.895Z33.554
G1A23.290Z33.313
G1A26.366Z33.215
G1A30.211Z33.187
G1A33.396Z33.159
G1A35.703Z33.068
G1A38.560Z32.871
G1A48.007Z32.028
G1A54.159Z31.431
G1A58.773Z30.910
G1A65.584Z30.033
G1A73.604Z28.931
G1A79.426Z28.125
G1A83.161Z27.679
G1A86.457Z27.362
G1A89.753Z27.123
G1A93.158Z26.956
G1A96.784Z26.860
G1A100.848Z26.836
G1A105.462Z26.892
G1A110.626Z27.037
G1A115.789Z27.268
G1A121.501Z27.608
G1A128.532Z28.119
G1A135.343Z28.631
G1A139.078Z28.843
G1A143.143Z28.991
G1A147.537Z29.073
G1A153.580Z29.085
G1A166.323Z29.061
G1A181.593Z29.104
G1A191.919Z29.089
G1A208.947Z29.213
G1A213.781Z29.205
G1A217.077Z29.131
G1A220.922Z28.963
G1A224.876Z28.712
G1A231.468Z28.181
G1A237.510Z27.712
G1A243.662Z27.321
G1A250.912Z26.934
G1A256.076Z26.722
G1A260.140Z26.626
G1A263.876Z26.613
G1A267.391Z26.678
G1A270.796Z26.820
G1A274.092Z27.036
G1A277.498Z27.340
G1A281.233Z27.761
G1A287.165Z28.539
G1A303.863Z30.855
G1A311.224Z31.819
G1A316.936Z32.495
G1A320.781Z32.887
G1A323.528Z33.098
G1A326.054Z33.217
G1A329.789Z33.288
G1A333.964Z33.368
G1A337.809Z33.525
G1A342.533Z33.747
G1A345.169Z33.799
G1A348.685Z33.769
G1A355.056Z33.672
G1A360.000Z33.650
G1X14.208Z33.724
G1A352.969Z33.769
G1A346.158Z33.877
G1A343.522Z33.853
G1A340.446Z33.735
G1A335.172Z33.487
G1A331.547Z33.395
G1A326.494Z33.314
G1A323.967Z33.205
G1A321.221Z33.002
G1A317.595Z32.641
G1A311.993Z31.987
G1A305.182Z31.102
G1A294.196Z29.581
G1A284.748Z28.265
G1A280.134Z27.680
G1A276.619Z27.305
G1A273.323Z27.030
G1A270.027Z26.831
G1A266.622Z26.708
G1A263.107Z26.660
G1A259.481Z26.688
G1A255.307Z26.804
G1A249.924Z27.045
G1A242.344Z27.471
G1A236.521Z27.865
G1A229.381Z28.447
G1A224.437Z28.839
G1A220.372Z29.087
G1A216.527Z29.243
G1A213.122Z29.306
G1A206.750Z29.296
G1A190.931Z29.180
G1A177.199Z29.194
G1A163.247Z29.149
G1A148.746Z29.176
G1A144.352Z29.116
G1A140.067Z28.981
G1A136.332Z28.789
G1A131.608Z28.454
G1A122.820Z27.782
G1A116.997Z27.406
G1A112.164Z27.166
G1A107.000Z26.990
G1A102.276Z26.902
G1A98.102Z26.898
G1A94.367Z26.969
G1A90.961Z27.108
G1A87.775Z27.311
G1A84.480Z27.598
G1A81.074Z27.975
G1A76.900Z28.523
G1A67.452Z29.843
G1A59.432Z30.892
G1A54.818Z31.426
G1A49.216Z31.985
G1A38.450Z32.952
G1A35.594Z33.151
G1A33.287Z33.243
G1A30.101Z33.271
G1A26.366Z33.296
G1A23.290Z33.391
G1A18.785Z33.637
G1A15.709Z33.782
G1A13.073Z33.817
G1A3.076Z33.720
G1A0.000Z33.724
G1X14.288Z33.796
G1A5.493Z33.808
G1A13.183Z33.892
G1A15.709Z33.856
G1A18.785Z33.712
G1A23.180Z33.473
G1A26.256Z33.377
G1A30.101Z33.353
G1A33.177Z33.326
G1A35.484Z33.233
G1A38.560Z33.014
G1A49.545Z32.021
G1A55.038Z31.467
G1A59.762Z30.912
G1A68.660Z29.739
G1A79.316Z28.253
G1A83.052Z27.802
G1A86.347Z27.479
G1A89.643Z27.236
G1A92.939Z27.071
G1A96.454Z26.973
G1A100.299Z26.946
G1A104.693Z26.997
G1A109.747Z27.139
G1A114.910Z27.364
G1A119.963Z27.664
G1A126.665Z28.154
G1A134.794Z28.786
G1A138.639Z29.015
G1A142.594Z29.167
G1A146.988Z29.255
G1A152.261Z29.269
G1A163.247Z29.237
G1A181.483Z29.294
G1A192.029Z29.277
G1A210.595Z29.404
G1A214.550Z29.385
G1A218.065Z29.286
G1A221.910Z29.098
G1A225.975Z28.819
G1A236.631Z27.937
G1A242.453Z27.535
G1A250.583Z27.073
G1A255.636Z26.847
G1A259.481Z26.741
G1A263.216Z26.712
G1A266.732Z26.761
G1A270.027Z26.882
G1A273.323Z27.080
G1A276.729Z27.367
G1A280.244Z27.745
G1A285.078Z28.362
G1A294.306Z29.656
G1A305.072Z31.159
G1A311.883Z32.045
G1A317.595Z32.714
G1A321.330Z33.088
G1A324.077Z33.291
G1A326.604Z33.400
G1A333.964Z33.525
G1A337.699Z33.672
G1A342.533Z33.900
G1A345.169Z33.953
G1A348.575Z33.923
G1A355.056Z33.818
G1A360.000Z33.796
G1X14.367Z33.870
G1A353.189Z33.913
G1A346.158Z34.029
G1A343.522Z34.003
G1A340.446Z33.884
G1A335.392Z33.647
G1A331.877Z33.559
G1A326.713Z33.483
G1A324.187Z33.375
G1A321.440Z33.172
G1A317.815Z32.812
G1A312.212Z32.159
G1A305.621Z31.304
G1A295.404Z29.872
G1A285.847Z28.520
G1A280.684Z27.850
G1A277.058Z27.450
G1A273.763Z27.163
G1A270.577Z26.959
G1A267.281Z26.826
G1A263.876Z26.766
G1A260.250Z26.781
G1A256.295Z26.878
G1A251.791Z27.070
G1A244.321Z27.491
G1A238.059Z27.907
G1A232.127Z28.385
G1A225.206Z28.970
G1A221.251Z29.232
G1A217.406Z29.406
G1A214.110Z29.484
G1A209.826Z29.493
G1A190.931Z29.367
G1A177.528Z29.384
G1A161.160Z29.322
G1A148.526Z29.359
G1A144.132Z29.301
G1A139.957Z29.171
G1A136.332Z28.983
G1A131.718Z28.649
G1A122.270Z27.903
G1A117.107Z27.558
G1A111.944Z27.292
G1A106.890Z27.109
G1A102.276Z27.015
G1A98.322Z27.004
G1A94.587Z27.069
G1A91.181Z27.203
G1A87.885Z27.411
G1A84.590Z27.697
G1A81.184Z28.072
G1A77.009Z28.622
G1A67.672Z29.932
G1A59.323Z31.027
G1A54.709Z31.566
G1A49.216Z32.119
G1A38.340Z33.105
G1A35.484Z33.307
G1A33.177Z33.405
G1A30.320Z33.434
G1A26.366Z33.454
G1A23.290Z33.545
G1A18.895Z33.780
G1A15.819Z33.926
G1A13.293Z33.965
G1A7.800Z33.908
G1A2.197Z33.866
G1A0.000Z33.870
G1X14.446Z33.944
G1A5.273Z33.955
G1A13.183Z34.042
G1A15.709Z34.005
G1A18.785Z33.862
G1A23.180Z33.626
G1A26.146Z33.535
G1A29.881Z33.514
G1A32.847Z33.491
G1A35.264Z33.396
G1A38.120Z33.195
G1A49.985Z32.111
G1A55.258Z31.567
G1A60.092Z30.990
G1A69.759Z29.705
G1A79.207Z28.380
G1A82.942Z27.925
G1A86.237Z27.599
G1A89.533Z27.351
G1A92.829Z27.182
G1A96.344Z27.083
G1A100.189Z27.056
G1A104.474Z27.107
G1A109.417Z27.253
G1A114.471Z27.482
G1A119.634Z27.794
G1A125.346Z28.220
