(VECTRIC POST REVISION)
(73AEA2D9E9B67AE7697F0CF21BDB8954)
T1
G17
G21
G90
G0Z49.200
G0X0.000A0.000
S12000M3
G0X110.000A360.000Z49.200
G1Z45.095F1100.0
G1A0.000F2190.0
G1X107.142
G1A360.000
G1X104.285
G1A0.000
G1X101.427
G1A360.000
G1X98.570
G1A0.000
G1X95.712
G1A360.000
G1X92.855
G1A0.000
G1X89.997
G1A360.000
G1X87.140
G1A0.000
G1X84.282
G1A360.000
G1X81.425
G1A0.000
G1X78.567
G1A360.000
G1X75.710
G1A0.000
G1X72.852
G1A360.000
G1X69.995
G1A0.000
G1X67.137
G1A360.000
G1X64.280
G1A0.000
G1X61.422
G1A360.000
G1X58.565
G1A0.000
G1X55.707
G1A154.239
G1A160.500Z45.112
G1A163.357Z45.330
G1A171.266Z45.946
G1A174.342Z46.116
G1A177.748Z46.229
G1A180.934Z46.243
G1A183.680Z46.187
G1A187.305Z46.031
G1A190.821Z45.795
G1A199.170Z45.145
G1A202.246Z45.095
G1A360.000
G1X53.296
G1X52.850Z45.432
G1A356.155Z45.412
G1A350.442Z45.266
G1A347.696Z45.125
G1A344.620Z45.095
G1A209.277
G1A205.322Z45.105
G1A201.587Z45.482
G1A192.688Z46.485
G1A189.283Z46.789
G1A185.987Z47.008
G1A183.021Z47.127
G1A180.275Z47.153
G1A177.199Z47.134
G1A174.452Z47.032
G1A171.376Z46.837
G1A167.751Z46.531
G1A164.236Z46.143
G1A159.402Z45.579
G1A153.030Z45.095
G1A14.391
G1A6.591Z45.301
G1A2.197Z45.421
G1A0.000Z45.432
G1X51.778Z46.354
G1X50.885Z47.031
G1X50.260Z47.429
G1X49.992Z47.573
G1A1.977Z47.547
G1A3.955Z47.447
G1A6.482Z47.252
G1A9.887Z46.880
G1A15.929Z46.200
G1A19.225Z45.831
G1A21.971Z45.459
G1A24.498Z45.095
G1A151.492
G1A154.129Z45.399
G1A157.864Z45.889
G1A161.599Z46.401
G1A167.531Z47.099
G1A170.607Z47.389
G1A174.013Z47.615
G1A177.199Z47.744
G1A179.725Z47.775
G1A182.252Z47.756
G1A184.779Z47.672
G1A187.415Z47.526
G1A190.052Z47.321
G1A193.457Z46.975
G1A199.500Z46.266
G1A202.026Z45.909
G1A209.606Z45.095
G1A336.381
G1A338.139Z45.209
G1A340.226Z45.636
G1A342.862Z46.058
G1A345.828Z46.456
G1A351.541Z47.152
G1A353.628Z47.346
G1A356.375Z47.516
G1A358.462Z47.571
G1A360.000Z47.573
G1X49.457Z47.807
G1X48.921Z47.963
G1X48.385Z48.047
G1X47.671Z48.072
G1X47.135
G1A355.166Z48.060
G1A353.079Z47.983
G1A350.552Z47.798
G1A347.806Z47.502
G1A343.961Z47.016
G1A341.215Z46.600
G1A338.798Z46.145
G1A337.040Z45.710
G1A335.612Z45.292
G1A332.756Z45.095
G1A209.387
G1A207.849Z45.314
G1A200.269Z46.520
G1A197.742Z46.861
G1A194.886Z47.178
G1A190.601Z47.625
G1A187.855Z47.841
G1A184.998Z47.983
G1A182.142Z48.046
G1A178.187Z48.050
G1A175.221Z47.994
G1A172.585Z47.879
G1A170.168Z47.717
G1A167.202Z47.432
G1A163.027Z46.976
G1A160.391Z46.619
G1A156.216Z45.982
G1A152.371Z45.457
G1A150.613Z45.146
G1A149.075Z45.095
G1A27.574
G1A24.828Z45.591
G1A23.180Z45.923
G1A21.092Z46.278
G1A18.126Z46.686
G1A11.205Z47.547
G1A8.569Z47.820
G1A6.152Z47.991
G1A4.175Z48.060
G1A0.000Z48.072
G1X44.277
G1A6.701Z48.062
G1A8.789Z47.979
G1A11.205Z47.796
G1A14.281Z47.482
G1A19.445Z46.847
G1A22.521Z46.423
G1A24.278Z46.116
G1A26.256Z45.690
G1A28.013Z45.296
G1A32.737Z45.095
G1A148.856
G1A150.394Z45.273
G1A152.042Z45.576
G1A160.391Z46.807
G1A163.027Z47.191
G1A165.334Z47.449
G1A169.399Z47.838
G1A171.926Z48.000
G1A174.013Z48.066
G1A185.877Z48.063
G1A188.074Z47.980
G1A190.601Z47.806
G1A196.643Z47.193
G1A199.280Z46.839
G1A203.894Z46.144
G1A208.398Z45.383
G1A209.936Z45.095
G1A332.206
G1A333.634Z45.104
G1A336.710Z46.044
G1A338.248Z46.422
G1A339.896Z46.747
G1A342.313Z47.128
G1A345.169Z47.489
G1A348.355Z47.813
G1A350.662Z47.985
G1A352.640Z48.061
G1A360.000Z48.072
G1X41.420
G1A352.530Z48.061
G1A350.552Z47.989
G1A348.136Z47.817
G1A344.840Z47.505
G1A342.203Z47.186
G1A339.896Z46.834
G1A337.260Z46.338
G1A335.172Z45.859
G1A332.975Z45.362
G1A330.558Z45.095
G1A210.925
G1A209.387Z45.198
G1A207.299Z45.609
G1A202.685Z46.407
G1A199.280Z46.877
G1A196.094Z47.302
G1A192.249Z47.692
G1A189.942Z47.907
G1A187.855Z48.034
G1A186.097Z48.073
G1A172.695Z48.062
G1A170.717Z47.980
G1A168.520Z47.810
G1A164.126Z47.365
G1A161.269Z46.971
G1A157.095Z46.370
G1A151.382Z45.464
G1A149.844Z45.154
G1A148.416Z45.095
G1A31.968
G1A28.892Z45.467
G1A24.498Z46.307
G1A22.740Z46.564
G1A14.721Z47.491
G1A11.645Z47.782
G1A8.898Z47.981
G1A6.811Z48.060
G1A1.099Z48.072
G1A0.000
G1X38.562
G1A4.724Z48.060
G1A7.141Z47.976
G1A10.327Z47.774
G1A14.281Z47.433
G1A20.653Z46.773
G1A23.619Z46.475
G1A25.377Z46.219
G1A29.881Z45.444
G1A33.177Z45.095
G1A148.416
G1A150.394Z45.098
G1A154.019Z45.796
G1A156.985Z46.309
G1A160.940Z46.883
G1A165.005Z47.408
G1A169.728Z47.879
G1A171.816Z48.015
G1A173.793Z48.070
G1A186.207Z48.063
G1A188.184Z47.984
G1A190.272Z47.825
G1A193.677Z47.479
G1A195.984Z47.230
G1A201.587Z46.509
G1A203.894Z46.134
G1A208.398Z45.279
G1A210.485Z45.095
G1A324.406
G1A334.403Z45.790
G1A338.029Z46.484
G1A341.105Z46.957
G1A343.631Z47.286
G1A346.598Z47.589
G1A350.003Z47.853
G1A352.749Z48.006
G1A355.056Z48.066
G1A360.000Z48.072
G1X37.134Z48.060
G1X36.062Z47.956
G1X35.705Z47.908
G1A356.924Z47.891
G1A353.738Z47.788
G1A350.333Z47.610
G1A347.147Z47.376
G1A343.631Z47.026
G1A339.017Z46.452
G1A336.051Z46.012
G1A330.558Z45.107
G1A326.164Z45.095
G1A209.936
G1A205.871Z45.528
G1A202.795Z46.093
G1A200.928Z46.385
G1A195.435Z47.077
G1A192.359Z47.405
G1A188.514Z47.793
G1A185.987Z47.967
G1A183.790Z48.043
G1A180.165Z48.071
G1A175.771Z48.048
G1A173.464Z47.975
G1A171.047Z47.820
G1A168.630Z47.576
G1A165.334Z47.233
G1A160.391Z46.602
G1A157.424Z46.163
G1A155.117Z45.760
G1A151.163Z45.095
G1A31.749
G1A28.673Z45.623
G1A24.278Z46.266
G1A21.971Z46.519
G1A16.369Z46.976
G1A11.645Z47.401
G1A7.800Z47.660
G1A4.175Z47.829
G1A1.208Z47.905
G1A0.000Z47.908
G1X33.205Z47.505
G1X32.847Z47.442
G1A2.856Z47.413
G1A6.701Z47.286
G1A9.887Z47.122
G1A12.963Z46.900
G1A16.588Z46.601
G1A20.543Z46.345
G1A22.630Z46.157
G1A26.036Z45.769
G1A28.563Z45.417
G1A31.199Z45.095
G1A152.591
G1A155.777Z45.478
G1A157.974Z45.862
G1A161.160Z46.319
G1A166.103Z46.929
G1A172.365Z47.586
G1A174.452Z47.742
G1A176.649Z47.843
G1A178.737Z47.874
G1A181.483Z47.861
G1A183.900Z47.777
G1A186.646Z47.590
G1A189.503Z47.309
G1A194.666Z46.768
G1A199.060Z46.239
G1A202.246Z45.789
G1A204.443Z45.405
G1A209.496Z45.095
G1A326.933
G1A333.964Z45.442
G1A338.688Z46.054
G1A342.533Z46.498
G1A346.378Z46.905
G1A348.904Z47.108
G1A351.761Z47.273
G1A355.166Z47.398
G1A358.023Z47.442
G1A360.000Z47.442
G1X29.990Z46.900
G1A355.935Z46.883
G1A352.749Z46.794
G1A349.893Z46.647
G1A347.476Z46.455
G1A344.730Z46.159
G1A341.654Z45.820
G1A336.271Z45.310
G1A332.206Z45.095
G1A203.345
G1A200.708Z45.421
G1A197.742Z45.815
G1A192.469Z46.369
G1A188.843Z46.742
G1A186.207Z47.021
G1A183.570Z47.225
G1A181.483Z47.319
G1A177.309Z47.324
G1A175.441Z47.244
G1A173.024Z47.051
G1A168.190Z46.521
G1A162.258Z45.876
G1A158.853Z45.402
G1A155.667Z45.095
G1A28.233
G1A24.937Z45.456
G1A22.411Z45.687
G1A19.335Z45.886
G1A16.039Z46.060
G1A11.096Z46.516
G1A8.129Z46.707
G1A4.614Z46.842
G1A1.208Z46.898
G1A0.000Z46.900
G1X28.918Z46.675
G1X28.740Z46.655
G1X27.132Z46.281
G1A2.966Z46.252
G1A5.932Z46.145
G1A9.008Z45.961
G1A12.194Z45.691
G1A16.588Z45.266
G1A18.236Z45.163
G1A22.411Z45.095
G1A161.269
G1A164.016Z45.164
G1A168.081Z45.541
G1A171.706Z45.980
G1A174.013Z46.229
G1A176.430Z46.398
G1A178.078Z46.450
G1A181.153Z46.440
G1A182.911Z46.360
G1A185.438Z46.169
G1A188.074Z45.882
G1A191.260Z45.508
G1A194.226Z45.238
G1A197.193Z45.095
G1A337.699
G1A341.434Z45.103
G1A343.741Z45.322
G1A348.245Z45.802
G1A351.211Z46.033
G1A354.507Z46.200
G1A357.363Z46.273
G1A360.000Z46.281
G1X25.614Z45.866
G1X24.364Z45.454
G1X24.275Z45.422
G1A357.144Z45.405
G1A354.617Z45.307
G1A349.234Z45.095
G1A183.900
G1A182.032Z45.098
G1A180.275Z45.126
G1A177.199Z45.112
G1A175.331Z45.095
G1A10.986
G1A4.504Z45.317
G1A2.087Z45.409
G1A0.000Z45.422
G1X23.114Z45.095
G1X21.417
G1A360.000
G1X18.560
G1A0.000
G1X15.702
G1A360.000
G1X12.845
G1A0.000
G1X9.987
G1A360.000
G1X7.130
G1A0.000
G1X4.272
G1A360.000
G1X1.429
G1A0.000
G1X0.000
G1A360.000
G0Z49.200
G0X110.000
G1Z43.190F1100.0
G1A0.000F2190.0
G1X107.142
G1A360.000
G1X104.285
G1A0.000
G1X101.427
G1A360.000
G1X98.570
G1A0.000
G1X95.712
G1A360.000
G1X92.855
G1A0.000
G1X89.997
G1A360.000
G1X87.140
G1A0.000
G1X84.282
G1A360.000
G1X81.425
G1A0.000
G1X78.567
G1A360.000
G1X75.710
G1A0.000
G1X72.852
G1A360.000
G1X69.995
G1A0.000
G1X67.137
G1A360.000
G1X64.280
G1A196.533
G1A196.314Z43.264
G1A195.874Z43.569
G1A195.325Z43.852
G1A194.776Z44.045
G1A194.007Z44.227
G1A192.908Z44.403
G1A191.480Z44.516
G1A190.162Z44.534
G1A188.074Z44.523
G1A186.536Z44.447
G1A184.779Z44.300
G1A183.570Z44.142
G1A182.582Z43.958
G1A181.483Z43.664
G1A180.275Z43.253
G1A180.055Z43.190
G1A178.627Z43.650
G1A177.638Z43.914
G1A176.759Z44.085
G1A175.441Z44.271
G1A173.244Z44.459
G1A171.596Z44.521
G1A168.959Z44.513
G1A167.421Z44.412
G1A166.323Z44.255
G1A165.554Z44.088
G1A164.895Z43.882
G1A164.236Z43.613
G1A163.906Z43.435
G1A163.576Z43.194
G1A163.467Z43.190
G1A0.000
G1X61.422
G1A148.636
G1A151.602Z43.547
G1A153.250Z43.715
G1A154.678Z43.805
G1A156.655Z43.827
G1A158.962Z43.827
G1A161.819Z44.414
G1A162.807Z44.568
G1A163.906Z44.664
G1A165.554Z44.679
G1A174.013Z44.668
G1A175.990Z44.580
G1A177.199Z44.474
G1A178.407Z44.302
G1A179.615Z44.065
G1A179.945Z43.986
G1A180.055Z43.975
G1A181.153Z44.221
G1A182.472Z44.435
G1A184.010Z44.598
G1A185.108Z44.657
G1A187.305Z44.700
G1A196.094Z44.691
G1A197.083Z44.615
G1A198.181Z44.459
G1A201.257Z43.827
G1A204.992Z43.820
G1A206.421Z43.756
G1A208.068Z43.607
G1A209.606Z43.403
G1A211.364Z43.190
G1A360.000
G1X58.565
G1A217.626
G1A213.781Z43.689
G1A211.584Z44.064
G1A210.375Z44.225
G1A208.618Z44.392
G1A206.421Z44.533
G1A203.894Z44.630
G1A201.807Z44.650
G1A199.829Z44.625
G1A199.280Z44.608
G1A197.962Z44.694
G1A189.942Z44.709
G1A185.328Z44.930
G1A182.142Z45.009
G1A177.748Z45.010
G1A174.562Z44.930
G1A169.069Z44.679
G1A162.038Z44.672
G1A160.830Z44.601
G1A158.743Z44.648
G1A156.436Z44.635
G1A154.019Z44.553
G1A151.822Z44.414
G1A150.284Z44.269
G1A148.856Z44.088
G1A146.878Z43.740
G1A142.154Z43.190
G1A0.000
G1X55.707
G1A141.385
G1A142.814Z43.213
G1A144.022Z43.525
G1A146.109Z43.984
G1A147.757Z44.276
G1A149.405Z44.501
G1A151.492Z44.706
G1A154.239Z44.877
G1A160.500Z45.112
G1A163.357Z45.330
G1A171.266Z45.946
G1A174.342Z46.116
G1A177.748Z46.229
G1A180.934Z46.243
G1A183.680Z46.187
G1A187.305Z46.031
G1A190.821Z45.795
G1A199.170Z45.145
G1A202.246Z45.005
G1A206.530Z44.819
G1A208.947Z44.660
G1A211.254Z44.431
G1A212.902Z44.210
G1A214.770Z43.873
G1A216.747Z43.452
G1A218.175Z43.190
G1A360.000
G1X54.814Z43.642
G1X54.725Z43.642
G1X53.296Z45.025
G1X52.850Z45.432
G1A356.155Z45.412
G1A350.442Z45.266
G1A347.696Z45.125
G1A344.620Z44.883
G1A341.874Z44.605
G1A339.347Z44.250
G1A337.260Z43.893
G1A333.525Z43.190
G1A218.065
G1A217.406Z43.236
G1A216.637Z43.481
G1A214.879Z43.904
G1A213.232Z44.229
G1A210.925Z44.590
G1A209.277Z44.775
G1A205.322Z45.105
G1A201.587Z45.482
G1A192.688Z46.485
G1A189.283Z46.789
G1A185.987Z47.008
G1A183.021Z47.127
G1A180.275Z47.153
G1A177.199Z47.134
G1A174.452Z47.032
G1A171.376Z46.837
G1A167.751Z46.531
G1A164.236Z46.143
G1A159.402Z45.579
G1A153.030Z44.997
G1A150.394Z44.765
G1A149.075Z44.599
G1A146.878Z44.195
G1A144.901Z43.768
G1A143.473Z43.405
G1A142.594Z43.190
G1A30.650
G1A28.343Z43.437
G1A27.025Z43.738
G1A25.597Z43.992
G1A24.059Z44.221
G1A21.202Z44.535
G1A18.016Z44.772
G1A14.391Z44.967
G1A6.591Z45.301
G1A2.197Z45.421
G1A0.000Z45.432
G1X51.778Z46.354
G1X50.885Z47.031
G1X50.260Z47.429
G1X49.992Z47.573
G1A1.977Z47.547
G1A3.955Z47.447
G1A6.482Z47.252
G1A9.887Z46.880
G1A15.929Z46.200
G1A19.225Z45.831
G1A21.971Z45.459
G1A24.498Z45.028
G1A27.135Z44.479
G1A29.332Z43.937
G1A30.650Z43.611
G1A34.275Z43.190
G1A143.692
G1A144.901Z43.570
G1A146.329Z43.995
G1A147.757Z44.344
G1A149.185Z44.621
G1A151.492Z45.011
G1A154.129Z45.399
G1A157.864Z45.889
G1A161.599Z46.401
G1A167.531Z47.099
G1A170.607Z47.389
G1A174.013Z47.615
G1A177.199Z47.744
G1A179.725Z47.775
G1A182.252Z47.756
G1A184.779Z47.672
G1A187.415Z47.526
G1A190.052Z47.321
G1A193.457Z46.975
G1A199.500Z46.266
G1A202.026Z45.909
G1A209.606Z44.767
G1A211.144Z44.538
G1A212.572Z44.257
G1A214.110Z43.873
G1A215.429Z43.493
G1A216.417Z43.190
G1A327.043
G1A329.789Z43.207
G1A331.218Z43.406
G1A332.316Z43.670
G1A336.381Z44.774
G1A338.139Z45.209
G1A340.226Z45.636
G1A342.862Z46.058
G1A345.828Z46.456
G1A351.541Z47.152
G1A353.628Z47.346
G1A356.375Z47.516
G1A358.462Z47.571
G1A360.000Z47.573
G1X49.457Z47.807
G1X48.921Z47.963
G1X48.385Z48.047
G1X47.671Z48.072
G1X47.135
G1A355.166Z48.060
G1A353.079Z47.983
G1A350.552Z47.798
G1A347.806Z47.502
G1A343.961Z47.016
G1A341.215Z46.600
G1A338.798Z46.145
G1A337.040Z45.710
G1A335.612Z45.292
G1A332.756Z44.384
G1A332.096Z44.214
G1A330.778Z44.006
G1A326.933Z43.459
G1A324.187Z43.190
G1A215.868
G1A214.220Z43.619
G1A212.463Z44.199
G1A210.815Z44.669
G1A209.387Z45.013
G1A207.849Z45.314
G1A200.269Z46.520
G1A197.742Z46.861
G1A194.886Z47.178
G1A190.601Z47.625
G1A187.855Z47.841
G1A184.998Z47.983
G1A182.142Z48.046
G1A178.187Z48.050
G1A175.221Z47.994
G1A172.585Z47.879
G1A170.168Z47.717
G1A167.202Z47.432
G1A163.027Z46.976
G1A160.391Z46.619
G1A156.216Z45.982
G1A152.371Z45.457
G1A150.613Z45.146
G1A149.075Z44.802
G1A147.537Z44.377
G1A145.999Z43.869
G1A144.132Z43.190
G1A38.120
G1A34.825Z43.445
G1A29.771Z44.440
G1A27.574Z44.956
G1A24.828Z45.591
G1A23.180Z45.923
G1A21.092Z46.278
G1A18.126Z46.686
G1A11.205Z47.547
G1A8.569Z47.820
G1A6.152Z47.991
G1A4.175Z48.060
G1A0.000Z48.072
G1X44.277
G1A6.701Z48.062
G1A8.789Z47.979
G1A11.205Z47.796
G1A14.281Z47.482
G1A19.445Z46.847
G1A22.521Z46.423
G1A24.278Z46.116
G1A26.256Z45.690
G1A28.013Z45.296
G1A32.737Z44.340
G1A40.427Z43.190
G1A143.692
G1A145.890Z43.955
G1A147.428Z44.492
G1A148.856Z44.912
G1A150.394Z45.273
G1A152.042Z45.576
G1A160.391Z46.807
G1A163.027Z47.191
G1A165.334Z47.449
G1A169.399Z47.838
G1A171.926Z48.000
G1A174.013Z48.066
G1A185.877Z48.063
G1A188.074Z47.980
G1A190.601Z47.806
G1A196.643Z47.193
G1A199.280Z46.839
G1A203.894Z46.144
G1A208.398Z45.383
G1A209.936Z45.056
G1A211.364Z44.680
G1A212.682Z44.261
G1A214.660Z43.533
G1A217.955Z43.190
G1A319.683
G1A327.043Z43.956
G1A332.206Z44.796
G1A333.634Z45.104
G1A336.710Z46.044
G1A338.248Z46.422
G1A339.896Z46.747
G1A342.313Z47.128
G1A345.169Z47.489
G1A348.355Z47.813
G1A350.662Z47.985
G1A352.640Z48.061
G1A360.000Z48.072
G1X41.420
G1A352.530Z48.061
G1A350.552Z47.989
G1A348.136Z47.817
G1A344.840Z47.505
G1A342.203Z47.186
G1A339.896Z46.834
G1A337.260Z46.338
G1A335.172Z45.859
G1A332.975Z45.362
G1A330.558Z44.909
G1A325.505Z44.005
G1A320.122Z43.190
G1A219.274
G1A214.660Z43.614
G1A212.353Z44.406
G1A210.925Z44.830
G1A209.387Z45.198
G1A207.299Z45.609
G1A202.685Z46.407
G1A199.280Z46.877
G1A196.094Z47.302
G1A192.249Z47.692
G1A189.942Z47.907
G1A187.855Z48.034
G1A186.097Z48.073
G1A172.695Z48.062
G1A170.717Z47.980
G1A168.520Z47.810
G1A164.126Z47.365
G1A161.269Z46.971
G1A157.095Z46.370
G1A151.382Z45.464
G1A149.844Z45.154
G1A148.416Z44.796
G1A146.988Z44.359
G1A144.681Z43.538
G1A141.166Z43.190
G1A41.526
G1A38.230Z43.438
G1A31.968Z44.844
G1A28.892Z45.467
G1A24.498Z46.307
G1A22.740Z46.564
G1A14.721Z47.491
G1A11.645Z47.782
G1A8.898Z47.981
G1A6.811Z48.060
G1A1.099Z48.072
G1A0.000
G1X38.562
G1A4.724Z48.060
G1A7.141Z47.976
G1A10.327Z47.774
G1A14.281Z47.433
G1A20.653Z46.773
G1A23.619Z46.475
G1A25.377Z46.219
G1A29.881Z45.444
G1A33.177Z44.768
G1A37.351Z43.822
G1A40.208Z43.190
G1A142.154
G1A144.791Z43.563
G1A146.549Z44.134
G1A148.416Z44.645
G1A150.394Z45.098
G1A154.019Z45.796
G1A156.985Z46.309
G1A160.940Z46.883
G1A165.005Z47.408
G1A169.728Z47.879
G1A171.816Z48.015
G1A173.793Z48.070
G1A186.207Z48.063
G1A188.184Z47.984
G1A190.272Z47.825
G1A193.677Z47.479
G1A195.984Z47.230
G1A201.587Z46.509
G1A203.894Z46.134
G1A208.398Z45.279
G1A210.485Z44.818
G1A212.572Z44.269
G1A214.440Z43.691
G1A218.944Z43.190
G1A319.133
G1A321.440Z43.451
G1A324.406Z44.012
G1A334.403Z45.790
G1A338.029Z46.484
G1A341.105Z46.957
G1A343.631Z47.286
G1A346.598Z47.589
G1A350.003Z47.853
G1A352.749Z48.006
G1A355.056Z48.066
G1A360.000Z48.072
G1X37.134Z48.060
G1X36.062Z47.956
G1X35.705Z47.908
G1A356.924Z47.891
G1A353.738Z47.788
G1A350.333Z47.610
G1A347.147Z47.376
G1A343.631Z47.026
G1A339.017Z46.452
G1A336.051Z46.012
G1A330.558Z45.107
G1A326.164Z44.357
G1A323.308Z43.863
G1A321.001Z43.383
G1A318.145Z43.190
G1A217.296
G1A214.440Z43.553
G1A212.353Z44.112
G1A209.936Z44.688
G1A205.871Z45.528
G1A202.795Z46.093
G1A200.928Z46.385
G1A195.435Z47.077
G1A192.359Z47.405
G1A188.514Z47.793
G1A185.987Z47.967
G1A183.790Z48.043
G1A180.165Z48.071
G1A175.771Z48.048
G1A173.464Z47.975
G1A171.047Z47.820
G1A168.630Z47.576
G1A165.334Z47.233
G1A160.391Z46.602
G1A157.424Z46.163
G1A155.117Z45.760
G1A151.163Z44.939
G1A148.087Z44.263
G1A146.109Z43.751
G1A144.022Z43.190
G1A39.988
G1A37.461Z43.834
G1A34.715Z44.467
G1A31.749Z45.072
G1A28.673Z45.623
G1A24.278Z46.266
G1A21.971Z46.519
G1A16.369Z46.976
G1A11.645Z47.401
G1A7.800Z47.660
G1A4.175Z47.829
G1A1.208Z47.905
G1A0.000Z47.908
G1X33.205Z47.505
G1X32.847Z47.442
G1A2.856Z47.413
G1A6.701Z47.286
G1A9.887Z47.122
G1A12.963Z46.900
G1A16.588Z46.601
G1A20.543Z46.345
G1A22.630Z46.157
G1A26.036Z45.769
G1A28.563Z45.417
G1A31.199Z44.991
G1A33.616Z44.558
G1A36.033Z44.050
G1A38.340Z43.493
G1A40.317Z43.190
G1A142.484
G1A145.560Z43.225
G1A148.416Z43.929
G1A152.591Z44.836
G1A155.777Z45.478
G1A157.974Z45.862
G1A161.160Z46.319
G1A166.103Z46.929
G1A172.365Z47.586
G1A174.452Z47.742
G1A176.649Z47.843
G1A178.737Z47.874
G1A181.483Z47.861
G1A183.900Z47.777
G1A186.646Z47.590
G1A189.503Z47.309
G1A194.666Z46.768
G1A199.060Z46.239
G1A202.246Z45.789
G1A204.443Z45.405
G1A209.496Z44.403
G1A212.243Z43.798
G1A215.648Z43.190
G1A319.792
G1A321.770Z43.486
G1A324.077Z43.946
G1A326.933Z44.412
G1A333.964Z45.442
G1A338.688Z46.054
G1A342.533Z46.498
G1A346.378Z46.905
G1A348.904Z47.108
G1A351.761Z47.273
G1A355.166Z47.398
G1A358.023Z47.442
G1A360.000Z47.442
G1X29.990Z46.900
G1A355.935Z46.883
G1A352.749Z46.794
G1A349.893Z46.647
G1A347.476Z46.455
G1A344.730Z46.159
G1A341.654Z45.820
G1A336.271Z45.310
G1A332.206Z44.861
G1A327.592Z44.277
G1A325.285Z43.922
G1A322.978Z43.494
G1A321.001Z43.190
G1A214.770
G1A211.364Z43.498
G1A208.288Z44.115
G1A203.345Z45.005
G1A200.708Z45.421
G1A197.742Z45.815
G1A192.469Z46.369
G1A188.843Z46.742
G1A186.207Z47.021
G1A183.570Z47.225
G1A181.483Z47.319
G1A177.309Z47.324
G1A175.441Z47.244
G1A173.024Z47.051
G1A168.190Z46.521
G1A162.258Z45.876
G1A158.853Z45.402
G1A155.667Z44.865
G1A151.053Z43.972
G1A147.867Z43.286
G1A142.594Z43.190
G1A42.734
G1A38.230Z43.234
G1A36.363Z43.689
G1A33.726Z44.235
G1A31.089Z44.680
G1A28.233Z45.077
G1A24.937Z45.456
G1A22.411Z45.687
G1A19.335Z45.886
G1A16.039Z46.060
G1A11.096Z46.516
G1A8.129Z46.707
G1A4.614Z46.842
G1A1.208Z46.898
G1A0.000Z46.900
G1X28.918Z46.675
G1X28.740Z46.655
G1X27.132Z46.281
G1A2.966Z46.252
G1A5.932Z46.145
G1A9.008Z45.961
G1A12.194Z45.691
G1A16.588Z45.266
G1A18.236Z45.163
G1A22.411Z45.006
G1A25.157Z44.836
G1A28.343Z44.546
G1A30.870Z44.242
G1A33.616Z43.812
G1A35.813Z43.376
G1A37.901Z43.190
G1A150.174
G1A154.788Z43.906
G1A158.084Z44.429
G1A161.269Z44.869
G1A164.016Z45.164
G1A168.081Z45.541
G1A171.706Z45.980
G1A174.013Z46.229
G1A176.430Z46.398
G1A178.078Z46.450
G1A181.153Z46.440
G1A182.911Z46.360
G1A185.438Z46.169
G1A188.074Z45.882
G1A191.260Z45.508
G1A194.226Z45.238
G1A197.193Z44.981
G1A199.719Z44.692
G1A203.784Z44.109
G1A208.727Z43.320
G1A211.474Z43.190
G1A322.759
G1A324.626Z43.436
G1A327.043Z43.830
G1A330.119Z44.223
G1A333.525Z44.551
G1A337.699Z44.860
G1A341.434Z45.103
G1A343.741Z45.322
G1A348.245Z45.802
G1A351.211Z46.033
G1A354.507Z46.200
G1A357.363Z46.273
G1A360.000Z46.281
G1X25.614Z45.866
G1X24.364Z45.454
G1X24.275Z45.422
G1A357.144Z45.405
G1A354.617Z45.307
G1A349.234Z44.976
G1A345.719Z44.696
G1A341.764Z44.356
G1A339.457Z44.243
G1A335.722Z44.104
G1A332.646Z43.913
G1A329.789Z43.646
G1A326.933Z43.283
G1A324.736Z43.190
G1A206.091
G1A200.488Z43.403
G1A197.852Z43.648
G1A193.018Z43.985
G1A190.711Z44.217
G1A186.207Z44.769
G1A183.900Z44.990
G1A182.032Z45.098
G1A180.275Z45.126
G1A177.199Z45.112
G1A175.331Z45.024
G1A173.464Z44.859
G1A171.047Z44.572
G1A167.971Z44.182
G1A165.444Z43.953
G1A161.489Z43.646
G1A158.853Z43.364
G1A150.833Z43.190
G1A33.726
G1A31.639Z43.510
G1A29.551Z43.766
G1A27.354Z43.976
G1A24.608Z44.158
G1A22.191Z44.240
G1A18.895Z44.315
G1A16.918Z44.427
G1A10.986Z44.890
G1A4.504Z45.317
G1A2.087Z45.409
G1A0.000Z45.422
G1X23.114Z44.959
G1X21.864Z44.377
G1X21.417Z44.150
G1A2.307Z44.129
G1A5.163Z44.007
G1A10.986Z43.726
G1A15.050Z43.495
G1A18.126Z43.326
G1A20.653Z43.266
G1A24.608Z43.218
G1A26.805Z43.190
G1A174.782
G1A176.759Z43.279
G1A178.956Z43.301
G1A181.813Z43.286
G1A183.790Z43.200
G1A186.097Z43.190
G1A332.426
G1A334.623Z43.202
G1A337.699Z43.258
G1A340.665Z43.312
G1A343.192Z43.435
G1A348.026Z43.738
G1A356.265Z44.117
G1A358.572Z44.150
G1A360.000
G1X19.899Z43.316
G1X18.739Z43.190
G1X18.560
G1A0.000
G1X15.702
G1A360.000
G1X12.845
G1A0.000
G1X9.987
G1A360.000
G1X7.130
G1A0.000
G1X4.272
G1A360.000
G1X1.429
G1A0.000
G1X0.000
G1A360.000
G0Z49.200
G0X110.000
G1Z41.285F1100.0
G1A0.000F2190.0
G1X107.142
G1A360.000
G1X104.285
G1A0.000
G1X101.427
G1A360.000
G1X98.570
G1A0.000
G1X95.712
G1A360.000
G1X92.855
G1A0.000
G1X89.997
G1A360.000
G1X87.140
G1A0.000
G1X84.282
G1A360.000
G1X81.425
G1A0.000
G1X78.567
G1A360.000
G1X75.710
G1A0.000
G1X72.852
G1A360.000
G1X69.995
G1A0.000
G1X67.137
G1A169.838
G1A170.058Z41.420
G1A170.497Z41.844
G1A170.717Z41.969
G1A171.047Z42.137
G1A171.376Z42.245
G1A171.706Z42.300
G1A172.255Z42.435
G1A172.695Z42.458
G1A173.793Z42.448
G1A174.342Z42.381
G1A174.782Z42.290
G1A175.331Z42.201
G1A176.100Z42.004
G1A176.979Z41.734
G1A179.176Z41.285
G1A180.714
G1A183.570Z41.906
G1A184.669Z42.208
G1A185.218Z42.307
G1A186.097Z42.455
G1A186.646Z42.484
G1A187.745Z42.476
G1A188.074Z42.431
G1A188.404Z42.330
G1A188.734Z42.283
G1A189.063Z42.175
G1A189.503Z41.951
G1A190.052Z41.490
G1A190.272Z41.285
G1A360.000
G1X64.280
G1A196.753
G1A196.643Z42.880
G1A196.533Z43.050
G1A196.314Z43.264
G1A195.874Z43.569
G1A195.325Z43.852
G1A194.776Z44.045
G1A194.007Z44.227
G1A192.908Z44.403
G1A191.480Z44.516
G1A190.162Z44.534
G1A188.074Z44.523
G1A186.536Z44.447
G1A184.779Z44.300
G1A183.570Z44.142
G1A182.582Z43.958
G1A181.483Z43.664
G1A180.275Z43.253
G1A180.055Z43.171
G1A178.627Z43.650
G1A177.638Z43.914
G1A176.759Z44.085
G1A175.441Z44.271
G1A173.244Z44.459
G1A171.596Z44.521
G1A168.959Z44.513
G1A167.421Z44.412
G1A166.323Z44.255
G1A165.554Z44.088
G1A164.895Z43.882
G1A164.236Z43.613
G1A163.906Z43.435
G1A163.576Z43.194
G1A163.467Z43.101
G1A163.357Z42.976
G1A163.247Z41.285
G1A0.000
G1X61.422
G1A138.859
G1A139.518Z41.455
G1A139.957Z41.596
G1A140.507Z41.773
G1A141.935Z42.146
G1A142.704Z42.300
G1A143.583Z42.462
G1A144.571Z42.611
G1A146.768Z42.876
G1A148.636Z43.087
G1A151.602Z43.547
G1A153.250Z43.715
G1A154.678Z43.805
G1A156.655Z43.827
G1A158.962Z43.827
G1A161.819Z44.414
G1A162.807Z44.568
G1A163.906Z44.664
G1A165.554Z44.679
G1A174.013Z44.668
G1A175.990Z44.580
G1A177.199Z44.474
G1A178.407Z44.302
G1A179.615Z44.065
G1A179.945Z43.986
G1A180.055Z43.975
G1A181.153Z44.221
G1A182.472Z44.435
G1A184.010Z44.598
G1A185.108Z44.657
G1A187.305Z44.700
G1A196.094Z44.691
G1A197.083Z44.615
G1A198.181Z44.459
G1A201.257Z43.827
G1A204.992Z43.820
G1A206.421Z43.756
G1A208.068Z43.607
G1A209.606Z43.403
G1A211.364Z43.149
G1A214.550Z42.813
G1A216.417Z42.550
G1A217.296Z42.381
G1A217.955Z42.256
G1A219.274Z41.909
G1A220.372Z41.554
G1A221.691Z41.285
G1A360.000
G1X58.565
G1A223.119
G1A221.691Z41.603
G1A221.141Z41.836
G1A220.702Z42.039
G1A219.823Z42.356
G1A218.724Z42.693
G1A217.626Z42.952
G1A213.781Z43.689
G1A211.584Z44.064
G1A210.375Z44.225
G1A208.618Z44.392
G1A206.421Z44.533
G1A203.894Z44.630
G1A201.807Z44.650
G1A199.829Z44.625
G1A199.280Z44.608
G1A197.962Z44.694
G1A189.942Z44.709
G1A185.328Z44.930
G1A182.142Z45.009
G1A177.748Z45.010
G1A174.562Z44.930
G1A169.069Z44.679
G1A162.038Z44.672
G1A160.830Z44.601
G1A158.743Z44.648
G1A156.436Z44.635
G1A154.019Z44.553
G1A151.822Z44.414
G1A150.284Z44.269
G1A148.856Z44.088
G1A146.878Z43.740
G1A142.154Z42.792
G1A141.166Z42.545
G1A140.067Z42.207
G1A139.408Z41.983
G1A136.771Z41.285
G1A0.000
G1X57.047Z41.298
G1X55.707Z42.730
G1A6.262Z42.733
G1A9.448Z42.808
G1A14.940Z43.012
G1A21.092Z43.163
G1A22.521Z43.150
G1A24.168Z43.053
G1A25.377Z42.910
G1A26.366Z42.754
G1A28.123Z42.374
G1A30.870Z41.613
G1A32.957Z41.285
G1A138.200
G1A139.628Z42.041
G1A140.177Z42.296
G1A141.385Z42.760
G1A142.814Z43.213
G1A144.022Z43.525
G1A146.109Z43.984
G1A147.757Z44.276
G1A149.405Z44.501
G1A151.492Z44.706
G1A154.239Z44.877
G1A160.500Z45.112
G1A163.357Z45.330
G1A171.266Z45.946
G1A174.342Z46.116
G1A177.748Z46.229
G1A180.934Z46.243
G1A183.680Z46.187
G1A187.305Z46.031
G1A190.821Z45.795
G1A199.170Z45.145
G1A202.246Z45.005
G1A206.530Z44.819
G1A208.947Z44.660
G1A211.254Z44.431
G1A212.902Z44.210
G1A214.770Z43.873
G1A216.747Z43.452
G1A218.175Z43.072
G1A219.384Z42.654
G1A219.823Z42.455
G1A220.262Z42.221
G1A220.702Z41.968
G1A221.581Z41.418
G1A222.460Z41.285
G1A328.251
G1A329.680Z41.347
G1A333.085Z41.867
G1A335.941Z42.263
G1A338.248Z42.517
G1A341.544Z42.766
G1A343.741Z42.862
G1A346.378Z42.882
G1A349.344Z42.834
G1A353.958Z42.720
G1A358.023Z42.722
G1A360.000Z42.730
G1X54.814Z43.642
G1X54.725Z43.642
G1X53.296Z45.025
G1X52.850Z45.432
G1A356.155Z45.412
G1A350.442Z45.266
G1A347.696Z45.125
G1A344.620Z44.883
G1A341.874Z44.605
G1A339.347Z44.250
G1A337.260Z43.893
G1A333.525Z43.138
G1A330.778Z42.593
G1A328.911Z42.314
G1A326.823Z41.993
G1A325.285Z41.676
G1A323.857Z41.305
G1A321.990Z41.285
G1A219.933
G1A219.713Z41.307
G1A219.493Z41.770
G1A219.274Z42.088
G1A218.944Z42.419
G1A218.615Z42.657
G1A218.065Z42.958
G1A217.406Z43.236
G1A216.637Z43.481
G1A214.879Z43.904
G1A213.232Z44.229
G1A210.925Z44.590
G1A209.277Z44.775
G1A205.322Z45.105
G1A201.587Z45.482
G1A192.688Z46.485
G1A189.283Z46.789
G1A185.987Z47.008
G1A183.021Z47.127
G1A180.275Z47.153
G1A177.199Z47.134
G1A174.452Z47.032
G1A171.376Z46.837
G1A167.751Z46.531
G1A164.236Z46.143
G1A159.402Z45.579
G1A153.030Z44.997
G1A150.394Z44.765
G1A149.075Z44.599
G1A146.878Z44.195
G1A144.901Z43.768
G1A143.473Z43.405
G1A142.594Z43.115
G1A142.045Z42.877
G1A141.495Z42.568
G1A141.166Z42.320
G1A140.946Z42.107
G1A140.616Z41.665
G1A140.507Z41.481
G1A140.397Z41.285
G1A38.450
G1A35.923Z41.583
G1A34.825Z41.941
G1A33.726Z42.218
G1A31.858Z42.586
G1A30.650Z42.831
G1A28.343Z43.437
G1A27.025Z43.738
G1A25.597Z43.992
G1A24.059Z44.221
G1A21.202Z44.535
G1A18.016Z44.772
G1A14.391Z44.967
G1A6.591Z45.301
G1A2.197Z45.421
G1A0.000Z45.432
G1X51.778Z46.354
G1X50.885Z47.031
G1X50.260Z47.429
G1X49.992Z47.573
G1A1.977Z47.547
G1A3.955Z47.447
G1A6.482Z47.252
G1A9.887Z46.880
G1A15.929Z46.200
G1A19.225Z45.831
G1A21.971Z45.459
G1A24.498Z45.028
G1A27.135Z44.479
G1A29.332Z43.937
G1A30.650Z43.611
G1A34.275Z42.939
G1A36.033Z42.555
G1A37.901Z42.059
G1A40.098Z41.451
G1A42.075Z41.285
G1A140.177
G1A141.056Z41.680
G1A141.495Z41.948
G1A142.154Z42.401
G1A142.814Z42.756
G1A143.692Z43.143
G1A144.901Z43.570
G1A146.329Z43.995
G1A147.757Z44.344
G1A149.185Z44.621
G1A151.492Z45.011
G1A154.129Z45.399
G1A157.864Z45.889
G1A161.599Z46.401
G1A167.531Z47.099
G1A170.607Z47.389
G1A174.013Z47.615
G1A177.199Z47.744
G1A179.725Z47.775
G1A182.252Z47.756
G1A184.779Z47.672
G1A187.415Z47.526
G1A190.052Z47.321
G1A193.457Z46.975
G1A199.500Z46.266
G1A202.026Z45.909
G1A209.606Z44.767
G1A211.144Z44.538
G1A212.572Z44.257
G1A214.110Z43.873
G1A215.429Z43.493
G1A216.417Z43.142
G1A217.186Z42.794
G1A217.955Z42.355
G1A218.724Z41.843
G1A219.823Z41.285
G1A318.584
G1A320.781Z41.639
G1A324.956Z42.491
G1A327.043Z42.839
G1A329.789Z43.207
G1A331.218Z43.406
G1A332.316Z43.670
G1A336.381Z44.774
G1A338.139Z45.209
G1A340.226Z45.636
G1A342.862Z46.058
G1A345.828Z46.456
G1A351.541Z47.152
G1A353.628Z47.346
G1A356.375Z47.516
G1A358.462Z47.571
G1A360.000Z47.573
G1X49.457Z47.807
G1X48.921Z47.963
G1X48.385Z48.047
G1X47.671Z48.072
G1X47.135
G1A355.166Z48.060
G1A353.079Z47.983
G1A350.552Z47.798
G1A347.806Z47.502
G1A343.961Z47.016
G1A341.215Z46.600
G1A338.798Z46.145
G1A337.040Z45.710
G1A335.612Z45.292
G1A332.756Z44.384
G1A332.096Z44.214
G1A330.778Z44.006
G1A326.933Z43.459
G1A324.187Z42.978
G1A316.826Z41.597
G1A312.103Z41.285
G1A220.043
G1A218.944Z41.651
G1A217.516Z42.333
G1A215.868Z43.016
G1A214.220Z43.619
G1A212.463Z44.199
G1A210.815Z44.669
G1A209.387Z45.013
G1A207.849Z45.314
G1A200.269Z46.520
G1A197.742Z46.861
G1A194.886Z47.178
G1A190.601Z47.625
G1A187.855Z47.841
G1A184.998Z47.983
G1A182.142Z48.046
G1A178.187Z48.050
G1A175.221Z47.994
G1A172.585Z47.879
G1A170.168Z47.717
G1A167.202Z47.432
G1A163.027Z46.976
G1A160.391Z46.619
G1A156.216Z45.982
G1A152.371Z45.457
G1A150.613Z45.146
G1A149.075Z44.802
G1A147.537Z44.377
G1A145.999Z43.869
G1A144.132Z43.161
G1A142.154Z42.325
G1A140.507Z41.553
G1A139.188Z41.285
G1A44.052
G1A38.120Z42.720
G1A34.825Z43.445
G1A29.771Z44.440
G1A27.574Z44.956
G1A24.828Z45.591
G1A23.180Z45.923
G1A21.092Z46.278
G1A18.126Z46.686
G1A11.205Z47.547
G1A8.569Z47.820
G1A6.152Z47.991
G1A4.175Z48.060
G1A0.000Z48.072
G1X44.277
G1A6.701Z48.062
G1A8.789Z47.979
G1A11.205Z47.796
G1A14.281Z47.482
G1A19.445Z46.847
G1A22.521Z46.423
G1A24.278Z46.116
G1A26.256Z45.690
G1A28.013Z45.296
G1A32.737Z44.340
G1A40.427Z42.645
G1A43.613Z41.864
G1A50.864Z41.285
G1A137.431
G1A139.738Z41.430
G1A143.692Z43.093
G1A145.890Z43.955
G1A147.428Z44.492
G1A148.856Z44.912
G1A150.394Z45.273
G1A152.042Z45.576
G1A160.391Z46.807
G1A163.027Z47.191
G1A165.334Z47.449
G1A169.399Z47.838
G1A171.926Z48.000
G1A174.013Z48.066
G1A185.877Z48.063
G1A188.074Z47.980
G1A190.601Z47.806
G1A196.643Z47.193
G1A199.280Z46.839
G1A203.894Z46.144
G1A208.398Z45.383
G1A209.936Z45.056
G1A211.364Z44.680
G1A212.682Z44.261
G1A214.660Z43.533
G1A217.955Z42.207
G1A220.702Z41.285
G1A307.818
G1A315.288Z41.707
G1A319.683Z42.594
G1A327.043Z43.956
G1A332.206Z44.796
G1A333.634Z45.104
G1A336.710Z46.044
G1A338.248Z46.422
G1A339.896Z46.747
G1A342.313Z47.128
G1A345.169Z47.489
G1A348.355Z47.813
G1A350.662Z47.985
G1A352.640Z48.061
G1A360.000Z48.072
G1X41.420
G1A352.530Z48.061
G1A350.552Z47.989
G1A348.136Z47.817
G1A344.840Z47.505
G1A342.203Z47.186
G1A339.896Z46.834
G1A337.260Z46.338
G1A335.172Z45.859
G1A332.975Z45.362
G1A330.558Z44.909
G1A325.505Z44.005
G1A320.122Z42.989
G1A317.376Z42.405
G1A309.576Z41.285
G1A223.668
G1A219.274Z41.872
G1A214.660Z43.614
G1A212.353Z44.406
G1A210.925Z44.830
G1A209.387Z45.198
G1A207.299Z45.609
G1A202.685Z46.407
G1A199.280Z46.877
G1A196.094Z47.302
G1A192.249Z47.692
G1A189.942Z47.907
G1A187.855Z48.034
G1A186.097Z48.073
G1A172.695Z48.062
G1A170.717Z47.980
G1A168.520Z47.810
G1A164.126Z47.365
G1A161.269Z46.971
G1A157.095Z46.370
G1A151.382Z45.464
G1A149.844Z45.154
G1A148.416Z44.796
G1A146.988Z44.359
G1A144.681Z43.538
G1A141.166Z42.188
G1A136.442Z41.285
G1A50.095
G1A46.469Z41.338
G1A41.526Z42.651
G1A38.230Z43.438
G1A31.968Z44.844
G1A28.892Z45.467
G1A24.498Z46.307
G1A22.740Z46.564
G1A14.721Z47.491
G1A11.645Z47.782
G1A8.898Z47.981
G1A6.811Z48.060
G1A1.099Z48.072
G1A0.000
G1X38.562
G1A4.724Z48.060
G1A7.141Z47.976
G1A10.327Z47.774
G1A14.281Z47.433
G1A20.653Z46.773
G1A23.619Z46.475
G1A25.377Z46.219
G1A29.881Z45.444
G1A33.177Z44.768
G1A37.351Z43.822
G1A40.208Z43.112
G1A44.382Z41.955
G1A47.897Z41.285
G1A138.309
G1A142.154Z42.591
G1A144.791Z43.563
G1A146.549Z44.134
G1A148.416Z44.645
G1A150.394Z45.098
G1A154.019Z45.796
G1A156.985Z46.309
G1A160.940Z46.883
G1A165.005Z47.408
G1A169.728Z47.879
G1A171.816Z48.015
G1A173.793Z48.070
G1A186.207Z48.063
G1A188.184Z47.984
G1A190.272Z47.825
G1A193.677Z47.479
G1A195.984Z47.230
G1A201.587Z46.509
G1A203.894Z46.134
G1A208.398Z45.279
G1A210.485Z44.818
G1A212.572Z44.269
G1A214.440Z43.691
G1A218.944Z42.127
G1A224.327Z41.285
G1A310.784
G1A314.300Z41.706
G1A319.133Z42.935
G1A321.440Z43.451
G1A324.406Z44.012
G1A334.403Z45.790
G1A338.029Z46.484
G1A341.105Z46.957
G1A343.631Z47.286
G1A346.598Z47.589
G1A350.003Z47.853
G1A352.749Z48.006
G1A355.056Z48.066
G1A360.000Z48.072
G1X37.134Z48.060
G1X36.062Z47.956
G1X35.705Z47.908
G1A356.924Z47.891
G1A353.738Z47.788
G1A350.333Z47.610
G1A347.147Z47.376
G1A343.631Z47.026
G1A339.017Z46.452
G1A336.051Z46.012
G1A330.558Z45.107
G1A326.164Z44.357
G1A323.308Z43.863
G1A321.001Z43.383
G1A318.145Z42.692
G1A313.091Z41.353
G1A310.894Z41.285
G1A227.074
G1A221.251Z41.345
G1A217.296Z42.680
G1A214.440Z43.553
G1A212.353Z44.112
G1A209.936Z44.688
G1A205.871Z45.528
G1A202.795Z46.093
G1A200.928Z46.385
G1A195.435Z47.077
G1A192.359Z47.405
G1A188.514Z47.793
G1A185.987Z47.967
G1A183.790Z48.043
G1A180.165Z48.071
G1A175.771Z48.048
G1A173.464Z47.975
G1A171.047Z47.820
G1A168.630Z47.576
G1A165.334Z47.233
G1A160.391Z46.602
G1A157.424Z46.163
G1A155.117Z45.760
G1A151.163Z44.939
G1A148.087Z44.263
G1A146.109Z43.751
G1A144.022Z43.146
G1A141.935Z42.454
G1A134.464Z41.285
G1A47.238
G1A44.931Z41.741
G1A39.988Z43.170
G1A37.461Z43.834
G1A34.715Z44.467
G1A31.749Z45.072
G1A28.673Z45.623
G1A24.278Z46.266
G1A21.971Z46.519
G1A16.369Z46.976
G1A11.645Z47.401
G1A7.800Z47.660
G1A4.175Z47.829
G1A1.208Z47.905
G1A0.000Z47.908
G1X33.205Z47.505
G1X32.847Z47.442
G1A2.856Z47.413
G1A6.701Z47.286
G1A9.887Z47.122
G1A12.963Z46.900
G1A16.588Z46.601
G1A20.543Z46.345
G1A22.630Z46.157
G1A26.036Z45.769
G1A28.563Z45.417
G1A31.199Z44.991
G1A33.616Z44.558
G1A36.033Z44.050
G1A38.340Z43.493
G1A40.317Z42.937
G1A44.052Z41.832
G1A46.250Z41.285
G1A129.521
G1A139.628Z41.514
G1A142.484Z42.387
G1A145.560Z43.225
G1A148.416Z43.929
G1A152.591Z44.836
G1A155.777Z45.478
G1A157.974Z45.862
G1A161.160Z46.319
G1A166.103Z46.929
G1A172.365Z47.586
G1A174.452Z47.742
G1A176.649Z47.843
G1A178.737Z47.874
G1A181.483Z47.861
G1A183.900Z47.777
G1A186.646Z47.590
G1A189.503Z47.309
G1A194.666Z46.768
G1A199.060Z46.239
G1A202.246Z45.789
G1A204.443Z45.405
G1A209.496Z44.403
G1A212.243Z43.798
G1A215.648Z42.931
G1A218.395Z42.153
G1A222.240Z41.285
G1A311.334
G1A313.421Z41.318
G1A315.728Z41.904
G1A319.792Z43.024
G1A321.770Z43.486
G1A324.077Z43.946
G1A326.933Z44.412
G1A333.964Z45.442
G1A338.688Z46.054
G1A342.533Z46.498
G1A346.378Z46.905
G1A348.904Z47.108
G1A351.761Z47.273
G1A355.166Z47.398
G1A358.023Z47.442
G1A360.000Z47.442
G1X29.990Z46.900
G1A355.935Z46.883
G1A352.749Z46.794
G1A349.893Z46.647
G1A347.476Z46.455
G1A344.730Z46.159
G1A341.654Z45.820
G1A336.271Z45.310
G1A332.206Z44.861
G1A327.592Z44.277
G1A325.285Z43.922
G1A322.978Z43.494
G1A321.001Z43.050
G1A315.618Z41.644
G1A313.311Z41.285
G1A220.702
G1A218.285Z41.850
G1A214.770Z42.723
G1A211.364Z43.498
G1A208.288Z44.115
G1A203.345Z45.005
G1A200.708Z45.421
G1A197.742Z45.815
G1A192.469Z46.369
G1A188.843Z46.742
G1A186.207Z47.021
G1A183.570Z47.225
G1A181.483Z47.319
G1A177.309Z47.324
G1A175.441Z47.244
G1A173.024Z47.051
G1A168.190Z46.521
G1A162.258Z45.876
G1A158.853Z45.402
G1A155.667Z44.865
G1A151.053Z43.972
G1A147.867Z43.286
G1A142.594Z42.021
G1A139.957Z41.324
G1A136.332Z41.285
G1A47.238
G1A45.041Z41.357
G1A42.734Z41.955
G1A38.230Z43.234
G1A36.363Z43.689
G1A33.726Z44.235
G1A31.089Z44.680
G1A28.233Z45.077
G1A24.937Z45.456
G1A22.411Z45.687
G1A19.335Z45.886
G1A16.039Z46.060
G1A11.096Z46.516
G1A8.129Z46.707
G1A4.614Z46.842
G1A1.208Z46.898
G1A0.000Z46.900
G1X28.918Z46.675
G1X28.740Z46.655
G1X27.132Z46.281
G1A2.966Z46.252
G1A5.932Z46.145
G1A9.008Z45.961
G1A12.194Z45.691
G1A16.588Z45.266
G1A18.236Z45.163
G1A22.411Z45.006
G1A25.157Z44.836
G1A28.343Z44.546
G1A30.870Z44.242
G1A33.616Z43.812
G1A35.813Z43.376
G1A37.901Z42.889
G1A43.393Z41.475
G1A45.810Z41.285
G1A139.847
G1A143.473Z41.695
G1A146.768Z42.422
G1A150.174Z43.104
G1A154.788Z43.906
G1A158.084Z44.429
G1A161.269Z44.869
G1A164.016Z45.164
G1A168.081Z45.541
G1A171.706Z45.980
G1A174.013Z46.229
G1A176.430Z46.398
G1A178.078Z46.450
G1A181.153Z46.440
G1A182.911Z46.360
G1A185.438Z46.169
G1A188.074Z45.882
G1A191.260Z45.508
G1A194.226Z45.238
G1A197.193Z44.981
G1A199.719Z44.692
G1A203.784Z44.109
G1A208.727Z43.320
G1A211.474Z42.825
G1A215.209Z42.056
G1A218.944Z41.285
G1A312.981
G1A315.618Z41.355
G1A319.243Z42.220
G1A322.759Z43.061
G1A324.626Z43.436
G1A327.043Z43.830
G1A330.119Z44.223
G1A333.525Z44.551
G1A337.699Z44.860
G1A341.434Z45.103
G1A343.741Z45.322
G1A348.245Z45.802
G1A351.211Z46.033
G1A354.507Z46.200
G1A357.363Z46.273
G1A360.000Z46.281
G1X25.614Z45.866
G1X24.364Z45.454
G1X24.275Z45.422
G1A357.144Z45.405
G1A354.617Z45.307
G1A349.234Z44.976
G1A345.719Z44.696
G1A341.764Z44.356
G1A339.457Z44.243
G1A335.722Z44.104
G1A332.646Z43.913
G1A329.789Z43.646
G1A326.933Z43.283
G1A324.736Z42.920
G1A322.539Z42.504
G1A315.288Z41.285
G1A215.539
G1A212.243Z41.859
G1A209.277Z42.312
G1A206.091Z42.720
G1A200.488Z43.403
G1A197.852Z43.648
G1A193.018Z43.985
G1A190.711Z44.217
G1A186.207Z44.769
G1A183.900Z44.990
G1A182.032Z45.098
G1A180.275Z45.126
G1A177.199Z45.112
G1A175.331Z45.024
G1A173.464Z44.859
G1A171.047Z44.572
G1A167.971Z44.182
G1A165.444Z43.953
G1A161.489Z43.646
G1A158.853Z43.364
G1A150.833Z42.295
G1A147.977Z41.853
G1A144.571Z41.285
G1A45.371
G1A42.405Z41.323
G1A37.022Z42.553
G1A33.726Z43.186
G1A31.639Z43.510
G1A29.551Z43.766
G1A27.354Z43.976
G1A24.608Z44.158
G1A22.191Z44.240
G1A18.895Z44.315
G1A16.918Z44.427
G1A10.986Z44.890
G1A4.504Z45.317
G1A2.087Z45.409
G1A0.000Z45.422
G1X23.114Z44.959
G1X21.864Z44.377
G1X21.417Z44.150
G1A2.307Z44.129
G1A5.163Z44.007
G1A10.986Z43.726
G1A15.050Z43.495
G1A18.126Z43.326
G1A20.653Z43.266
G1A24.608Z43.218
G1A26.805Z43.120
G1A29.332Z42.932
G1A31.529Z42.707
G1A34.385Z42.329
G1A36.582Z41.963
G1A46.579Z41.285
G1A149.735
G1A153.360Z41.286
G1A158.523Z41.738
G1A164.895Z42.143
G1A167.531Z42.385
G1A172.804Z43.012
G1A174.782Z43.184
G1A176.759Z43.279
G1A178.956Z43.301
G1A181.813Z43.286
G1A183.790Z43.200
G1A186.097Z43.015
G1A188.734Z42.718
G1A192.139Z42.319
G1A194.666Z42.098
G1A197.632Z41.927
G1A201.477Z41.731
G1A205.652Z41.401
G1A209.387Z41.285
G1A314.519
G1A322.759Z41.901
G1A324.956Z42.277
G1A327.043Z42.569
G1A329.570Z42.861
G1A332.426Z43.090
G1A334.623Z43.202
G1A337.699Z43.258
G1A340.665Z43.312
G1A343.192Z43.435
G1A348.026Z43.738
G1A356.265Z44.117
G1A358.572Z44.150
G1A360.000
G1X19.899Z43.316
G1X18.739Z42.627
G1X18.649
G1X18.560Z42.572
G1A356.375Z42.554
G1A351.871Z42.425
G1A345.938Z42.185
G1A341.654Z41.999
G1A339.127Z41.958
G1A333.525Z41.976
G1A331.437Z41.934
G1A329.130Z41.798
G1A326.823Z41.596
G1A324.626Z41.346
G1A321.660Z41.285
G1A36.363
G1A34.275Z41.411
G1A31.968Z41.639
G1A29.332Z41.819
G1A26.805Z41.901
G1A22.630Z41.925
G1A18.566Z41.944
G1A15.600Z42.039
G1A9.558Z42.311
G1A2.417Z42.544
G1A0.000Z42.572
G1X16.685Z41.380
G1X15.702Z41.285
G1A360.000
G1X12.845
G1A0.000
G1X9.987
G1A360.000
G1X7.130
G1A0.000
G1X4.272
G1A360.000
G1X1.429
G1A0.000
G1X0.000
G1A360.000
G0Z49.200
G0X110.000
G1Z39.380F1100.0
G1A0.000F2190.0
G1X107.142
G1A360.000
G1X104.285
G1A0.000
G1X101.427
G1A360.000
G1X98.570
G1A0.000
G1X95.712
G1A360.000
G1X92.855
G1A0.000
G1X89.997
G1A360.000
G1X87.140
G1A0.000
G1X84.282
G1A360.000
G1X81.425
G1A0.000
G1X78.567
G1A360.000
G1X75.710
G1A0.000
G1X72.852
G1A170.388
G1A171.157Z39.674
G1A172.585Z40.318
G1A173.354Z40.615
G1A174.123Z40.819
G1A174.452Z40.879
G1A176.979Z40.890
G1A185.108Z40.883
G1A185.658Z40.816
G1A185.987Z40.728
G1A186.646Z40.492
G1A186.976Z40.344
G1A187.525Z40.129
G1A187.855Z39.966
G1A188.514Z39.717
G1A188.953Z39.443
G1A189.393Z39.380
G1A360.000
G1X69.995
G1A190.931
G1A189.942Z39.585
G1A189.612Z39.787
G1A188.624Z40.258
G1A187.635Z40.640
G1A186.866Z40.826
G1A186.317Z40.882
G1A173.573Z40.886
G1A173.024Z40.818
G1A172.585Z40.735
G1A172.035Z40.541
G1A170.827Z40.007
G1A170.278Z39.665
G1A169.179Z39.380
G1A0.000
G1X67.137
G1A168.630
G1A168.959Z39.575
G1A169.289Z40.185
G1A169.509Z40.496
G1A169.838Z41.152
G1A170.058Z41.420
G1A170.497Z41.844
G1A170.717Z41.969
G1A171.047Z42.137
G1A171.376Z42.245
G1A171.706Z42.300
G1A172.255Z42.435
G1A172.695Z42.458
G1A173.793Z42.448
G1A174.342Z42.381
G1A174.782Z42.290
G1A175.331Z42.201
G1A176.100Z42.004
G1A176.979Z41.734
G1A179.176Z40.985
G1A179.506Z40.890
G1A180.494
G1A180.714Z40.944
G1A183.570Z41.906
G1A184.669Z42.208
G1A185.218Z42.307
G1A186.097Z42.455
G1A186.646Z42.484
G1A187.745Z42.476
G1A188.074Z42.431
G1A188.404Z42.330
G1A188.734Z42.283
G1A189.063Z42.175
G1A189.503Z41.951
G1A190.052Z41.490
G1A190.272Z41.209
G1A190.601Z40.573
G1A190.821Z40.227
G1A191.260Z39.380
G1A360.000
G1X64.280
G1A225.316
G1A223.119Z39.827
G1A221.581Z40.159
G1A220.262Z40.387
G1A219.054Z40.572
G1A217.406Z40.788
G1A216.637Z40.820
G1A214.330Z40.813
G1A213.781Z40.769
G1A213.451Z40.683
G1A212.682Z40.311
G1A212.463Z40.119
G1A212.133Z39.653
G1A211.913Z39.380
G1A196.753
G1A196.643Z42.880
G1A196.533Z43.050
G1A196.314Z43.264
G1A195.874Z43.569
G1A195.325Z43.852
G1A194.776Z44.045
G1A194.007Z44.227
G1A192.908Z44.403
G1A191.480Z44.516
G1A190.162Z44.534
G1A188.074Z44.523
G1A186.536Z44.447
G1A184.779Z44.300
G1A183.570Z44.142
G1A182.582Z43.958
G1A181.483Z43.664
G1A180.275Z43.253
G1A180.055Z43.171
G1A178.627Z43.650
G1A177.638Z43.914
G1A176.759Z44.085
G1A175.441Z44.271
G1A173.244Z44.459
G1A171.596Z44.521
G1A168.959Z44.513
G1A167.421Z44.412
G1A166.323Z44.255
G1A165.554Z44.088
G1A164.895Z43.882
G1A164.236Z43.613
G1A163.906Z43.435
G1A163.576Z43.194
G1A163.467Z43.101
G1A163.357Z42.976
G1A163.247Z39.380
G1A148.306
G1A148.087Z39.623
G1A147.757Z40.111
G1A147.537Z40.302
G1A146.878Z40.634
G1A146.549Z40.748
G1A146.109Z40.826
G1A145.340Z40.849
G1A143.143Z40.838
G1A142.484Z40.764
G1A141.166Z40.568
G1A139.078Z40.196
G1A138.200Z40.020
G1A136.991Z39.733
G1A135.124Z39.380
G1A0.000
G1X61.422
G1A133.366
G1A134.025Z39.541
G1A134.904Z39.911
G1A136.332Z40.378
G1A137.760Z40.848
G1A138.859Z41.237
G1A139.518Z41.455
G1A139.957Z41.596
G1A140.507Z41.773
G1A141.935Z42.146
G1A142.704Z42.300
G1A143.583Z42.462
G1A144.571Z42.611
G1A146.768Z42.876
G1A148.636Z43.087
G1A151.602Z43.547
G1A153.250Z43.715
G1A154.678Z43.805
G1A156.655Z43.827
G1A158.962Z43.827
G1A161.819Z44.414
G1A162.807Z44.568
G1A163.906Z44.664
G1A165.554Z44.679
G1A174.013Z44.668
G1A175.990Z44.580
G1A177.199Z44.474
G1A178.407Z44.302
G1A179.615Z44.065
G1A179.945Z43.986
G1A180.055Z43.975
G1A181.153Z44.221
G1A182.472Z44.435
G1A184.010Z44.598
G1A185.108Z44.657
G1A187.305Z44.700
G1A196.094Z44.691
G1A197.083Z44.615
G1A198.181Z44.459
G1A201.257Z43.827
G1A204.992Z43.820
G1A206.421Z43.756
G1A208.068Z43.607
G1A209.606Z43.403
G1A211.364Z43.149
G1A214.550Z42.813
G1A216.417Z42.550
G1A217.296Z42.381
G1A217.955Z42.256
G1A219.274Z41.909
G1A220.372Z41.554
G1A221.691Z41.106
G1A223.558Z40.500
G1A225.096Z40.046
G1A225.755Z39.807
G1A227.074Z39.380
G1A360.000
G1X58.744
G1X58.565Z39.567
G1A355.825Z39.528
G1A352.420Z39.409
G1A351.211Z39.380
G1A350.003Z39.457
G1A347.366Z39.753
G1A346.048Z39.830
G1A343.302Z39.840
G1A340.336Z39.775
G1A337.150Z39.671
G1A335.392Z39.552
G1A333.525Z39.391
G1A332.096Z39.380
G1A227.623
G1A226.854Z39.516
G1A226.085Z39.883
G1A225.096Z40.242
G1A224.107Z40.579
G1A223.119Z40.973
G1A221.691Z41.603
G1A221.141Z41.836
G1A220.702Z42.039
G1A219.823Z42.356
G1A218.724Z42.693
G1A217.626Z42.952
G1A213.781Z43.689
G1A211.584Z44.064
G1A210.375Z44.225
G1A208.618Z44.392
G1A206.421Z44.533
G1A203.894Z44.630
G1A201.807Z44.650
G1A199.829Z44.625
G1A199.280Z44.608
G1A197.962Z44.694
G1A189.942Z44.709
G1A185.328Z44.930
G1A182.142Z45.009
G1A177.748Z45.010
G1A174.562Z44.930
G1A169.069Z44.679
G1A162.038Z44.672
G1A160.830Z44.601
G1A158.743Z44.648
G1A156.436Z44.635
G1A154.019Z44.553
G1A151.822Z44.414
G1A150.284Z44.269
G1A148.856Z44.088
G1A146.878Z43.740
G1A142.154Z42.792
G1A141.166Z42.545
G1A140.067Z42.207
G1A139.408Z41.983
G1A136.771Z40.779
G1A135.453Z40.280
G1A134.464Z39.904
G1A133.695Z39.559
G1A133.036Z39.380
G1A30.320
G1A27.684Z40.020
G1A26.366Z40.423
G1A25.377Z40.676
G1A24.059Z40.900
G1A23.399Z40.963
G1A22.301Z40.987
G1A20.873Z40.977
G1A19.664Z40.888
G1A16.039Z40.496
G1A10.766Z39.857
G1A9.008Z39.709
G1A6.921Z39.621
G1A3.625Z39.585
G1A0.000Z39.567
G1X57.047Z41.298
G1X55.707Z42.730
G1A6.262Z42.733
G1A9.448Z42.808
G1A14.940Z43.012
G1A21.092Z43.163
G1A22.521Z43.150
G1A24.168Z43.053
G1A25.377Z42.910
G1A26.366Z42.754
G1A28.123Z42.374
G1A30.870Z41.613
G1A32.957Z41.087
G1A33.836Z40.799
G1A34.495Z40.523
G1A35.264Z40.143
G1A36.143Z39.613
G1A37.241Z39.380
G1A134.355
G1A135.233Z39.785
G1A137.211Z40.632
G1A138.200Z41.165
G1A139.628Z42.041
G1A140.177Z42.296
G1A141.385Z42.760
G1A142.814Z43.213
G1A144.022Z43.525
G1A146.109Z43.984
G1A147.757Z44.276
G1A149.405Z44.501
G1A151.492Z44.706
G1A154.239Z44.877
G1A160.500Z45.112
G1A163.357Z45.330
G1A171.266Z45.946
G1A174.342Z46.116
G1A177.748Z46.229
G1A180.934Z46.243
G1A183.680Z46.187
G1A187.305Z46.031
G1A190.821Z45.795
G1A199.170Z45.145
G1A202.246Z45.005
G1A206.530Z44.819
G1A208.947Z44.660
G1A211.254Z44.431
G1A212.902Z44.210
G1A214.770Z43.873
G1A216.747Z43.452
G1A218.175Z43.072
G1A219.384Z42.654
G1A219.823Z42.455
G1A220.262Z42.221
G1A220.702Z41.968
G1A221.581Z41.418
G1A222.460Z40.915
G1A223.119Z40.591
G1A223.888Z40.279
G1A225.206Z39.754
G1A225.975Z39.380
G1A322.649
G1A324.736Z39.982
G1A325.615Z40.339
G1A326.604Z40.656
G1A328.251Z41.064
G1A329.680Z41.347
G1A333.085Z41.867
G1A335.941Z42.263
G1A338.248Z42.517
G1A341.544Z42.766
G1A343.741Z42.862
G1A346.378Z42.882
G1A349.344Z42.834
G1A353.958Z42.720
G1A358.023Z42.722
G1A360.000Z42.730
G1X54.814Z43.642
G1X54.725Z43.642
G1X53.296Z45.025
G1X52.850Z45.432
G1A356.155Z45.412
G1A350.442Z45.266
G1A347.696Z45.125
G1A344.620Z44.883
G1A341.874Z44.605
G1A339.347Z44.250
G1A337.260Z43.893
G1A333.525Z43.138
G1A330.778Z42.593
G1A328.911Z42.314
G1A326.823Z41.993
G1A325.285Z41.676
G1A323.857Z41.305
G1A321.990Z40.778
G1A320.781Z40.530
G1A319.463Z40.339
G1A316.826Z40.080
G1A312.652Z39.698
G1A310.125Z39.400
G1A307.818Z39.380
G1A222.350
G1A221.581Z39.476
G1A220.702Z39.849
G1A220.372Z40.084
G1A220.043Z40.437
G1A219.933Z40.671
G1A219.713Z41.307
G1A219.493Z41.770
G1A219.274Z42.088
G1A218.944Z42.419
G1A218.615Z42.657
G1A218.065Z42.958
G1A217.406Z43.236
G1A216.637Z43.481
G1A214.879Z43.904
G1A213.232Z44.229
G1A210.925Z44.590
G1A209.277Z44.775
G1A205.322Z45.105
G1A201.587Z45.482
G1A192.688Z46.485
G1A189.283Z46.789
G1A185.987Z47.008
G1A183.021Z47.127
G1A180.275Z47.153
G1A177.199Z47.134
G1A174.452Z47.032
G1A171.376Z46.837
G1A167.751Z46.531
G1A164.236Z46.143
G1A159.402Z45.579
G1A153.030Z44.997
G1A150.394Z44.765
G1A149.075Z44.599
G1A146.878Z44.195
G1A144.901Z43.768
G1A143.473Z43.405
G1A142.594Z43.115
G1A142.045Z42.877
G1A141.495Z42.568
G1A141.166Z42.320
G1A140.946Z42.107
G1A140.616Z41.665
G1A140.507Z41.481
G1A140.397Z41.246
G1A140.067Z40.365
G1A139.847Z40.109
G1A139.518Z39.849
G1A139.298Z39.719
G1A137.760Z39.380
G1A47.458
G1A44.712Z39.644
G1A41.416Z39.981
G1A40.208Z40.154
G1A39.219Z40.366
G1A38.450Z40.599
G1A35.923Z41.583
G1A34.825Z41.941
G1A33.726Z42.218
G1A31.858Z42.586
G1A30.650Z42.831
G1A28.343Z43.437
G1A27.025Z43.738
G1A25.597Z43.992
G1A24.059Z44.221
G1A21.202Z44.535
G1A18.016Z44.772
G1A14.391Z44.967
G1A6.591Z45.301
G1A2.197Z45.421
G1A0.000Z45.432
G1X51.778Z46.354
G1X50.885Z47.031
G1X50.260Z47.429
G1X49.992Z47.573
G1A1.977Z47.547
G1A3.955Z47.447
G1A6.482Z47.252
G1A9.887Z46.880
G1A15.929Z46.200
G1A19.225Z45.831
G1A21.971Z45.459
G1A24.498Z45.028
G1A27.135Z44.479
G1A29.332Z43.937
G1A30.650Z43.611
G1A34.275Z42.939
G1A36.033Z42.555
G1A37.901Z42.059
G1A40.098Z41.451
G1A42.075Z40.971
G1A44.272Z40.530
G1A49.106Z39.667
G1A52.182Z39.380
G1A136.552
G1A138.309Z39.591
G1A139.298Z40.432
G1A140.177Z41.108
G1A141.056Z41.680
G1A141.495Z41.948
G1A142.154Z42.401
G1A142.814Z42.756
G1A143.692Z43.143
G1A144.901Z43.570
G1A146.329Z43.995
G1A147.757Z44.344
G1A149.185Z44.621
G1A151.492Z45.011
G1A154.129Z45.399
G1A157.864Z45.889
G1A161.599Z46.401
G1A167.531Z47.099
G1A170.607Z47.389
G1A174.013Z47.615
G1A177.199Z47.744
G1A179.725Z47.775
G1A182.252Z47.756
G1A184.779Z47.672
G1A187.415Z47.526
G1A190.052Z47.321
G1A193.457Z46.975
G1A199.500Z46.266
G1A202.026Z45.909
G1A209.606Z44.767
G1A211.144Z44.538
G1A212.572Z44.257
G1A214.110Z43.873
G1A215.429Z43.493
G1A216.417Z43.142
G1A217.186Z42.794
G1A217.955Z42.355
G1A218.724Z41.843
G1A219.823Z41.019
G1A220.482Z40.438
G1A221.581Z39.380
G1A304.193
G1A309.796Z39.845
G1A318.584Z41.234
G1A320.781Z41.639
G1A324.956Z42.491
G1A327.043Z42.839
G1A329.789Z43.207
G1A331.218Z43.406
G1A332.316Z43.670
G1A336.381Z44.774
G1A338.139Z45.209
G1A340.226Z45.636
G1A342.862Z46.058
G1A345.828Z46.456
G1A351.541Z47.152
G1A353.628Z47.346
G1A356.375Z47.516
G1A358.462Z47.571
G1A360.000Z47.573
G1X49.457Z47.807
G1X48.921Z47.963
G1X48.385Z48.047
G1X47.671Z48.072
G1X47.135
G1A355.166Z48.060
G1A353.079Z47.983
G1A350.552Z47.798
G1A347.806Z47.502
G1A343.961Z47.016
G1A341.215Z46.600
G1A338.798Z46.145
G1A337.040Z45.710
G1A335.612Z45.292
G1A332.756Z44.384
G1A332.096Z44.214
G1A330.778Z44.006
G1A326.933Z43.459
G1A324.187Z42.978
G1A316.826Z41.597
G1A312.103Z40.671
G1A305.182Z39.380
G1A224.327
G1A222.130Z39.674
G1A221.031Z40.443
G1A220.043Z41.062
G1A218.944Z41.651
G1A217.516Z42.333
G1A215.868Z43.016
G1A214.220Z43.619
G1A212.463Z44.199
G1A210.815Z44.669
G1A209.387Z45.013
G1A207.849Z45.314
G1A200.269Z46.520
G1A197.742Z46.861
G1A194.886Z47.178
G1A190.601Z47.625
G1A187.855Z47.841
G1A184.998Z47.983
G1A182.142Z48.046
G1A178.187Z48.050
G1A175.221Z47.994
G1A172.585Z47.879
G1A170.168Z47.717
G1A167.202Z47.432
G1A163.027Z46.976
G1A160.391Z46.619
G1A156.216Z45.982
G1A152.371Z45.457
G1A150.613Z45.146
G1A149.075Z44.802
G1A147.537Z44.377
G1A145.999Z43.869
G1A144.132Z43.161
G1A142.154Z42.325
G1A140.507Z41.553
G1A139.188Z40.859
G1A137.760Z40.010
G1A136.002Z39.380
G1A55.258
G1A48.666Z40.208
G1A44.052Z41.283
G1A38.120Z42.720
G1A34.825Z43.445
G1A29.771Z44.440
G1A27.574Z44.956
G1A24.828Z45.591
G1A23.180Z45.923
G1A21.092Z46.278
G1A18.126Z46.686
G1A11.205Z47.547
G1A8.569Z47.820
G1A6.152Z47.991
G1A4.175Z48.060
G1A0.000Z48.072
G1X44.277
G1A6.701Z48.062
G1A8.789Z47.979
G1A11.205Z47.796
G1A14.281Z47.482
G1A19.445Z46.847
G1A22.521Z46.423
G1A24.278Z46.116
G1A26.256Z45.690
G1A28.013Z45.296
G1A32.737Z44.340
G1A40.427Z42.645
G1A43.613Z41.864
G1A50.864Z40.005
G1A54.489Z39.380
G1A132.377
G1A135.673Z39.529
G1A137.431Z40.395
G1A139.738Z41.430
G1A143.692Z43.093
G1A145.890Z43.955
G1A147.428Z44.492
G1A148.856Z44.912
G1A150.394Z45.273
G1A152.042Z45.576
G1A160.391Z46.807
G1A163.027Z47.191
G1A165.334Z47.449
G1A169.399Z47.838
G1A171.926Z48.000
G1A174.013Z48.066
G1A185.877Z48.063
G1A188.074Z47.980
G1A190.601Z47.806
G1A196.643Z47.193
G1A199.280Z46.839
G1A203.894Z46.144
G1A208.398Z45.383
G1A209.936Z45.056
G1A211.364Z44.680
G1A212.682Z44.261
G1A214.660Z43.533
G1A217.955Z42.207
G1A220.702Z41.026
G1A222.460Z40.187
G1A223.778Z39.496
G1A227.074Z39.380
G1A303.973
G1A307.818Z40.021
G1A315.288Z41.707
G1A319.683Z42.594
G1A327.043Z43.956
G1A332.206Z44.796
G1A333.634Z45.104
G1A336.710Z46.044
G1A338.248Z46.422
G1A339.896Z46.747
G1A342.313Z47.128
G1A345.169Z47.489
G1A348.355Z47.813
G1A350.662Z47.985
G1A352.640Z48.061
G1A360.000Z48.072
G1X41.420
G1A352.530Z48.061
G1A350.552Z47.989
G1A348.136Z47.817
G1A344.840Z47.505
G1A342.203Z47.186
G1A339.896Z46.834
G1A337.260Z46.338
G1A335.172Z45.859
G1A332.975Z45.362
G1A330.558Z44.909
G1A325.505Z44.005
G1A320.122Z42.989
G1A317.376Z42.405
G1A309.576Z40.563
G1A306.720Z39.964
G1A304.303Z39.525
G1A301.776Z39.380
G1A226.085
G1A223.668Z40.136
G1A219.274Z41.872
G1A214.660Z43.614
G1A212.353Z44.406
G1A210.925Z44.830
G1A209.387Z45.198
G1A207.299Z45.609
G1A202.685Z46.407
G1A199.280Z46.877
G1A196.094Z47.302
G1A192.249Z47.692
G1A189.942Z47.907
G1A187.855Z48.034
G1A186.097Z48.073
G1A172.695Z48.062
G1A170.717Z47.980
G1A168.520Z47.810
G1A164.126Z47.365
G1A161.269Z46.971
G1A157.095Z46.370
G1A151.382Z45.464
G1A149.844Z45.154
G1A148.416Z44.796
G1A146.988Z44.359
G1A144.681Z43.538
G1A141.166Z42.188
G1A136.442Z40.323
G1A133.695Z39.380
G1A54.928
G1A52.621Z39.803
G1A50.095Z40.392
G1A46.469Z41.338
G1A41.526Z42.651
G1A38.230Z43.438
G1A31.968Z44.844
G1A28.892Z45.467
G1A24.498Z46.307
G1A22.740Z46.564
G1A14.721Z47.491
G1A11.645Z47.782
G1A8.898Z47.981
G1A6.811Z48.060
G1A1.099Z48.072
G1A0.000
G1X38.562
G1A4.724Z48.060
G1A7.141Z47.976
G1A10.327Z47.774
G1A14.281Z47.433
G1A20.653Z46.773
G1A23.619Z46.475
G1A25.377Z46.219
G1A29.881Z45.444
G1A33.177Z44.768
G1A37.351Z43.822
G1A40.208Z43.112
G1A44.382Z41.955
G1A47.897Z40.993
G1A49.985Z40.492
G1A52.511Z39.970
G1A54.928Z39.562
G1A58.114Z39.380
G1A131.279
G1A133.366Z39.384
G1A138.309Z41.181
G1A142.154Z42.591
G1A144.791Z43.563
G1A146.549Z44.134
G1A148.416Z44.645
G1A150.394Z45.098
G1A154.019Z45.796
G1A156.985Z46.309
G1A160.940Z46.883
G1A165.005Z47.408
G1A169.728Z47.879
G1A171.816Z48.015
G1A173.793Z48.070
G1A186.207Z48.063
G1A188.184Z47.984
G1A190.272Z47.825
G1A193.677Z47.479
G1A195.984Z47.230
G1A201.587Z46.509
G1A203.894Z46.134
G1A208.398Z45.279
G1A210.485Z44.818
G1A212.572Z44.269
G1A214.440Z43.691
G1A218.944Z42.127
G1A224.327Z40.176
G1A227.403Z39.380
G1A298.700
G1A303.753Z39.632
G1A306.390Z40.012
G1A308.917Z40.449
G1A310.784Z40.847
G1A314.300Z41.706
G1A319.133Z42.935
G1A321.440Z43.451
G1A324.406Z44.012
G1A334.403Z45.790
G1A338.029Z46.484
G1A341.105Z46.957
G1A343.631Z47.286
G1A346.598Z47.589
G1A350.003Z47.853
G1A352.749Z48.006
G1A355.056Z48.066
G1A360.000Z48.072
G1X37.134Z48.060
G1X36.062Z47.956
G1X35.705Z47.908
G1A356.924Z47.891
G1A353.738Z47.788
G1A350.333Z47.610
G1A347.147Z47.376
G1A343.631Z47.026
G1A339.017Z46.452
G1A336.051Z46.012
G1A330.558Z45.107
G1A326.164Z44.357
G1A323.308Z43.863
G1A321.001Z43.383
G1A318.145Z42.692
G1A313.091Z41.353
G1A310.894Z40.842
G1A308.697Z40.409
G1A306.720Z40.104
G1A303.424Z39.696
G1A294.086Z39.380
G1A227.074
G1A221.251Z41.345
G1A217.296Z42.680
G1A214.440Z43.553
G1A212.353Z44.112
G1A209.936Z44.688
G1A205.871Z45.528
G1A202.795Z46.093
G1A200.928Z46.385
G1A195.435Z47.077
G1A192.359Z47.405
G1A188.514Z47.793
G1A185.987Z47.967
G1A183.790Z48.043
G1A180.165Z48.071
G1A175.771Z48.048
G1A173.464Z47.975
G1A171.047Z47.820
G1A168.630Z47.576
G1A165.334Z47.233
G1A160.391Z46.602
G1A157.424Z46.163
G1A155.117Z45.760
G1A151.163Z44.939
G1A148.087Z44.263
G1A146.109Z43.751
G1A144.022Z43.146
G1A141.935Z42.454
G1A134.464Z39.849
G1A129.081Z39.380
G1A65.255
G1A57.235Z39.403
G1A53.830Z39.853
G1A51.193Z40.272
G1A49.435Z40.613
G1A47.238Z41.123
G1A44.931Z41.741
G1A39.988Z43.170
G1A37.461Z43.834
G1A34.715Z44.467
G1A31.749Z45.072
G1A28.673Z45.623
G1A24.278Z46.266
G1A21.971Z46.519
G1A16.369Z46.976
G1A11.645Z47.401
G1A7.800Z47.660
G1A4.175Z47.829
G1A1.208Z47.905
G1A0.000Z47.908
G1X33.205Z47.505
G1X32.847Z47.442
G1A2.856Z47.413
G1A6.701Z47.286
G1A9.887Z47.122
G1A12.963Z46.900
G1A16.588Z46.601
G1A20.543Z46.345
G1A22.630Z46.157
G1A26.036Z45.769
G1A28.563Z45.417
G1A31.199Z44.991
G1A33.616Z44.558
G1A36.033Z44.050
G1A38.340Z43.493
G1A40.317Z42.937
G1A44.052Z41.832
G1A46.250Z41.254
G1A48.337Z40.787
G1A50.534Z40.377
G1A53.171Z39.968
G1A57.125Z39.459
G1A62.069Z39.380
G1A129.521
G1A139.628Z41.514
G1A142.484Z42.387
G1A145.560Z43.225
G1A148.416Z43.929
G1A152.591Z44.836
G1A155.777Z45.478
G1A157.974Z45.862
G1A161.160Z46.319
G1A166.103Z46.929
G1A172.365Z47.586
G1A174.452Z47.742
G1A176.649Z47.843
G1A178.737Z47.874
G1A181.483Z47.861
G1A183.900Z47.777
G1A186.646Z47.590
G1A189.503Z47.309
G1A194.666Z46.768
G1A199.060Z46.239
G1A202.246Z45.789
G1A204.443Z45.405
G1A209.496Z44.403
G1A212.243Z43.798
G1A215.648Z42.931
G1A218.395Z42.153
G1A222.240Z40.956
G1A226.524Z39.537
G1A231.797Z39.380
G1A295.844
G1A303.314Z39.687
G1A306.720Z40.102
G1A309.136Z40.462
G1A311.334Z40.863
G1A313.421Z41.318
G1A315.728Z41.904
G1A319.792Z43.024
G1A321.770Z43.486
G1A324.077Z43.946
G1A326.933Z44.412
G1A333.964Z45.442
G1A338.688Z46.054
G1A342.533Z46.498
G1A346.378Z46.905
G1A348.904Z47.108
G1A351.761Z47.273
G1A355.166Z47.398
G1A358.023Z47.442
G1A360.000Z47.442
G1X29.990Z46.900
G1A355.935Z46.883
G1A352.749Z46.794
G1A349.893Z46.647
G1A347.476Z46.455
G1A344.730Z46.159
G1A341.654Z45.820
G1A336.271Z45.310
G1A332.206Z44.861
G1A327.592Z44.277
G1A325.285Z43.922
G1A322.978Z43.494
G1A321.001Z43.050
G1A315.618Z41.644
G1A313.311Z41.115
G1A311.004Z40.666
G1A308.477Z40.256
G1A305.401Z39.841
G1A299.579Z39.380
G1A232.457
G1A223.998Z40.209
G1A220.702Z41.186
G1A218.285Z41.850
G1A214.770Z42.723
G1A211.364Z43.498
G1A208.288Z44.115
G1A203.345Z45.005
G1A200.708Z45.421
G1A197.742Z45.815
G1A192.469Z46.369
G1A188.843Z46.742
G1A186.207Z47.021
G1A183.570Z47.225
G1A181.483Z47.319
G1A177.309Z47.324
G1A175.441Z47.244
G1A173.024Z47.051
G1A168.190Z46.521
G1A162.258Z45.876
G1A158.853Z45.402
G1A155.667Z44.865
G1A151.053Z43.972
G1A147.867Z43.286
G1A142.594Z42.021
G1A139.957Z41.324
G1A136.332Z40.255
G1A128.642Z39.380
G1A61.739
G1A56.466Z39.463
G1A52.402Z39.999
G1A49.545Z40.442
G1A47.238Z40.871
G1A45.041Z41.357
G1A42.734Z41.955
G1A38.230Z43.234
G1A36.363Z43.689
G1A33.726Z44.235
G1A31.089Z44.680
G1A28.233Z45.077
G1A24.937Z45.456
G1A22.411Z45.687
G1A19.335Z45.886
G1A16.039Z46.060
G1A11.096Z46.516
G1A8.129Z46.707
G1A4.614Z46.842
G1A1.208Z46.898
G1A0.000Z46.900
G1X28.918Z46.675
G1X28.740Z46.655
G1X27.132Z46.281
G1A2.966Z46.252
G1A5.932Z46.145
G1A9.008Z45.961
G1A12.194Z45.691
G1A16.588Z45.266
G1A18.236Z45.163
G1A22.411Z45.006
G1A25.157Z44.836
G1A28.343Z44.546
G1A30.870Z44.242
G1A33.616Z43.812
G1A35.813Z43.376
G1A37.901Z42.889
G1A43.393Z41.475
G1A45.810Z40.930
G1A48.337Z40.444
G1A51.413Z39.941
G1A56.466Z39.380
G1A128.422
G1A135.893Z39.789
G1A139.847Z40.836
G1A143.473Z41.695
G1A146.768Z42.422
G1A150.174Z43.104
G1A154.788Z43.906
G1A158.084Z44.429
G1A161.269Z44.869
G1A164.016Z45.164
G1A168.081Z45.541
G1A171.706Z45.980
G1A174.013Z46.229
G1A176.430Z46.398
G1A178.078Z46.450
G1A181.153Z46.440
G1A182.911Z46.360
G1A185.438Z46.169
G1A188.074Z45.882
G1A191.260Z45.508
G1A194.226Z45.238
G1A197.193Z44.981
G1A199.719Z44.692
G1A203.784Z44.109
G1A208.727Z43.320
G1A211.474Z42.825
G1A215.209Z42.056
G1A218.944Z41.195
G1A221.581Z40.527
G1A224.986Z39.598
G1A229.820Z39.380
G1A302.655
G1A307.159Z39.849
G1A310.235Z40.311
G1A312.981Z40.803
G1A315.618Z41.355
G1A319.243Z42.220
G1A322.759Z43.061
G1A324.626Z43.436
G1A327.043Z43.830
G1A330.119Z44.223
G1A333.525Z44.551
G1A337.699Z44.860
G1A341.434Z45.103
G1A343.741Z45.322
G1A348.245Z45.802
G1A351.211Z46.033
G1A354.507Z46.200
G1A357.363Z46.273
G1A360.000Z46.281
G1X25.614Z45.866
G1X24.364Z45.454
G1X24.275Z45.422
G1A357.144Z45.405
G1A354.617Z45.307
G1A349.234Z44.976
G1A345.719Z44.696
G1A341.764Z44.356
G1A339.457Z44.243
G1A335.722Z44.104
G1A332.646Z43.913
G1A329.789Z43.646
G1A326.933Z43.283
G1A324.736Z42.920
G1A322.539Z42.504
G1A315.288Z40.922
G1A312.103Z40.303
G1A309.027Z39.778
G1A304.083Z39.380
G1A226.524
G1A222.569Z39.723
G1A219.603Z40.403
G1A215.539Z41.259
G1A212.243Z41.859
G1A209.277Z42.312
G1A206.091Z42.720
G1A200.488Z43.403
G1A197.852Z43.648
G1A193.018Z43.985
G1A190.711Z44.217
G1A186.207Z44.769
G1A183.900Z44.990
G1A182.032Z45.098
G1A180.275Z45.126
G1A177.199Z45.112
G1A175.331Z45.024
G1A173.464Z44.859
G1A171.047Z44.572
G1A167.971Z44.182
G1A165.444Z43.953
G1A161.489Z43.646
G1A158.853Z43.364
G1A150.833Z42.295
G1A147.977Z41.853
G1A144.571Z41.229
G1A139.408Z40.131
G1A136.442Z39.427
G1A133.366Z39.380
G1A57.785
G1A51.852Z39.544
G1A48.447Z40.104
G1A45.371Z40.683
G1A42.405Z41.323
G1A37.022Z42.553
G1A33.726Z43.186
G1A31.639Z43.510
G1A29.551Z43.766
G1A27.354Z43.976
G1A24.608Z44.158
G1A22.191Z44.240
G1A18.895Z44.315
G1A16.918Z44.427
G1A10.986Z44.890
G1A4.504Z45.317
G1A2.087Z45.409
G1A0.000Z45.422
G1X23.114Z44.959
G1X21.864Z44.377
G1X21.417Z44.150
G1A2.307Z44.129
G1A5.163Z44.007
G1A10.986Z43.726
G1A15.050Z43.495
G1A18.126Z43.326
G1A20.653Z43.266
G1A24.608Z43.218
G1A26.805Z43.120
G1A29.332Z42.932
G1A31.529Z42.707
G1A34.385Z42.329
G1A36.582Z41.963
G1A46.579Z40.002
G1A50.864Z39.380
G1A137.431
G1A140.177Z39.508
G1A143.033Z40.025
G1A146.659Z40.585
G1A149.735Z40.954
G1A153.360Z41.286
G1A158.523Z41.738
G1A164.895Z42.143
G1A167.531Z42.385
G1A172.804Z43.012
G1A174.782Z43.184
G1A176.759Z43.279
G1A178.956Z43.301
G1A181.813Z43.286
G1A183.790Z43.200
G1A186.097Z43.015
G1A188.734Z42.718
G1A192.139Z42.319
G1A194.666Z42.098
G1A197.632Z41.927
G1A201.477Z41.731
G1A205.652Z41.401
G1A209.387Z41.087
G1A211.913Z40.811
G1A214.110Z40.520
G1A217.846Z39.915
G1A220.922Z39.380
G1A305.291
G1A310.125Z39.510
G1A314.519Z40.313
G1A322.759Z41.901
G1A324.956Z42.277
G1A327.043Z42.569
G1A329.570Z42.861
G1A332.426Z43.090
G1A334.623Z43.202
G1A337.699Z43.258
G1A340.665Z43.312
G1A343.192Z43.435
G1A348.026Z43.738
G1A356.265Z44.117
G1A358.572Z44.150
G1A360.000
G1X19.899Z43.316
G1X18.739Z42.627
G1X18.649
G1X18.560Z42.572
G1A356.375Z42.554
G1A351.871Z42.425
G1A345.938Z42.185
G1A341.654Z41.999
G1A339.127Z41.958
G1A333.525Z41.976
G1A331.437Z41.934
G1A329.130Z41.798
G1A326.823Z41.596
G1A324.626Z41.346
G1A321.660Z40.916
G1A318.254Z40.347
G1A310.565Z39.380
G1A213.671
G1A211.474Z39.401
G1A208.947Z39.516
G1A201.916Z39.719
G1A197.193Z39.837
G1A194.446Z39.971
G1A191.810Z40.176
G1A186.427Z40.703
G1A183.680Z40.895
G1A181.593Z40.973
G1A178.187Z40.984
G1A176.100Z40.931
G1A173.793Z40.790
G1A171.047Z40.534
G1A167.092Z40.127
G1A164.345Z39.917
G1A161.050Z39.752
G1A152.810Z39.499
G1A149.405Z39.392
G1A147.318Z39.380
G1A48.666
G1A43.503Z39.906
G1A38.999Z40.714
G1A36.363Z41.132
G1A34.275Z41.411
G1A31.968Z41.639
G1A29.332Z41.819
G1A26.805Z41.901
G1A22.630Z41.925
G1A18.566Z41.944
G1A15.600Z42.039
G1A9.558Z42.311
G1A2.417Z42.544
G1A0.000Z42.572
G1X16.685Z41.380
G1X15.702Z40.717
G1A8.239Z40.636
G1A12.634Z40.522
G1A19.115Z40.303
G1A22.630Z40.252
G1A28.013Z40.327
G1A31.089Z40.312
G1A32.847Z40.230
G1A35.264Z40.014
G1A37.681Z39.705
G1A42.624Z39.380
G1A312.432
G1A319.683Z39.476
G1A323.088Z39.929
G1A325.395Z40.164
G1A327.373Z40.314
G1A329.350Z40.388
G1A333.634Z40.391
G1A338.248Z40.315
G1A341.544Z40.395
G1A348.465Z40.643
G1A352.310Z40.707
G1A360.000Z40.717
G1X14.006Z39.502
G1X12.845Z39.380
G1A0.000
G1X9.987
G1A360.000
G1X7.130
G1A0.000
G1X4.272
G1A360.000
G1X1.429
G1A0.000
G1X0.000
G1A360.000
G0Z49.200
G0X110.000
G1Z37.475F1100.0
G1A0.000F2190.0
G1X107.142
G1A360.000
G1X104.285
G1A0.000
G1X101.427
G1A360.000
G1X98.570
G1A0.000
G1X95.712
G1A360.000
G1X92.855
G1A0.000
G1X89.997
G1A360.000
G1X87.140
G1A0.000
G1X84.282
G1A360.000
G1X81.425
G1A0.000
G1X78.567
G1A360.000
G1X75.710
G1A232.237
G1A231.358Z37.576
G1A230.479Z37.664
G1A229.161Z37.704
G1A223.448Z37.697
G1A222.130Z37.632
G1A221.251Z37.534
G1A219.933Z37.475
G1A190.601
G1A190.491Z37.477
G1A190.272Z37.598
G1A190.052Z37.632
G1A189.832Z37.768
G1A189.722Z37.799
G1A189.503Z37.890
G1A189.393
G1A188.953Z38.062
G1A188.734Z38.096
G1A188.514Z38.174
G1A188.404
G1A188.184Z38.279
G1A187.965Z38.308
G1A187.855Z38.377
G1A187.305Z38.514
G1A187.086Z38.526
G1A186.866Z38.589
G1A186.536Z38.623
G1A186.097Z38.724
G1A185.658Z38.755
G1A185.218Z38.857
G1A184.559Z38.876
G1A184.229Z38.965
G1A183.900Z38.998
G1A183.131Z38.995
G1A182.911Z38.960
G1A182.691Z38.861
G1A182.362Z38.777
G1A182.252Z38.683
G1A182.142Z37.475
G1A178.187
G1A178.078Z38.850
G1A177.858Z39.022
G1A177.748Z39.106
G1A177.528Z39.150
G1A177.418Z39.160
G1A177.309Z39.256
G1A177.199Z39.313
G1A176.979Z39.356
G1A176.430Z39.361
G1A175.990Z39.261
G1A175.661Z39.160
G1A175.111Z39.151
G1A174.782Z39.075
G1A174.562Z39.001
G1A174.342
G1A174.013Z38.944
G1A173.793Z38.871
G1A173.464Z38.824
G1A173.244Z38.753
G1A172.914Z38.709
G1A172.695Z38.633
G1A172.585Z38.621
G1A172.365Z38.528
G1A172.255Z38.518
G1A171.926Z38.409
G1A171.816Z38.394
G1A171.706Z38.357
G1A171.596Z38.294
G1A171.486
G1A171.376Z38.252
G1A171.266Z38.181
G1A170.937Z38.041
G1A170.717Z37.982
G1A170.388Z37.847
G1A170.168Z37.811
G1A169.619Z37.631
G1A168.959Z37.475
G1A139.408
G1A138.309Z37.512
G1A137.101Z37.591
G1A135.233Z37.620
G1A130.510Z37.609
G1A129.411Z37.554
G1A128.642Z37.475
G1A127.653Z37.475
G1A0.000
G1X72.852
G1A125.566
G1A126.335Z37.485
G1A127.104Z37.591
G1A127.873Z37.620
G1A139.628Z37.613
G1A140.507Z37.543
G1A141.385Z37.475
G1A167.092
G1A167.641Z37.701
G1A167.751Z37.736
G1A168.300Z38.040
G1A168.740Z38.357
G1A168.850Z38.394
G1A169.289Z38.679
G1A169.399Z38.709
G1A169.728Z38.871
G1A169.948Z38.974
G1A170.388Z39.218
G1A171.157Z39.674
G1A172.585Z40.318
G1A173.354Z40.615
G1A174.123Z40.819
G1A174.452Z40.879
G1A176.979Z40.890
G1A185.108Z40.883
G1A185.658Z40.816
G1A185.987Z40.728
G1A186.646Z40.492
G1A186.976Z40.344
G1A187.525Z40.129
G1A187.855Z39.966
G1A188.514Z39.717
G1A188.953Z39.443
G1A189.393Z39.190
G1A190.162Z38.796
G1A190.601Z38.619
G1A191.041Z38.461
G1A191.480Z38.190
G1A191.700Z38.096
G1A192.029Z37.894
G1A192.249Z37.799
G1A192.688Z37.495
G1A193.018Z37.475
G1A218.175
G1A219.054Z37.560
G1A219.933Z37.670
G1A220.702Z37.706
G1A232.676Z37.698
G1A233.335Z37.637
G1A233.995Z37.514
G1A234.654Z37.475
G1A360.000
G1X69.995
G1A234.873
G1A233.995Z37.593
G1A233.226Z37.687
G1A232.237Z37.706
G1A220.043Z37.700
G1A219.164Z37.618
G1A218.395Z37.484
G1A217.626Z37.475
G1A193.128
G1A192.359Z37.814
G1A191.480Z38.470
G1A190.931Z38.810
G1A189.942Z39.585
G1A189.612Z39.787
G1A188.624Z40.258
G1A187.635Z40.640
G1A186.866Z40.826
G1A186.317Z40.882
G1A173.573Z40.886
G1A173.024Z40.818
G1A172.585Z40.735
G1A172.035Z40.541
G1A170.827Z40.007
G1A170.278Z39.665
G1A169.179Z38.838
G1A168.740Z38.545
G1A167.751Z37.763
G1A167.092Z37.475
G1A141.935
G1A141.166Z37.500
G1A140.287Z37.597
G1A139.408Z37.620
G1A126.994Z37.611
G1A126.225Z37.521
G1A125.017Z37.475
G1A0.000
G1X67.137
G1A124.577
G1A127.653Z37.559
G1A128.752Z37.617
G1A132.487Z37.623
G1A133.915Z37.855
G1A135.453Z38.111
G1A137.101Z38.367
G1A138.090Z38.498
G1A138.749Z38.570
G1A139.188Z38.586
G1A139.628Z38.635
G1A140.946Z38.633
G1A141.385Z38.575
G1A141.825Z38.548
G1A142.484Z38.412
G1A143.143Z38.218
G1A144.132Z37.730
G1A144.461Z37.481
G1A144.681Z37.475
G1A166.103
G1A166.762Z37.524
G1A167.861Z38.145
G1A168.081Z38.292
G1A168.520Z38.670
G1A168.630Z38.810
G1A168.959Z39.575
G1A169.289Z40.185
G1A169.509Z40.496
G1A169.838Z41.152
G1A170.058Z41.420
G1A170.497Z41.844
G1A170.717Z41.969
G1A171.047Z42.137
G1A171.376Z42.245
G1A171.706Z42.300
G1A172.255Z42.435
G1A172.695Z42.458
G1A173.793Z42.448
G1A174.342Z42.381
G1A174.782Z42.290
G1A175.331Z42.201
G1A176.100Z42.004
G1A176.979Z41.734
G1A179.176Z40.985
G1A179.506Z40.890
G1A180.494
G1A180.714Z40.944
G1A183.570Z41.906
G1A184.669Z42.208
G1A185.218Z42.307
G1A186.097Z42.455
G1A186.646Z42.484
G1A187.745Z42.476
G1A188.074Z42.431
G1A188.404Z42.330
G1A188.734Z42.283
G1A189.063Z42.175
G1A189.503Z41.951
G1A190.052Z41.490
G1A190.272Z41.209
G1A190.601Z40.573
G1A190.821Z40.227
G1A191.260Z39.319
G1A191.370Z39.040
G1A191.480Z38.824
G1A191.700Z38.623
G1A192.139Z38.271
G1A192.579Z38.008
G1A194.007Z37.475
G1A215.429
G1A215.758Z37.666
G1A216.088Z37.896
G1A216.857Z38.284
G1A217.186Z38.405
G1A217.955Z38.603
G1A218.505Z38.693
G1A218.944Z38.722
G1A219.384Z38.767
G1A220.702Z38.763
G1A221.361Z38.707
G1A221.910Z38.673
G1A223.998Z38.413
G1A226.964Z37.987
G1A229.051Z37.707
G1A231.578Z37.697
G1A232.676Z37.616
G1A235.313Z37.475
G1A360.000
G1X64.280
G1A231.578
G1A229.820Z37.865
G1A228.392Z38.210
G1A227.293Z38.527
G1A225.316Z39.180
G1A223.119Z39.827
G1A221.581Z40.159
G1A220.262Z40.387
G1A219.054Z40.572
G1A217.406Z40.788
G1A216.637Z40.820
G1A214.330Z40.813
G1A213.781Z40.769
G1A213.451Z40.683
G1A212.682Z40.311
G1A212.463Z40.119
G1A212.133Z39.653
G1A211.913Z39.227
G1A211.803Z38.771
G1A211.694Z37.475
G1A196.973
G1A196.753Z37.684
G1A196.643Z42.880
G1A196.533Z43.050
G1A196.314Z43.264
G1A195.874Z43.569
G1A195.325Z43.852
G1A194.776Z44.045
G1A194.007Z44.227
G1A192.908Z44.403
G1A191.480Z44.516
G1A190.162Z44.534
G1A188.074Z44.523
G1A186.536Z44.447
G1A184.779Z44.300
G1A183.570Z44.142
G1A182.582Z43.958
G1A181.483Z43.664
G1A180.275Z43.253
G1A180.055Z43.171
G1A178.627Z43.650
G1A177.638Z43.914
G1A176.759Z44.085
G1A175.441Z44.271
G1A173.244Z44.459
G1A171.596Z44.521
G1A168.959Z44.513
G1A167.421Z44.412
G1A166.323Z44.255
G1A165.554Z44.088
G1A164.895Z43.882
G1A164.236Z43.613
G1A163.906Z43.435
G1A163.576Z43.194
G1A163.467Z43.101
G1A163.357Z42.976
G1A163.247Z37.631
G1A163.027Z37.475
G1A148.416
G1A148.306Z39.141
G1A148.087Z39.623
G1A147.757Z40.111
G1A147.537Z40.302
G1A146.878Z40.634
G1A146.549Z40.748
G1A146.109Z40.826
G1A145.340Z40.849
G1A143.143Z40.838
G1A142.484Z40.764
G1A141.166Z40.568
G1A139.078Z40.196
G1A138.200Z40.020
G1A136.991Z39.733
G1A135.124Z39.125
G1A134.464Z38.883
G1A133.366Z38.460
G1A132.487Z38.143
G1A130.510Z37.552
G1A130.180Z37.475
G1A0.000
G1X61.422
G1A130.290
G1A131.498Z37.946
G1A131.718Z38.090
G1A132.487Z38.650
G1A133.366Z39.198
G1A134.025Z39.541
G1A134.904Z39.911
G1A136.332Z40.378
G1A137.760Z40.848
G1A138.859Z41.237
G1A139.518Z41.455
G1A139.957Z41.596
G1A140.507Z41.773
G1A141.935Z42.146
G1A142.704Z42.300
G1A143.583Z42.462
G1A144.571Z42.611
G1A146.768Z42.876
G1A148.636Z43.087
G1A151.602Z43.547
G1A153.250Z43.715
G1A154.678Z43.805
G1A156.655Z43.827
G1A158.962Z43.827
G1A161.819Z44.414
G1A162.807Z44.568
G1A163.906Z44.664
G1A165.554Z44.679
G1A174.013Z44.668
G1A175.990Z44.580
G1A177.199Z44.474
G1A178.407Z44.302
G1A179.615Z44.065
G1A179.945Z43.986
G1A180.055Z43.975
G1A181.153Z44.221
G1A182.472Z44.435
G1A184.010Z44.598
G1A185.108Z44.657
G1A187.305Z44.700
G1A196.094Z44.691
G1A197.083Z44.615
G1A198.181Z44.459
G1A201.257Z43.827
G1A204.992Z43.820
G1A206.421Z43.756
G1A208.068Z43.607
G1A209.606Z43.403
G1A211.364Z43.149
G1A214.550Z42.813
G1A216.417Z42.550
G1A217.296Z42.381
G1A217.955Z42.256
G1A219.274Z41.909
G1A220.372Z41.554
G1A221.691Z41.106
G1A223.558Z40.500
G1A225.096Z40.046
G1A225.755Z39.807
G1A227.074Z39.207
G1A229.051Z38.202
G1A229.820Z37.905
G1A231.028Z37.490
G1A231.688Z37.475
G1A360.000
G1X60.976
G1X60.172Z37.575
G1X58.744Z39.355
G1X58.565Z39.567
G1A355.825Z39.528
G1A352.420Z39.409
G1A351.211Z39.376
G1A350.003Z39.457
G1A347.366Z39.753
G1A346.048Z39.830
G1A343.302Z39.840
G1A340.336Z39.775
G1A337.150Z39.671
G1A335.392Z39.552
G1A333.525Z39.391
G1A332.096Z39.219
G1A331.218Z39.063
G1A329.570Z38.676
G1A328.691Z38.360
G1A328.032Z38.085
G1A327.482Z37.790
G1A326.823Z37.475
G1A317.925
G1A316.826Z37.493
G1A315.398Z37.634
G1A314.190Z37.670
G1A312.103Z37.657
G1A309.686Z37.515
G1A307.269Z37.475
G1A230.369
G1A229.600Z37.544
G1A228.392Z38.548
G1A227.623Z39.086
G1A226.854Z39.516
G1A226.085Z39.883
G1A225.096Z40.242
G1A224.107Z40.579
G1A223.119Z40.973
G1A221.691Z41.603
G1A221.141Z41.836
G1A220.702Z42.039
G1A219.823Z42.356
G1A218.724Z42.693
G1A217.626Z42.952
G1A213.781Z43.689
G1A211.584Z44.064
G1A210.375Z44.225
G1A208.618Z44.392
G1A206.421Z44.533
G1A203.894Z44.630
G1A201.807Z44.650
G1A199.829Z44.625
G1A199.280Z44.608
G1A197.962Z44.694
G1A189.942Z44.709
G1A185.328Z44.930
G1A182.142Z45.009
G1A177.748Z45.010
G1A174.562Z44.930
G1A169.069Z44.679
G1A162.038Z44.672
G1A160.830Z44.601
G1A158.743Z44.648
G1A156.436Z44.635
G1A154.019Z44.553
G1A151.822Z44.414
G1A150.284Z44.269
G1A148.856Z44.088
G1A146.878Z43.740
G1A142.154Z42.792
G1A141.166Z42.545
G1A140.067Z42.207
G1A139.408Z41.983
G1A136.771Z40.779
G1A135.453Z40.280
G1A134.464Z39.904
G1A133.695Z39.559
G1A133.036Z39.175
G1A132.487Z38.784
G1A131.938Z38.309
G1A131.498Z37.875
G1A131.059Z37.475
G1A33.726
G1A33.177Z37.737
G1A32.627Z38.128
G1A31.858Z38.582
G1A31.089Z38.935
G1A30.320Z39.222
G1A27.684Z40.020
G1A26.366Z40.423
G1A25.377Z40.676
G1A24.059Z40.900
G1A23.399Z40.963
G1A22.301Z40.987
G1A20.873Z40.977
G1A19.664Z40.888
G1A16.039Z40.496
G1A10.766Z39.857
G1A9.008Z39.709
G1A6.921Z39.621
G1A3.625Z39.585
G1A0.000Z39.567
G1X57.047Z41.298
G1X55.707Z42.730
G1A6.262Z42.733
G1A9.448Z42.808
G1A14.940Z43.012
G1A21.092Z43.163
G1A22.521Z43.150
G1A24.168Z43.053
G1A25.377Z42.910
G1A26.366Z42.754
G1A28.123Z42.374
G1A30.870Z41.613
G1A32.957Z41.087
G1A33.836Z40.799
G1A34.495Z40.523
G1A35.264Z40.143
G1A36.143Z39.613
G1A37.241Z38.879
G1A37.571Z38.687
G1A37.681Z38.641
G1A38.779Z38.698
G1A40.977Z38.807
G1A43.064Z38.811
G1A45.151Z38.721
G1A46.909Z38.571
G1A48.666Z38.364
G1A54.709Z37.514
G1A58.004Z37.475
G1A132.267
G1A132.487Z37.814
G1A132.817Z38.199
G1A133.256Z38.617
G1A133.695Z38.956
G1A134.355Z39.359
G1A135.233Z39.785
G1A137.211Z40.632
G1A138.200Z41.165
G1A139.628Z42.041
G1A140.177Z42.296
G1A141.385Z42.760
G1A142.814Z43.213
G1A144.022Z43.525
G1A146.109Z43.984
G1A147.757Z44.276
G1A149.405Z44.501
G1A151.492Z44.706
G1A154.239Z44.877
G1A160.500Z45.112
G1A163.357Z45.330
G1A171.266Z45.946
G1A174.342Z46.116
G1A177.748Z46.229
G1A180.934Z46.243
G1A183.680Z46.187
G1A187.305Z46.031
G1A190.821Z45.795
G1A199.170Z45.145
G1A202.246Z45.005
G1A206.530Z44.819
G1A208.947Z44.660
G1A211.254Z44.431
G1A212.902Z44.210
G1A214.770Z43.873
G1A216.747Z43.452
G1A218.175Z43.072
G1A219.384Z42.654
G1A219.823Z42.455
G1A220.262Z42.221
G1A220.702Z41.968
G1A221.581Z41.418
G1A222.460Z40.915
G1A223.119Z40.591
G1A223.888Z40.279
G1A225.206Z39.754
G1A225.975Z39.378
G1A226.744Z38.918
G1A227.403Z38.437
G1A227.952Z37.947
G1A228.392Z37.475
G1A301.446
G1A310.894Z38.703
G1A313.311Z38.932
G1A314.959Z39.029
G1A316.936Z39.086
G1A319.024Z39.067
G1A322.209Z38.921
G1A322.539Z38.941
G1A322.649Z38.962
G1A324.736Z39.982
G1A325.615Z40.339
G1A326.604Z40.656
G1A328.251Z41.064
G1A329.680Z41.347
G1A333.085Z41.867
G1A335.941Z42.263
G1A338.248Z42.517
G1A341.544Z42.766
G1A343.741Z42.862
G1A346.378Z42.882
G1A349.344Z42.834
G1A353.958Z42.720
G1A358.023Z42.722
G1A360.000Z42.730
G1X54.814Z43.642
G1X54.725Z43.642
G1X53.296Z45.025
G1X52.850Z45.432
G1A356.155Z45.412
G1A350.442Z45.266
G1A347.696Z45.125
G1A344.620Z44.883
G1A341.874Z44.605
G1A339.347Z44.250
G1A337.260Z43.893
G1A333.525Z43.138
G1A330.778Z42.593
G1A328.911Z42.314
G1A326.823Z41.993
G1A325.285Z41.676
G1A323.857Z41.305
G1A321.990Z40.778
G1A320.781Z40.530
G1A319.463Z40.339
G1A316.826Z40.080
G1A312.652Z39.698
G1A310.125Z39.400
G1A307.818Z39.071
G1A303.534Z38.415
G1A299.469Z37.827
G1A297.711Z37.515
G1A296.173Z37.475
G1A224.657
G1A224.547Z37.647
G1A224.437Z37.836
G1A224.217Z38.060
G1A223.778Z38.388
G1A223.119Z38.771
G1A222.350Z39.140
G1A221.581Z39.476
G1A220.702Z39.849
G1A220.372Z40.084
G1A220.043Z40.437
G1A219.933Z40.671
G1A219.713Z41.307
G1A219.493Z41.770
G1A219.274Z42.088
G1A218.944Z42.419
G1A218.615Z42.657
G1A218.065Z42.958
G1A217.406Z43.236
G1A216.637Z43.481
G1A214.879Z43.904
G1A213.232Z44.229
G1A210.925Z44.590
G1A209.277Z44.775
G1A205.322Z45.105
G1A201.587Z45.482
G1A192.688Z46.485
G1A189.283Z46.789
G1A185.987Z47.008
G1A183.021Z47.127
G1A180.275Z47.153
G1A177.199Z47.134
G1A174.452Z47.032
G1A171.376Z46.837
G1A167.751Z46.531
G1A164.236Z46.143
G1A159.402Z45.579
G1A153.030Z44.997
G1A150.394Z44.765
G1A149.075Z44.599
G1A146.878Z44.195
G1A144.901Z43.768
G1A143.473Z43.405
G1A142.594Z43.115
G1A142.045Z42.877
G1A141.495Z42.568
G1A141.166Z42.320
G1A140.946Z42.107
G1A140.616Z41.665
G1A140.507Z41.481
G1A140.397Z41.246
G1A140.067Z40.365
G1A139.847Z40.109
G1A139.518Z39.849
G1A139.298Z39.719
G1A137.760Z38.993
G1A137.101Z38.609
G1A136.771Z38.388
G1A136.552Z38.220
G1A136.332Z37.997
G1A136.222Z37.827
G1A136.112Z37.475
G1A60.311
G1A54.599Z38.198
G1A49.765Z39.034
G1A47.458Z39.347
G1A44.712Z39.644
G1A41.416Z39.981
G1A40.208Z40.154
G1A39.219Z40.366
G1A38.450Z40.599
G1A35.923Z41.583
G1A34.825Z41.941
G1A33.726Z42.218
G1A31.858Z42.586
G1A30.650Z42.831
G1A28.343Z43.437
G1A27.025Z43.738
G1A25.597Z43.992
G1A24.059Z44.221
G1A21.202Z44.535
G1A18.016Z44.772
G1A14.391Z44.967
G1A6.591Z45.301
G1A2.197Z45.421
G1A0.000Z45.432
G1X51.778Z46.354
G1X50.885Z47.031
G1X50.260Z47.429
G1X49.992Z47.573
G1A1.977Z47.547
G1A3.955Z47.447
G1A6.482Z47.252
G1A9.887Z46.880
G1A15.929Z46.200
G1A19.225Z45.831
G1A21.971Z45.459
G1A24.498Z45.028
G1A27.135Z44.479
G1A29.332Z43.937
G1A30.650Z43.611
G1A34.275Z42.939
G1A36.033Z42.555
G1A37.901Z42.059
G1A40.098Z41.451
G1A42.075Z40.971
G1A44.272Z40.530
G1A49.106Z39.667
G1A52.182Z39.112
G1A56.356Z38.319
G1A61.849Z37.475
G1A134.904
G1A136.552Z37.996
G1A138.309Z39.591
G1A139.298Z40.432
G1A140.177Z41.108
G1A141.056Z41.680
G1A141.495Z41.948
G1A142.154Z42.401
G1A142.814Z42.756
G1A143.692Z43.143
G1A144.901Z43.570
G1A146.329Z43.995
G1A147.757Z44.344
G1A149.185Z44.621
G1A151.492Z45.011
G1A154.129Z45.399
G1A157.864Z45.889
G1A161.599Z46.401
G1A167.531Z47.099
G1A170.607Z47.389
G1A174.013Z47.615
G1A177.199Z47.744
G1A179.725Z47.775
G1A182.252Z47.756
G1A184.779Z47.672
G1A187.415Z47.526
G1A190.052Z47.321
G1A193.457Z46.975
G1A199.500Z46.266
G1A202.026Z45.909
G1A209.606Z44.767
G1A211.144Z44.538
G1A212.572Z44.257
G1A214.110Z43.873
G1A215.429Z43.493
G1A216.417Z43.142
G1A217.186Z42.794
G1A217.955Z42.355
G1A218.724Z41.843
G1A219.823Z41.019
G1A220.482Z40.438
G1A221.581Z39.343
G1A223.009Z37.844
G1A223.888Z37.475
G1A295.075
G1A296.723Z37.694
G1A298.810Z38.064
G1A304.193Z38.905
G1A309.796Z39.845
G1A318.584Z41.234
G1A320.781Z41.639
G1A324.956Z42.491
G1A327.043Z42.839
G1A329.789Z43.207
G1A331.218Z43.406
G1A332.316Z43.670
G1A336.381Z44.774
G1A338.139Z45.209
G1A340.226Z45.636
G1A342.862Z46.058
G1A345.828Z46.456
G1A351.541Z47.152
G1A353.628Z47.346
G1A356.375Z47.516
G1A358.462Z47.571
G1A360.000Z47.573
G1X49.457Z47.807
G1X48.921Z47.963
G1X48.385Z48.047
G1X47.671Z48.072
G1X47.135
G1A355.166Z48.060
G1A353.079Z47.983
G1A350.552Z47.798
G1A347.806Z47.502
G1A343.961Z47.016
G1A341.215Z46.600
G1A338.798Z46.145
G1A337.040Z45.710
G1A335.612Z45.292
G1A332.756Z44.384
G1A332.096Z44.214
G1A330.778Z44.006
G1A326.933Z43.459
G1A324.187Z42.978
G1A316.826Z41.597
G1A312.103Z40.671
G1A305.182Z39.261
G1A301.556Z38.575
G1A297.162Z37.845
G1A295.185Z37.475
G1A225.316
G1A224.327Z37.926
G1A222.130Z39.674
G1A221.031Z40.443
G1A220.043Z41.062
G1A218.944Z41.651
G1A217.516Z42.333
G1A215.868Z43.016
G1A214.220Z43.619
G1A212.463Z44.199
G1A210.815Z44.669
G1A209.387Z45.013
G1A207.849Z45.314
G1A200.269Z46.520
G1A197.742Z46.861
G1A194.886Z47.178
G1A190.601Z47.625
G1A187.855Z47.841
G1A184.998Z47.983
G1A182.142Z48.046
G1A178.187Z48.050
G1A175.221Z47.994
G1A172.585Z47.879
G1A170.168Z47.717
G1A167.202Z47.432
G1A163.027Z46.976
G1A160.391Z46.619
G1A156.216Z45.982
G1A152.371Z45.457
G1A150.613Z45.146
G1A149.075Z44.802
G1A147.537Z44.377
G1A145.999Z43.869
G1A144.132Z43.161
G1A142.154Z42.325
G1A140.507Z41.553
G1A139.188Z40.859
G1A137.760Z40.010
G1A136.002Z38.835
G1A132.926Z37.475
G1A62.399
G1A57.894Z38.197
G1A55.258Z38.732
G1A48.666Z40.208
G1A44.052Z41.283
G1A38.120Z42.720
G1A34.825Z43.445
G1A29.771Z44.440
G1A27.574Z44.956
G1A24.828Z45.591
G1A23.180Z45.923
G1A21.092Z46.278
G1A18.126Z46.686
G1A11.205Z47.547
G1A8.569Z47.820
G1A6.152Z47.991
G1A4.175Z48.060
G1A0.000Z48.072
G1X44.277
G1A6.701Z48.062
G1A8.789Z47.979
G1A11.205Z47.796
G1A14.281Z47.482
G1A19.445Z46.847
G1A22.521Z46.423
G1A24.278Z46.116
G1A26.256Z45.690
G1A28.013Z45.296
G1A32.737Z44.340
G1A40.427Z42.645
G1A43.613Z41.864
G1A50.864Z40.005
G1A54.489Z39.148
G1A57.345Z38.526
G1A65.035Z37.475
G1A129.411
G1A132.377Z37.743
G1A135.673Z39.529
G1A137.431Z40.395
G1A139.738Z41.430
G1A143.692Z43.093
G1A145.890Z43.955
G1A147.428Z44.492
G1A148.856Z44.912
G1A150.394Z45.273
G1A152.042Z45.576
G1A160.391Z46.807
G1A163.027Z47.191
G1A165.334Z47.449
G1A169.399Z47.838
G1A171.926Z48.000
G1A174.013Z48.066
G1A185.877Z48.063
G1A188.074Z47.980
G1A190.601Z47.806
G1A196.643Z47.193
G1A199.280Z46.839
G1A203.894Z46.144
G1A208.398Z45.383
G1A209.936Z45.056
G1A211.364Z44.680
G1A212.682Z44.261
G1A214.660Z43.533
G1A217.955Z42.207
G1A220.702Z41.026
G1A222.460Z40.187
G1A223.778Z39.496
G1A227.074Z37.662
G1A228.831Z37.475
G1A292.218
G1A295.294Z37.540
G1A300.897Z38.616
G1A303.973Z39.210
G1A307.818Z40.021
G1A315.288Z41.707
G1A319.683Z42.594
G1A327.043Z43.956
G1A332.206Z44.796
G1A333.634Z45.104
G1A336.710Z46.044
G1A338.248Z46.422
G1A339.896Z46.747
G1A342.313Z47.128
G1A345.169Z47.489
G1A348.355Z47.813
G1A350.662Z47.985
G1A352.640Z48.061
G1A360.000Z48.072
G1X41.420
G1A352.530Z48.061
G1A350.552Z47.989
G1A348.136Z47.817
G1A344.840Z47.505
G1A342.203Z47.186
G1A339.896Z46.834
G1A337.260Z46.338
G1A335.172Z45.859
G1A332.975Z45.362
G1A330.558Z44.909
G1A325.505Z44.005
G1A320.122Z42.989
G1A317.376Z42.405
G1A309.576Z40.563
G1A306.720Z39.964
G1A304.303Z39.525
G1A301.776Z39.136
G1A296.613Z38.397
G1A293.976Z37.952
G1A291.889Z37.532
G1A290.351Z37.475
G1A230.040
G1A226.085Z39.094
G1A223.668Z40.136
G1A219.274Z41.872
G1A214.660Z43.614
G1A212.353Z44.406
G1A210.925Z44.830
G1A209.387Z45.198
G1A207.299Z45.609
G1A202.685Z46.407
G1A199.280Z46.877
G1A196.094Z47.302
G1A192.249Z47.692
G1A189.942Z47.907
G1A187.855Z48.034
G1A186.097Z48.073
G1A172.695Z48.062
G1A170.717Z47.980
G1A168.520Z47.810
G1A164.126Z47.365
G1A161.269Z46.971
G1A157.095Z46.370
G1A151.382Z45.464
G1A149.844Z45.154
G1A148.416Z44.796
G1A146.988Z44.359
G1A144.681Z43.538
G1A141.166Z42.188
G1A136.442Z40.323
G1A133.695Z39.168
G1A131.718Z38.270
G1A130.070Z37.475
G1A68.001
G1A65.694Z37.589
G1A63.277Z38.016
G1A57.125Z38.953
G1A54.928Z39.338
G1A52.621Z39.803
G1A50.095Z40.392
G1A46.469Z41.338
G1A41.526Z42.651
G1A38.230Z43.438
G1A31.968Z44.844
G1A28.892Z45.467
G1A24.498Z46.307
G1A22.740Z46.564
G1A14.721Z47.491
G1A11.645Z47.782
G1A8.898Z47.981
G1A6.811Z48.060
G1A1.099Z48.072
G1A0.000
G1X38.562
G1A4.724Z48.060
G1A7.141Z47.976
G1A10.327Z47.774
G1A14.281Z47.433
G1A20.653Z46.773
G1A23.619Z46.475
G1A25.377Z46.219
G1A29.881Z45.444
G1A33.177Z44.768
G1A37.351Z43.822
G1A40.208Z43.112
G1A44.382Z41.955
G1A47.897Z40.993
G1A49.985Z40.492
G1A52.511Z39.970
G1A54.928Z39.562
G1A58.114Z39.118
G1A64.486Z38.332
G1A66.683Z37.992
G1A68.551Z37.632
G1A70.308Z37.475
G1A127.543
G1A131.279Z38.567
G1A133.366Z39.384
G1A138.309Z41.181
G1A142.154Z42.591
G1A144.791Z43.563
G1A146.549Z44.134
G1A148.416Z44.645
G1A150.394Z45.098
G1A154.019Z45.796
G1A156.985Z46.309
G1A160.940Z46.883
G1A165.005Z47.408
G1A169.728Z47.879
G1A171.816Z48.015
G1A173.793Z48.070
G1A186.207Z48.063
G1A188.184Z47.984
G1A190.272Z47.825
G1A193.677Z47.479
G1A195.984Z47.230
G1A201.587Z46.509
G1A203.894Z46.134
G1A208.398Z45.279
G1A210.485Z44.818
G1A212.572Z44.269
G1A214.440Z43.691
G1A218.944Z42.127
G1A224.327Z40.176
G1A227.403Z39.002
G1A231.028Z37.521
G1A234.654Z37.475
G1A287.824
G1A289.362Z37.522
G1A290.900Z37.890
G1A292.768Z38.247
G1A294.965Z38.582
G1A298.700Z39.036
G1A303.753Z39.632
G1A306.390Z40.012
G1A308.917Z40.449
G1A310.784Z40.847
G1A314.300Z41.706
G1A319.133Z42.935
G1A321.440Z43.451
G1A324.406Z44.012
G1A334.403Z45.790
G1A338.029Z46.484
G1A341.105Z46.957
G1A343.631Z47.286
G1A346.598Z47.589
G1A350.003Z47.853
G1A352.749Z48.006
G1A355.056Z48.066
G1A360.000Z48.072
G1X37.134Z48.060
G1X36.062Z47.956
G1X35.705Z47.908
G1A356.924Z47.891
G1A353.738Z47.788
G1A350.333Z47.610
G1A347.147Z47.376
G1A343.631Z47.026
G1A339.017Z46.452
G1A336.051Z46.012
G1A330.558Z45.107
G1A326.164Z44.357
G1A323.308Z43.863
G1A321.001Z43.383
G1A318.145Z42.692
G1A313.091Z41.353
G1A310.894Z40.842
G1A308.697Z40.409
G1A306.720Z40.104
G1A303.424Z39.696
G1A294.086Z38.684
G1A291.999Z38.395
G1A290.351Z38.098
G1A288.813Z37.747
G1A287.165Z37.475
G1A232.457
G1A227.074Z39.333
G1A221.251Z41.345
G1A217.296Z42.680
G1A214.440Z43.553
G1A212.353Z44.112
G1A209.936Z44.688
G1A205.871Z45.528
G1A202.795Z46.093
G1A200.928Z46.385
G1A195.435Z47.077
G1A192.359Z47.405
G1A188.514Z47.793
G1A185.987Z47.967
G1A183.790Z48.043
G1A180.165Z48.071
G1A175.771Z48.048
G1A173.464Z47.975
G1A171.047Z47.820
G1A168.630Z47.576
G1A165.334Z47.233
G1A160.391Z46.602
G1A157.424Z46.163
G1A155.117Z45.760
G1A151.163Z44.939
G1A148.087Z44.263
G1A146.109Z43.751
G1A144.022Z43.146
G1A141.935Z42.454
G1A134.464Z39.849
G1A129.081Z38.002
G1A117.327Z37.475
G1A72.725
G1A70.967Z37.478
G1A69.210Z37.864
G1A67.342Z38.198
G1A65.255Z38.488
G1A57.235Z39.403
G1A53.830Z39.853
G1A51.193Z40.272
G1A49.435Z40.613
G1A47.238Z41.123
G1A44.931Z41.741
G1A39.988Z43.170
G1A37.461Z43.834
G1A34.715Z44.467
G1A31.749Z45.072
G1A28.673Z45.623
G1A24.278Z46.266
G1A21.971Z46.519
G1A16.369Z46.976
G1A11.645Z47.401
G1A7.800Z47.660
G1A4.175Z47.829
G1A1.208Z47.905
G1A0.000Z47.908
G1X33.205Z47.505
G1X32.847Z47.442
G1A2.856Z47.413
G1A6.701Z47.286
G1A9.887Z47.122
G1A12.963Z46.900
G1A16.588Z46.601
G1A20.543Z46.345
G1A22.630Z46.157
G1A26.036Z45.769
G1A28.563Z45.417
G1A31.199Z44.991
G1A33.616Z44.558
G1A36.033Z44.050
G1A38.340Z43.493
G1A40.317Z42.937
G1A44.052Z41.832
G1A46.250Z41.254
G1A48.337Z40.787
G1A50.534Z40.377
G1A53.171Z39.968
G1A57.125Z39.459
G1A62.069Z38.899
G1A66.024Z38.456
G1A68.001Z38.177
G1A69.979Z37.824
G1A71.736Z37.475
G1A124.907
G1A129.521Z38.208
G1A139.628Z41.514
G1A142.484Z42.387
G1A145.560Z43.225
G1A148.416Z43.929
G1A152.591Z44.836
G1A155.777Z45.478
G1A157.974Z45.862
G1A161.160Z46.319
G1A166.103Z46.929
G1A172.365Z47.586
G1A174.452Z47.742
G1A176.649Z47.843
G1A178.737Z47.874
G1A181.483Z47.861
G1A183.900Z47.777
G1A186.646Z47.590
G1A189.503Z47.309
G1A194.666Z46.768
G1A199.060Z46.239
G1A202.246Z45.789
G1A204.443Z45.405
G1A209.496Z44.403
G1A212.243Z43.798
G1A215.648Z42.931
G1A218.395Z42.153
G1A222.240Z40.956
G1A226.524Z39.537
G1A231.797Z37.766
G1A239.158Z37.475
G1A285.298
G1A287.714Z37.529
G1A289.472Z37.968
G1A291.010Z38.273
G1A292.987Z38.570
G1A295.844Z38.898
G1A303.314Z39.687
G1A306.720Z40.102
G1A309.136Z40.462
G1A311.334Z40.863
G1A313.421Z41.318
G1A315.728Z41.904
G1A319.792Z43.024
G1A321.770Z43.486
G1A324.077Z43.946
G1A326.933Z44.412
G1A333.964Z45.442
G1A338.688Z46.054
G1A342.533Z46.498
G1A346.378Z46.905
G1A348.904Z47.108
G1A351.761Z47.273
G1A355.166Z47.398
G1A358.023Z47.442
G1A360.000Z47.442
G1X29.990Z46.900
G1A355.935Z46.883
G1A352.749Z46.794
G1A349.893Z46.647
G1A347.476Z46.455
G1A344.730Z46.159
G1A341.654Z45.820
G1A336.271Z45.310
G1A332.206Z44.861
G1A327.592Z44.277
G1A325.285Z43.922
G1A322.978Z43.494
G1A321.001Z43.050
G1A315.618Z41.644
G1A313.311Z41.115
G1A311.004Z40.666
G1A308.477Z40.256
G1A305.401Z39.841
G1A299.579Z39.174
G1A294.196Z38.598
G1A291.889Z38.282
G1A290.131Z37.978
G1A288.044Z37.521
G1A285.737Z37.475
G1A237.400
G1A232.457Z37.531
G1A223.998Z40.209
G1A220.702Z41.186
G1A218.285Z41.850
G1A214.770Z42.723
G1A211.364Z43.498
G1A208.288Z44.115
G1A203.345Z45.005
G1A200.708Z45.421
G1A197.742Z45.815
G1A192.469Z46.369
G1A188.843Z46.742
G1A186.207Z47.021
G1A183.570Z47.225
G1A181.483Z47.319
G1A177.309Z47.324
G1A175.441Z47.244
G1A173.024Z47.051
G1A168.190Z46.521
G1A162.258Z45.876
G1A158.853Z45.402
G1A155.667Z44.865
G1A151.053Z43.972
G1A147.867Z43.286
G1A142.594Z42.021
G1A139.957Z41.324
G1A136.332Z40.255
G1A128.642Z37.899
G1A122.380Z37.475
G1A75.362
G1A70.638Z37.588
G1A68.111Z38.048
G1A65.914Z38.371
G1A61.739Z38.851
G1A56.466Z39.463
G1A52.402Z39.999
G1A49.545Z40.442
G1A47.238Z40.871
G1A45.041Z41.357
G1A42.734Z41.955
G1A38.230Z43.234
G1A36.363Z43.689
G1A33.726Z44.235
G1A31.089Z44.680
G1A28.233Z45.077
G1A24.937Z45.456
G1A22.411Z45.687
G1A19.335Z45.886
G1A16.039Z46.060
G1A11.096Z46.516
G1A8.129Z46.707
G1A4.614Z46.842
G1A1.208Z46.898
G1A0.000Z46.900
G1X28.918Z46.675
G1X28.740Z46.655
G1X27.132Z46.281
G1A2.966Z46.252
G1A5.932Z46.145
G1A9.008Z45.961
G1A12.194Z45.691
G1A16.588Z45.266
G1A18.236Z45.163
G1A22.411Z45.006
G1A25.157Z44.836
G1A28.343Z44.546
G1A30.870Z44.242
G1A33.616Z43.812
G1A35.813Z43.376
G1A37.901Z42.889
G1A43.393Z41.475
G1A45.810Z40.930
G1A48.337Z40.444
G1A51.413Z39.941
G1A56.466Z39.238
G1A62.069Z38.549
G1A65.804Z38.081
G1A68.770Z37.625
G1A75.911Z37.475
G1A124.797
G1A128.422Z37.620
G1A135.893Z39.789
G1A139.847Z40.836
G1A143.473Z41.695
G1A146.768Z42.422
G1A150.174Z43.104
G1A154.788Z43.906
G1A158.084Z44.429
G1A161.269Z44.869
G1A164.016Z45.164
G1A168.081Z45.541
G1A171.706Z45.980
G1A174.013Z46.229
G1A176.430Z46.398
G1A178.078Z46.450
G1A181.153Z46.440
G1A182.911Z46.360
G1A185.438Z46.169
G1A188.074Z45.882
G1A191.260Z45.508
G1A194.226Z45.238
G1A197.193Z44.981
G1A199.719Z44.692
G1A203.784Z44.109
G1A208.727Z43.320
G1A211.474Z42.825
G1A215.209Z42.056
G1A218.944Z41.195
G1A221.581Z40.527
G1A224.986Z39.598
G1A229.820Z38.166
G1A234.983Z37.475
G1A288.923
G1A291.559Z37.867
G1A293.647Z38.190
G1A296.942Z38.597
G1A302.655Z39.261
G1A307.159Z39.849
G1A310.235Z40.311
G1A312.981Z40.803
G1A315.618Z41.355
G1A319.243Z42.220
G1A322.759Z43.061
G1A324.626Z43.436
G1A327.043Z43.830
G1A330.119Z44.223
G1A333.525Z44.551
G1A337.699Z44.860
G1A341.434Z45.103
G1A343.741Z45.322
G1A348.245Z45.802
G1A351.211Z46.033
G1A354.507Z46.200
G1A357.363Z46.273
G1A360.000Z46.281
G1X25.614Z45.866
G1X24.364Z45.454
G1X24.275Z45.422
G1A357.144Z45.405
G1A354.617Z45.307
G1A349.234Z44.976
G1A345.719Z44.696
G1A341.764Z44.356
G1A339.457Z44.243
G1A335.722Z44.104
G1A332.646Z43.913
G1A329.789Z43.646
G1A326.933Z43.283
G1A324.736Z42.920
G1A322.539Z42.504
G1A315.288Z40.922
G1A312.103Z40.303
G1A309.027Z39.778
G1A304.083Z39.036
G1A300.348Z38.537
G1A294.635Z37.812
G1A291.889Z37.475
G1A235.642
G1A226.524Z38.715
G1A222.569Z39.723
G1A219.603Z40.403
G1A215.539Z41.259
G1A212.243Z41.859
G1A209.277Z42.312
G1A206.091Z42.720
G1A200.488Z43.403
G1A197.852Z43.648
G1A193.018Z43.985
G1A190.711Z44.217
G1A186.207Z44.769
G1A183.900Z44.990
G1A182.032Z45.098
G1A180.275Z45.126
G1A177.199Z45.112
G1A175.331Z45.024
G1A173.464Z44.859
G1A171.047Z44.572
G1A167.971Z44.182
G1A165.444Z43.953
G1A161.489Z43.646
G1A158.853Z43.364
G1A150.833Z42.295
G1A147.977Z41.853
G1A144.571Z41.229
G1A139.408Z40.131
G1A136.442Z39.427
G1A133.366Z38.639
G1A125.896Z37.475
G1A70.967
G1A64.376Z37.800
G1A57.785Z38.663
G1A51.852Z39.544
G1A48.447Z40.104
G1A45.371Z40.683
G1A42.405Z41.323
G1A37.022Z42.553
G1A33.726Z43.186
G1A31.639Z43.510
G1A29.551Z43.766
G1A27.354Z43.976
G1A24.608Z44.158
G1A22.191Z44.240
G1A18.895Z44.315
G1A16.918Z44.427
G1A10.986Z44.890
G1A4.504Z45.317
G1A2.087Z45.409
G1A0.000Z45.422
G1X23.114Z44.959
G1X21.864Z44.377
G1X21.417Z44.150
G1A2.307Z44.129
G1A5.163Z44.007
G1A10.986Z43.726
G1A15.050Z43.495
G1A18.126Z43.326
G1A20.653Z43.266
G1A24.608Z43.218
G1A26.805Z43.120
G1A29.332Z42.932
G1A31.529Z42.707
G1A34.385Z42.329
G1A36.582Z41.963
G1A46.579Z40.002
G1A50.864Z39.245
G1A56.027Z38.418
G1A63.717Z37.475
G1A126.884
G1A132.377Z37.770
G1A137.431Z38.937
G1A140.177Z39.508
G1A143.033Z40.025
G1A146.659Z40.585
G1A149.735Z40.954
G1A153.360Z41.286
G1A158.523Z41.738
G1A164.895Z42.143
G1A167.531Z42.385
G1A172.804Z43.012
G1A174.782Z43.184
G1A176.759Z43.279
G1A178.956Z43.301
G1A181.813Z43.286
G1A183.790Z43.200
G1A186.097Z43.015
G1A188.734Z42.718
G1A192.139Z42.319
G1A194.666Z42.098
G1A197.632Z41.927
G1A201.477Z41.731
G1A205.652Z41.401
G1A209.387Z41.087
G1A211.913Z40.811
G1A214.110Z40.520
G1A217.846Z39.915
G1A220.922Z39.324
G1A223.888Z38.670
G1A228.612Z37.553
G1A236.192Z37.475
G1A295.075
G1A305.291Z38.713
G1A310.125Z39.510
G1A314.519Z40.313
G1A322.759Z41.901
G1A324.956Z42.277
G1A327.043Z42.569
G1A329.570Z42.861
G1A332.426Z43.090
G1A334.623Z43.202
G1A337.699Z43.258
G1A340.665Z43.312
G1A343.192Z43.435
G1A348.026Z43.738
G1A356.265Z44.117
G1A358.572Z44.150
G1A360.000
G1X19.899Z43.316
G1X18.739Z42.627
G1X18.649
G1X18.560Z42.572
G1A356.375Z42.554
G1A351.871Z42.425
G1A345.938Z42.185
G1A341.654Z41.999
G1A339.127Z41.958
G1A333.525Z41.976
G1A331.437Z41.934
G1A329.130Z41.798
G1A326.823Z41.596
G1A324.626Z41.346
G1A321.660Z40.916
G1A318.254Z40.347
G1A310.565Z38.985
G1A304.632Z38.014
G1A295.624Z37.475
G1A226.524
G1A222.460Z37.963
G1A219.164Z38.536
G1A216.308Z38.937
G1A213.671Z39.224
G1A211.474Z39.401
G1A208.947Z39.516
G1A201.916Z39.719
G1A197.193Z39.837
G1A194.446Z39.971
G1A191.810Z40.176
G1A186.427Z40.703
G1A183.680Z40.895
G1A181.593Z40.973
G1A178.187Z40.984
G1A176.100Z40.931
G1A173.793Z40.790
G1A171.047Z40.534
G1A167.092Z40.127
G1A164.345Z39.917
G1A161.050Z39.752
G1A152.810Z39.499
G1A149.405Z39.392
G1A147.318Z39.259
G1A144.681Z39.007
G1A142.264Z38.706
G1A139.847Z38.349
G1A136.332Z37.723
G1A133.036Z37.475
G1A64.156
G1A54.379Z38.085
G1A48.666Z39.000
G1A43.503Z39.906
G1A38.999Z40.714
G1A36.363Z41.132
G1A34.275Z41.411
G1A31.968Z41.639
G1A29.332Z41.819
G1A26.805Z41.901
G1A22.630Z41.925
G1A18.566Z41.944
G1A15.600Z42.039
G1A9.558Z42.311
G1A2.417Z42.544
G1A0.000Z42.572
G1X16.685Z41.380
G1X15.702Z40.717
G1A8.239Z40.636
G1A12.634Z40.522
G1A19.115Z40.303
G1A22.630Z40.252
G1A28.013Z40.327
G1A31.089Z40.312
G1A32.847Z40.230
G1A35.264Z40.014
G1A37.681Z39.705
G1A42.624Z38.963
G1A50.095Z37.853
G1A67.562Z37.475
G1A165.224
G1A169.509Z37.662
G1A173.354Z37.916
G1A176.320Z38.034
G1A179.066Z38.068
G1A182.582Z38.052
G1A185.767Z37.951
G1A189.612Z37.735
G1A193.897Z37.483
G1A196.863Z37.475
G1A302.106
G1A312.432Z38.369
G1A319.683Z39.476
G1A323.088Z39.929
G1A325.395Z40.164
G1A327.373Z40.314
G1A329.350Z40.388
G1A333.634Z40.391
G1A338.248Z40.315
G1A341.544Z40.395
G1A348.465Z40.643
G1A352.310Z40.707
G1A360.000Z40.717
G1X14.006Z39.502
G1X12.845Z38.617
G1A354.507Z38.678
G1A349.454Z38.752
G1A345.169Z38.737
G1A341.874Z38.631
G1A337.040Z38.447
G1A334.403Z38.409
G1A329.020Z38.420
G1A326.823Z38.366
G1A324.626Z38.234
G1A321.880Z37.982
G1A316.387Z37.475
G1A52.621
G1A38.340Z37.808
G1A35.264Z38.145
G1A33.287Z38.295
G1A31.419Z38.356
G1A27.244Z38.347
G1A24.498Z38.313
G1A21.312Z38.401
G1A15.709Z38.618
G1A12.634Z38.665
G1A5.822Z38.647
G1A0.000Z38.617
G1X11.238Z37.475
G1X9.987
G1A360.000
G1X7.130
G1A0.000
G1X4.272
G1A360.000
G1X1.429
G1A0.000
G1X0.000
G1A360.000
G0Z49.200
G0X110.000
G1Z35.570F1100.0
G1A0.000F2190.0
G1X107.142
G1A360.000
G1X104.285
G1A0.000
G1X101.427
G1A360.000
G1X98.570
G1A0.000
G1X95.712
G1A360.000
G1X92.855
G1A0.000
G1X89.997
G1A360.000
G1X87.140
G1A0.000
G1X84.282
G1A360.000
G1X81.425
G1A0.000
G1X78.567
G1A123.918
G1A125.676Z35.857
G1A128.422Z36.461
G1A129.631Z36.668
G1A130.949Z36.840
G1A131.938Z36.917
G1A132.817Z36.964
G1A134.794Z36.955
G1A136.112Z36.860
G1A137.431Z36.707
G1A138.969Z36.451
G1A140.177Z36.202
G1A142.154Z35.726
G1A145.230Z35.570
G1A165.005
G1A165.554Z35.632
G1A165.883Z35.850
G1A166.543Z36.157
G1A166.762Z36.187
G1A166.982Z36.254
G1A167.861Z36.475
G1A167.971Z36.512
G1A168.190Z36.548
G1A168.520Z36.615
G1A168.850Z36.656
G1A168.959
G1A169.179Z36.695
G1A169.399Z36.696
G1A169.509Z36.728
G1A169.948Z36.774
G1A170.388Z36.815
G1A170.607Z36.821
G1A170.827Z36.845
G1A171.266
G1A171.596Z36.863
G1A172.914Z36.859
G1A173.244Z36.845
G1A173.573Z36.831
G1A173.793Z36.815
G1A173.903
G1A174.123Z36.774
G1A174.233Z36.765
G1A174.452Z36.705
G1A174.782Z36.647
G1A175.111Z36.562
G1A175.221Z36.495
G1A175.331Z36.456
G1A175.441Z36.316
G1A175.551Z36.107
G1A175.661Z35.570
G1A184.998
G1A185.438Z35.578
G1A186.207Z35.595
G1A186.317Z35.675
G1A186.756Z35.692
G1A187.415Z35.696
G1A187.745Z35.709
G1A187.855Z35.741
G1A188.404
G1A188.624Z35.757
G1A189.832
G1A190.052Z35.741
G1A190.491
G1A190.601Z35.713
G1A192.139Z35.692
G1A192.469Z35.675
G1A192.688Z35.638
G1A192.798Z35.596
G1A194.226Z35.578
G1A194.556Z35.570
G1A216.308
G1A218.724Z36.004
G1A220.592Z36.427
G1A222.020Z36.677
G1A223.448Z36.875
G1A224.657Z36.981
G1A225.536Z37.032
G1A227.513Z37.025
G1A228.941Z36.914
G1A230.040Z36.782
G1A231.248Z36.582
G1A232.566Z36.311
G1A235.533Z35.645
G1A237.290Z35.570
G1A360.000
G1X75.710
G1A241.355
G1A239.927Z35.596
G1A238.059Z35.816
G1A237.730Z35.868
G1A236.521Z36.185
G1A233.555Z37.104
G1A232.237Z37.422
G1A231.358Z37.576
G1A230.479Z37.664
G1A229.161Z37.704
G1A223.448Z37.697
G1A222.130Z37.632
G1A221.251Z37.534
G1A219.933Z37.289
G1A218.505Z36.944
G1A216.747Z36.393
G1A213.671Z35.570
G1A196.314
G1A195.984Z35.580
G1A195.545Z35.599
G1A195.325Z35.692
G1A195.105
G1A194.886Z35.716
G1A194.666Z35.807
G1A194.556Z35.817
G1A194.117Z35.939
G1A194.007Z35.989
G1A193.897Z36.005
G1A193.677Z36.090
G1A193.238Z36.386
G1A193.128Z36.414
G1A193.018Z36.496
G1A192.798Z36.583
G1A192.688Z36.644
G1A192.579Z36.677
G1A192.359Z36.778
G1A192.139Z36.852
G1A192.029Z36.871
G1A191.919Z36.915
G1A191.810Z36.929
G1A191.260Z37.117
G1A190.601Z37.444
G1A190.491Z37.477
G1A190.272Z37.598
G1A190.052Z37.632
G1A189.832Z37.768
G1A189.722Z37.799
G1A189.503Z37.890
G1A189.393
G1A188.953Z38.062
G1A188.734Z38.096
G1A188.514Z38.174
G1A188.404
G1A188.184Z38.279
G1A187.965Z38.308
G1A187.855Z38.377
G1A187.305Z38.514
G1A187.086Z38.526
G1A186.866Z38.589
G1A186.536Z38.623
G1A186.097Z38.724
G1A185.658Z38.755
G1A185.218Z38.857
G1A184.559Z38.876
G1A184.229Z38.965
G1A183.900Z38.998
G1A183.131Z38.995
G1A182.911Z38.960
G1A182.691Z38.861
G1A182.362Z38.777
G1A182.252Z38.683
G1A182.142Z36.741
G1A181.922Z36.842
G1A181.813Z36.971
G1A181.593Z37.131
G1A181.373Z37.217
G1A180.934Z37.323
G1A180.494Z37.352
G1A179.835Z37.342
G1A179.396Z37.256
G1A179.066Z37.147
G1A178.847Z37.012
G1A178.627Z36.849
G1A178.187Z36.622
G1A178.078Z38.850
G1A177.858Z39.022
G1A177.748Z39.106
G1A177.528Z39.150
G1A177.418Z39.160
G1A177.309Z39.256
G1A177.199Z39.313
G1A176.979Z39.356
G1A176.430Z39.361
G1A175.990Z39.261
G1A175.661Z39.160
G1A175.111Z39.151
G1A174.782Z39.075
G1A174.562Z39.001
G1A174.342
G1A174.013Z38.944
G1A173.793Z38.871
G1A173.464Z38.824
G1A173.244Z38.753
G1A172.914Z38.709
G1A172.695Z38.633
G1A172.585Z38.621
G1A172.365Z38.528
G1A172.255Z38.518
G1A171.926Z38.409
G1A171.816Z38.394
G1A171.706Z38.357
G1A171.596Z38.294
G1A171.486
G1A171.376Z38.252
G1A171.266Z38.181
G1A170.937Z38.041
G1A170.717Z37.982
G1A170.388Z37.847
G1A170.168Z37.811
G1A169.619Z37.631
G1A168.959Z37.463
G1A168.850Z37.455
G1A168.300Z37.331
G1A167.971Z37.264
G1A167.751Z37.210
G1A167.312Z37.058
G1A166.762Z36.903
G1A166.433Z36.869
G1A165.993Z36.737
G1A165.664Z36.638
G1A165.444Z36.584
G1A165.005Z36.381
G1A164.455Z36.051
G1A164.016Z35.672
G1A163.467Z35.570
G1A146.988
G1A144.791Z35.834
G1A141.825Z36.791
G1A140.726Z37.073
G1A139.408Z37.348
G1A138.309Z37.512
G1A137.101Z37.591
G1A135.233Z37.620
G1A130.510Z37.609
G1A129.411Z37.554
G1A128.642Z37.475
G1A127.653Z37.299
G1A126.445Z37.004
G1A123.259Z36.020
G1A122.051Z35.716
G1A119.963Z35.570
G1A0.000
G1X72.852
G1A114.471
G1A116.558Z35.958
G1A118.865Z36.294
G1A120.952Z36.527
G1A124.138Z36.832
G1A125.566Z37.300
G1A126.335Z37.485
G1A127.104Z37.591
G1A127.873Z37.620
G1A139.628Z37.613
G1A140.507Z37.543
G1A141.385Z37.393
G1A142.264Z37.178
G1A143.253Z36.864
G1A146.219Z35.755
G1A147.757Z35.570
G1A163.796
G1A163.906Z35.607
G1A164.455Z36.027
G1A164.785Z36.315
G1A165.224Z36.584
G1A165.664Z36.809
G1A165.993Z36.889
G1A166.433Z37.105
G1A166.762Z37.278
G1A167.092Z37.408
G1A167.641Z37.701
G1A167.751Z37.736
G1A168.300Z38.040
G1A168.740Z38.357
G1A168.850Z38.394
G1A169.289Z38.679
G1A169.399Z38.709
G1A169.728Z38.871
G1A169.948Z38.974
G1A170.388Z39.218
G1A171.157Z39.674
G1A172.585Z40.318
G1A173.354Z40.615
G1A174.123Z40.819
G1A174.452Z40.879
G1A176.979Z40.890
G1A185.108Z40.883
G1A185.658Z40.816
G1A185.987Z40.728
G1A186.646Z40.492
G1A186.976Z40.344
G1A187.525Z40.129
G1A187.855Z39.966
G1A188.514Z39.717
G1A188.953Z39.443
G1A189.393Z39.190
G1A190.162Z38.796
G1A190.601Z38.619
G1A191.041Z38.461
G1A191.480Z38.190
G1A191.700Z38.096
G1A192.029Z37.894
G1A192.249Z37.799
G1A192.688Z37.495
G1A193.018Z37.310
G1A193.677Z36.876
G1A193.787Z36.852
G1A194.007Z36.744
G1A194.886Z36.104
G1A195.435Z35.788
G1A195.655Z35.691
G1A196.753Z35.570
G1A212.243
G1A213.781Z35.807
G1A215.758Z36.546
G1A217.186Z37.076
G1A218.175Z37.367
G1A219.054Z37.560
G1A219.933Z37.670
G1A220.702Z37.706
G1A232.676Z37.698
G1A233.335Z37.637
G1A233.995Z37.514
G1A234.654Z37.338
G1A235.862Z36.939
G1A240.366Z36.506
G1A242.893Z36.173
G1A244.651Z35.871
G1A246.298Z35.570
G1A360.000
G1X69.995
G1A251.352
G1A250.363Z35.643
G1A248.935Z35.974
G1A247.617Z36.201
G1A246.518Z36.325
G1A243.772Z36.473
G1A237.400Z37.116
G1A235.533Z37.272
G1A234.873Z37.397
G1A233.995Z37.593
G1A233.226Z37.687
G1A232.237Z37.706
G1A220.043Z37.700
G1A219.164Z37.618
G1A218.395Z37.484
G1A217.626Z37.281
G1A216.527Z36.908
G1A213.781Z35.812
G1A212.243Z35.570
G1A198.181
G1A197.083Z35.719
G1A196.094Z36.048
G1A194.226Z36.664
G1A193.348Z36.982
G1A193.128Z37.142
G1A192.359Z37.814
G1A191.480Z38.470
G1A190.931Z38.810
G1A189.942Z39.585
G1A189.612Z39.787
G1A188.624Z40.258
G1A187.635Z40.640
G1A186.866Z40.826
G1A186.317Z40.882
G1A173.573Z40.886
G1A173.024Z40.818
G1A172.585Z40.735
G1A172.035Z40.541
G1A170.827Z40.007
G1A170.278Z39.665
G1A169.179Z38.838
G1A168.740Z38.545
G1A167.751Z37.763
G1A167.092Z37.229
G1A166.652Z36.917
G1A164.785Z36.263
G1A163.357Z35.792
G1A162.588Z35.570
G1A147.208
G1A146.109Z35.808
G1A143.802Z36.763
G1A142.704Z37.147
G1A141.935Z37.355
G1A141.166Z37.500
G1A140.287Z37.597
G1A139.408Z37.620
G1A126.994Z37.611
G1A126.225Z37.521
G1A125.017Z37.272
G1A124.028Z37.134
G1A120.952Z36.844
G1A115.679Z36.292
G1A112.713Z36.108
G1A111.504Z35.958
G1A110.406Z35.742
G1A109.307Z35.570
G1A0.000
G1X67.137
G1A106.561
G1A108.538Z35.770
G1A109.527Z35.948
G1A110.626Z36.080
G1A112.164Z36.171
G1A115.240Z36.302
G1A118.206Z36.587
G1A121.831Z36.981
G1A124.577Z37.219
G1A127.653Z37.559
G1A128.752Z37.617
G1A132.487Z37.623
G1A133.915Z37.855
G1A135.453Z38.111
G1A137.101Z38.367
G1A138.090Z38.498
G1A138.749Z38.570
G1A139.188Z38.586
G1A139.628Z38.635
G1A140.946Z38.633
G1A141.385Z38.575
G1A141.825Z38.548
G1A142.484Z38.412
G1A143.143Z38.218
G1A144.132Z37.730
G1A144.461Z37.481
G1A144.681Z37.267
G1A144.901Z36.947
G1A145.560Z35.570
G1A162.807
G1A164.126Z36.092
G1A165.114Z36.531
G1A165.774Z36.861
G1A166.103Z37.071
G1A166.762Z37.524
G1A167.861Z38.145
G1A168.081Z38.292
G1A168.520Z38.670
G1A168.630Z38.810
G1A168.959Z39.575
G1A169.289Z40.185
G1A169.509Z40.496
G1A169.838Z41.152
G1A170.058Z41.420
G1A170.497Z41.844
G1A170.717Z41.969
G1A171.047Z42.137
G1A171.376Z42.245
G1A171.706Z42.300
G1A172.255Z42.435
G1A172.695Z42.458
G1A173.793Z42.448
G1A174.342Z42.381
G1A174.782Z42.290
G1A175.331Z42.201
G1A176.100Z42.004
G1A176.979Z41.734
G1A179.176Z40.985
G1A179.506Z40.890
G1A180.494
G1A180.714Z40.944
G1A183.570Z41.906
G1A184.669Z42.208
G1A185.218Z42.307
G1A186.097Z42.455
G1A186.646Z42.484
G1A187.745Z42.476
G1A188.074Z42.431
G1A188.404Z42.330
G1A188.734Z42.283
G1A189.063Z42.175
G1A189.503Z41.951
G1A190.052Z41.490
G1A190.272Z41.209
G1A190.601Z40.573
G1A190.821Z40.227
G1A191.260Z39.319
G1A191.370Z39.040
G1A191.480Z38.824
G1A191.700Z38.623
G1A192.139Z38.271
G1A192.579Z38.008
G1A194.007Z37.180
G1A194.995Z36.636
G1A195.874Z36.217
G1A197.083Z35.625
G1A197.412Z35.570
G1A214.330
G1A214.550Z35.599
G1A214.660Z35.718
G1A214.989Z36.550
G1A215.099Z36.838
G1A215.209Z37.054
G1A215.429Z37.358
G1A215.758Z37.666
G1A216.088Z37.896
G1A216.857Z38.284
G1A217.186Z38.405
G1A217.955Z38.603
G1A218.505Z38.693
G1A218.944Z38.722
G1A219.384Z38.767
G1A220.702Z38.763
G1A221.361Z38.707
G1A221.910Z38.673
G1A223.998Z38.413
G1A226.964Z37.987
G1A229.051Z37.707
G1A231.578Z37.697
G1A232.676Z37.616
G1A235.313Z37.320
G1A238.828Z37.044
G1A243.113Z36.589
G1A244.870Z36.448
G1A247.946Z36.332
G1A249.484Z36.194
G1A250.912Z35.976
G1A252.121Z35.725
G1A252.890Z35.570
