( PROGRAM NUMBER: 100)
( PROGRAM NAME: TRAINDRIVESHAFT_TEST1.T)
( POST:  MAXNC  10CL)
( DATE: SAT. 08/20/2016 , TIME: 09:02PM)
( T1 ENDMILL ROUGH , DIAMETER = 0.25 , LENGTH = 3.)
N01 G90 G80 G49 G20
(Machine Setup - 1  4 Axis Rotary)
(FEATURE 4 AXIS ROTARY)
(N02 T1 M06)
N03 M03
N04 S7761
N05 G00 X1.899 Y0.2 A0. Z1.125
N06 Z0.4229
N07 Z0.3229
N08 G01 Z0.2229 F45.0177
N09 X2.3097 Z0.2014 F90.0354
N10 X2.3283 Z0.2071
N11 X2.3469 Z0.221
N12 X2.3841 Z0.2351
N13 X2.4956 Z0.2329
N14 X2.5328 Z0.2239
N15 X2.57 Z0.2003
N16 X2.5328 Z0.2194
N17 X2.4956 Z0.2244
N18 X2.3841 Z0.215
N19 X2.3469 Z0.1966
N20 X2.3283 Z0.1803
N21 X2.3097 Z0.1725
N22 X1.6403 Z0.1374
N23 X1.6031 Z0.1587
N24 X1.5659 Z0.1718
N25 X1.4544 Z0.1688
N26 X1.4172 Z0.1589
N27 X1.38 Z0.1339
N28 X1.4172 Z0.1566
N29 X1.4544 Z0.1645
N30 X1.5659 Z0.1617
N31 X1.6031 Z0.1465
N32 X1.6403 Z0.1229
N33 X2.3097
N34 X2.3283 Z0.1297
N35 X2.3469 Z0.1447
N36 X2.3841 Z0.1611
N37 X2.4956 Z0.1646
N38 X2.5328 Z0.1576
N39 X2.57 Z0.1363
N40 Z0.1359 A2.
N41 Z0.1357 A4.
N42 X2.5328 Z0.1571
N43 X2.4956 Z0.1641
N44 X2.3841 Z0.1605
N45 X2.3469 Z0.1442
N46 X2.3283 Z0.1291
N47 X2.3097 Z0.1227
N48 X1.6403
N49 X1.6031 Z0.146
N50 X1.5659 Z0.1612
N51 X1.4544 Z0.164
N52 X1.4172 Z0.1561
N53 X1.38 Z0.1333
N54 Z0.1323 A6.
N55 Z0.1315 A8.
N56 X1.4172 Z0.1545
N57 X1.4544 Z0.1625
N58 X1.5659 Z0.1597
N59 X1.6031 Z0.1443
N60 X1.6217 Z0.13
N61 X1.6403 Z0.1228
N62 X2.3097
N63 X2.3283 Z0.1273
N64 X2.3469 Z0.1425
N65 X2.3841 Z0.159
N66 X2.4956 Z0.1626
N67 X2.5328 Z0.1556
N68 X2.57 Z0.134
N69 Y-0.0001 Z0.1325 A10.
N70 Y0. Z0.1311 A12.
N71 X2.5328 Z0.153
N72 X2.4956 Z0.1601
N73 X2.3841 Z0.1565
N74 X2.3469 Z0.1398
N75 X2.3283 Z0.1243
N76 X1.6403 Z0.1229
N77 X1.6217 Z0.127
N78 X1.6031 Z0.1416
N79 X1.5659 Z0.1572
N80 X1.4544 Z0.16
N81 X1.4172 Z0.1519
N82 X1.38 Z0.1286
N83 Y-0.0001 Z0.1267 A14.
N84 Y0. Z0.125 A16.
N85 X1.4172 Z0.1484
N86 X1.4544 Z0.1565
N87 X1.5659 Z0.1536
N88 X1.6031 Z0.138
N89 X1.6217 Z0.1234
N90 X2.3283 Z0.1226
N91 X2.3469 Z0.1362
N92 X2.3841 Z0.153
N93 X2.4956 Z0.1566
N94 X2.5328 Z0.1494
N95 X2.57 Z0.1274
N96 Z0.1259 A18.
N97 Z0.1246 A20.
N98 X2.5328 Z0.1463
N99 X2.4956 Z0.1534
N100 X2.3841 Z0.1498
N101 X2.3283 Z0.1229
N102 X1.6217
N103 X1.6031 Z0.135
N104 X1.5659 Z0.1504
N105 X1.4544 Z0.1533
N106 X1.4172 Z0.1452
N107 X1.38 Z0.1222
N108 Z0.1212 A22.
N109 Z0.1203 A24.
N110 X1.4172 Z0.1432
N111 X1.4544 Z0.1511
N112 X1.5659 Z0.1483
N113 X1.6217 Z0.1228
N114 X2.3283
N115 X2.3841 Z0.1477
N116 X2.4956 Z0.1512
N117 X2.5328 Z0.1442
N118 X2.57 Z0.1227
N119 Z0.1222 A26.
N120 Z0.1218 A28.
N121 X2.5328 Z0.1432
N122 X2.4956 Z0.1502
N123 X2.3841 Z0.1466
N124 X2.3283 Z0.1226
N125 X1.6217
N126 X1.5659 Z0.1473
N127 X1.4544 Z0.1501
N128 X1.4172 Z0.1422
N129 X1.38 Z0.1194
N130 Z0.1194 A30.
N131 Z0.1194 A32.
N132 X1.4172 Z0.1422
N133 X1.4544 Z0.1501
N134 X1.5659 Z0.1473
N135 X1.6217 Z0.1229
N136 X2.3283
N137 X2.3841 Z0.1466
N138 X2.4956 Z0.1502
N139 X2.5328 Z0.1432
N140 X2.57 Z0.1218
N141 Z0.1222 A34.
N142 Z0.1227 A36.
N143 X2.5328 Z0.1442
N144 X2.4956 Z0.1512
N145 X2.3841 Z0.1477
N146 X2.3283 Z0.1228
N147 X1.6217
N148 X1.5659 Z0.1483
N149 X1.4544 Z0.1511
N150 X1.4172 Z0.1432
N151 X1.38 Z0.1203
N152 Z0.1212 A38.
N153 Z0.1222 A40.
N154 X1.4172 Z0.1452
N155 X1.4544 Z0.1533
N156 X1.5659 Z0.1504
N157 X1.6031 Z0.135
N158 X1.6217 Z0.1226
N159 X2.3283
N160 X2.3841 Z0.1498
N161 X2.4956 Z0.1534
N162 X2.5328 Z0.1463
N163 X2.57 Z0.1246
N164 Z0.1259 A42.
N165 Z0.1274 A44.
N166 X2.5328 Z0.1494
N167 X2.4956 Z0.1566
N168 X2.3841 Z0.153
N169 X2.3469 Z0.1362
N170 X2.3283 Z0.1229
N171 X1.6217 Z0.1234
N172 X1.6031 Z0.138
N173 X1.5659 Z0.1536
N174 X1.4544 Z0.1565
N175 X1.4172 Z0.1484
N176 X1.38 Z0.125
N177 Y0.0001 Z0.1267 A46.
N178 Y0. Z0.1286 A48.
N179 X1.4172 Z0.1519
N180 X1.4544 Z0.16
N181 X1.5659 Z0.1572
N182 X1.6031 Z0.1416
N183 X1.6217 Z0.127
N184 X1.6403 Z0.1228
N185 X2.3283 Z0.1243
N186 X2.3469 Z0.1398
N187 X2.3841 Z0.1565
N188 X2.4956 Z0.1601
N189 X2.5328 Z0.153
N190 X2.57 Z0.1311
N191 Y0.0001 Z0.1325 A50.
N192 Y0. Z0.134 A52.
N193 X2.5328 Z0.1556
N194 X2.4956 Z0.1626
N195 X2.3841 Z0.159
N196 X2.3469 Z0.1425
N197 X2.3283 Z0.1273
N198 X2.3097 Z0.1226
N199 X1.6403
N200 X1.6217 Z0.13
N201 X1.6031 Z0.1443
N202 X1.5659 Z0.1597
N203 X1.4544 Z0.1625
N204 X1.4172 Z0.1545
N205 X1.38 Z0.1315
N206 Z0.1323 A54.
N207 Z0.1333 A56.
N208 X1.4172 Z0.1561
N209 X1.4544 Z0.164
N210 X1.5659 Z0.1612
N211 X1.6031 Z0.146
N212 X1.6403 Z0.1229
N213 X2.3097
N214 X2.3283 Z0.1291
N215 X2.3469 Z0.1442
N216 X2.3841 Z0.1605
N217 X2.4956 Z0.1641
N218 X2.5328 Z0.1571
N219 X2.57 Z0.1357
N220 Z0.1359 A58.
N221 Z0.1363 A60.
N222 X2.5328 Z0.1576
N223 X2.4956 Z0.1646
N224 X2.3841 Z0.1611
N225 X2.3469 Z0.1447
N226 X2.3283 Z0.1297
N227 X2.3097 Z0.1228
N228 X1.6403
N229 X1.6031 Z0.1465
N230 X1.5659 Z0.1617
N231 X1.4544 Z0.1645
N232 X1.4172 Z0.1566
N233 X1.38 Z0.1339
N234 Z0.1335 A62.
N235 Z0.1333 A64.
N236 X1.4172 Z0.1561
N237 X1.4544 Z0.164
N238 X1.5659 Z0.1612
N239 X1.6031 Z0.146
N240 X1.6403 Z0.1226
N241 X2.3097
N242 X2.3283 Z0.1291
N243 X2.3469 Z0.1442
N244 X2.3841 Z0.1605
N245 X2.4956 Z0.1641
N246 X2.5328 Z0.1571
N247 X2.57 Z0.1357
N248 Z0.1348 A66.
N249 Z0.134 A68.
N250 X2.5328 Z0.1556
N251 X2.4956 Z0.1626
N252 X2.3841 Z0.159
N253 X2.3469 Z0.1425
N254 X2.3283 Z0.1273
N255 X2.3097 Z0.1229
N256 X1.6403
N257 X1.6217 Z0.13
N258 X1.6031 Z0.1443
N259 X1.5659 Z0.1597
N260 X1.4544 Z0.1625
N261 X1.4172 Z0.1545
N262 X1.38 Z0.1315
N263 Y-0.0001 Z0.13 A70.
N264 Y0. Z0.1286 A72.
N265 X1.4172 Z0.1519
N266 X1.4544 Z0.16
N267 X1.5659 Z0.1572
N268 X1.6031 Z0.1416
N269 X1.6217 Z0.127
N270 X1.6403 Z0.1227
N271 X2.3283 Z0.1243
N272 X2.3469 Z0.1398
N273 X2.3841 Z0.1565
N274 X2.4956 Z0.1601
N275 X2.5328 Z0.153
N276 X2.57 Z0.1311
N277 Y-0.0001 Z0.1292 A74.
N278 Y0. Z0.1274 A76.
N279 X2.5328 Z0.1494
N280 X2.4956 Z0.1566
N281 X2.3841 Z0.153
N282 X2.3469 Z0.1362
N283 X2.3283 Z0.1227
N284 X1.6217 Z0.1234
N285 X1.6031 Z0.138
N286 X1.5659 Z0.1536
N287 X1.4544 Z0.1565
N288 X1.4172 Z0.1484
N289 X1.38 Z0.125
N290 Z0.1235 A78.
N291 Z0.1222 A80.
N292 X1.4172 Z0.1452
N293 X1.4544 Z0.1533
N294 X1.5659 Z0.1504
N295 X1.6031 Z0.135
N296 X1.6217 Z0.1229
N297 X2.3283
N298 X2.3841 Z0.1498
N299 X2.4956 Z0.1534
N300 X2.5328 Z0.1463
N301 X2.57 Z0.1246
N302 Z0.1236 A82.
N303 Z0.1227 A84.
N304 X2.5328 Z0.1442
N305 X2.4956 Z0.1512
N306 X2.3841 Z0.1477
N307 X2.3283 Z0.1227
N308 X1.6217
N309 X1.5659 Z0.1483
N310 X1.4544 Z0.1511
N311 X1.4172 Z0.1432
N312 X1.38 Z0.1203
N313 Z0.1198 A86.
N314 Z0.1194 A88.
N315 X1.4172 Z0.1422
N316 X1.4544 Z0.1501
N317 X1.5659 Z0.1473
N318 X1.6217 Z0.1229
N319 X2.3283
N320 X2.3841 Z0.1466
N321 X2.4956 Z0.1502
N322 X2.5328 Z0.1432
N323 X2.57 Z0.1218
N324 Z0.1218 A90.
N325 Z0.1218 A92.
N326 X2.5328 Z0.1432
N327 X2.4956 Z0.1502
N328 X2.3841 Z0.1466
N329 X2.3283 Z0.1229
N330 X1.6217
N331 X1.5659 Z0.1473
N332 X1.4544 Z0.1501
N333 X1.4172 Z0.1422
N334 X1.38 Z0.1194
N335 Z0.1198 A94.
N336 Z0.1203 A96.
N337 X1.4172 Z0.1432
N338 X1.4544 Z0.1511
N339 X1.5659 Z0.1483
N340 X1.6217 Z0.1227
N341 X2.3283
N342 X2.3841 Z0.1477
N343 X2.4956 Z0.1512
N344 X2.5328 Z0.1442
N345 X2.57 Z0.1227
N346 Z0.1236 A98.
N347 Z0.1246 A100.
N348 X2.5328 Z0.1463
N349 X2.4956 Z0.1534
N350 X2.3841 Z0.1498
N351 X2.3283 Z0.1229
N352 X1.6217
N353 X1.6031 Z0.135
N354 X1.5659 Z0.1504
N355 X1.4544 Z0.1533
N356 X1.4172 Z0.1452
N357 X1.38 Z0.1222
N358 Z0.1235 A102.
N359 Z0.125 A104.
N360 X1.4172 Z0.1484
N361 X1.4544 Z0.1565
N362 X1.5659 Z0.1536
N363 X1.6031 Z0.138
N364 X1.6217 Z0.1234
N365 X2.3283 Z0.1227
N366 X2.3469 Z0.1362
N367 X2.3841 Z0.153
N368 X2.4956 Z0.1566
N369 X2.5328 Z0.1494
N370 X2.57 Z0.1274
N371 Y0.0001 Z0.1292 A106.
N372 Y0. Z0.1311 A108.
N373 X2.5328 Z0.153
N374 X2.4956 Z0.1601
N375 X2.3841 Z0.1565
N376 X2.3469 Z0.1398
N377 X2.3283 Z0.1243
N378 X1.6403 Z0.1227
N379 X1.6217 Z0.127
N380 X1.6031 Z0.1416
N381 X1.5659 Z0.1572
N382 X1.4544 Z0.16
N383 X1.4172 Z0.1519
N384 X1.38 Z0.1286
N385 Y0.0001 Z0.13 A110.
N386 Y0. Z0.1315 A112.
N387 X1.4172 Z0.1545
N388 X1.4544 Z0.1625
N389 X1.5659 Z0.1597
N390 X1.6031 Z0.1443
N391 X1.6217 Z0.13
N392 X1.6403 Z0.1229
N393 X2.3097
N394 X2.3283 Z0.1273
N395 X2.3469 Z0.1425
N396 X2.3841 Z0.159
N397 X2.4956 Z0.1626
N398 X2.5328 Z0.1556
N399 X2.57 Z0.134
N400 Z0.1348 A114.
N401 Z0.1357 A116.
N402 X2.5328 Z0.1571
N403 X2.4956 Z0.1641
N404 X2.3841 Z0.1605
N405 X2.3469 Z0.1442
N406 X2.3283 Z0.1291
N407 X2.3097 Z0.1226
N408 X1.6403
N409 X1.6031 Z0.146
N410 X1.5659 Z0.1612
N411 X1.4544 Z0.164
N412 X1.4172 Z0.1561
N413 X1.38 Z0.1333
N414 Z0.1335 A118.
N415 Z0.1339 A120.
N416 X1.4172 Z0.1566
N417 X1.4544 Z0.1645
N418 X1.5659 Z0.1617
N419 X1.6031 Z0.1465
N420 X1.6403 Z0.1228
N421 X2.3097
N422 X2.3283 Z0.1297
N423 X2.3469 Z0.1447
N424 X2.3841 Z0.1611
N425 X2.4956 Z0.1646
N426 X2.5328 Z0.1576
N427 X2.57 Z0.1363
N428 Z0.1359 A122.
N429 Z0.1357 A124.
N430 X2.5328 Z0.1571
N431 X2.4956 Z0.1641
N432 X2.3841 Z0.1605
N433 X2.3469 Z0.1442
N434 X2.3283 Z0.1291
N435 X2.3097 Z0.1229
N436 X1.6403
N437 X1.6031 Z0.146
N438 X1.5659 Z0.1612
N439 X1.4544 Z0.164
N440 X1.4172 Z0.1561
N441 X1.38 Z0.1333
N442 Z0.1323 A126.
N443 Z0.1315 A128.
N444 X1.4172 Z0.1545
N445 X1.4544 Z0.1625
N446 X1.5659 Z0.1597
N447 X1.6031 Z0.1443
N448 X1.6217 Z0.13
N449 X1.6403 Z0.1226
N450 X2.3097
N451 X2.3283 Z0.1273
N452 X2.3469 Z0.1425
N453 X2.3841 Z0.159
N454 X2.4956 Z0.1626
N455 X2.5328 Z0.1556
N456 X2.57 Z0.134
N457 Y-0.0001 Z0.1325 A130.
N458 Y0. Z0.1311 A132.
N459 X2.5328 Z0.153
N460 X2.4956 Z0.1601
N461 X2.3841 Z0.1565
N462 X2.3469 Z0.1398
N463 X2.3283 Z0.1243
N464 X1.6403 Z0.1228
N465 X1.6217 Z0.127
N466 X1.6031 Z0.1416
N467 X1.5659 Z0.1572
N468 X1.4544 Z0.16
N469 X1.4172 Z0.1519
N470 X1.38 Z0.1286
N471 Y-0.0001 Z0.1267 A134.
N472 Y0. Z0.125 A136.
N473 X1.4172 Z0.1484
N474 X1.4544 Z0.1565
N475 X1.5659 Z0.1536
N476 X1.6031 Z0.138
N477 X1.6217 Z0.1234
N478 X2.3283 Z0.1229
N479 X2.3469 Z0.1362
N480 X2.3841 Z0.153
N481 X2.4956 Z0.1566
N482 X2.5328 Z0.1494
N483 X2.57 Z0.1274
N484 Z0.1259 A138.
N485 Z0.1246 A140.
N486 X2.5328 Z0.1463
N487 X2.4956 Z0.1534
N488 X2.3841 Z0.1498
N489 X2.3283 Z0.1226
N490 X1.6217
N491 X1.6031 Z0.135
N492 X1.5659 Z0.1504
N493 X1.4544 Z0.1533
N494 X1.4172 Z0.1452
N495 X1.38 Z0.1222
N496 Z0.1212 A142.
N497 Z0.1203 A144.
N498 X1.4172 Z0.1432
N499 X1.4544 Z0.1511
N500 X1.5659 Z0.1483
N501 X1.6217 Z0.1228
N502 X2.3283
N503 X2.3841 Z0.1477
N504 X2.4956 Z0.1512
N505 X2.5328 Z0.1442
N506 X2.57 Z0.1227
N507 Z0.1222 A146.
N508 Z0.1218 A148.
N509 X2.5328 Z0.1432
N510 X2.4956 Z0.1502
N511 X2.3841 Z0.1466
N512 X2.3283 Z0.1229
N513 X1.6217
N514 X1.5659 Z0.1473
N515 X1.4544 Z0.1501
N516 X1.4172 Z0.1422
N517 X1.38 Z0.1194
N518 Z0.1194 A150.
N519 Z0.1194 A152.
N520 X1.4172 Z0.1422
N521 X1.4544 Z0.1501
N522 X1.5659 Z0.1473
N523 X1.6217 Z0.1226
N524 X2.3283
N525 X2.3841 Z0.1466
N526 X2.4956 Z0.1502
N527 X2.5328 Z0.1432
N528 X2.57 Z0.1218
N529 Z0.1222 A154.
N530 Z0.1227 A156.
N531 X2.5328 Z0.1442
N532 X2.4956 Z0.1512
N533 X2.3841 Z0.1477
N534 X2.3283 Z0.1228
N535 X1.6217
N536 X1.5659 Z0.1483
N537 X1.4544 Z0.1511
N538 X1.4172 Z0.1432
N539 X1.38 Z0.1203
N540 Z0.1212 A158.
N541 Z0.1222 A160.
N542 X1.4172 Z0.1452
N543 X1.4544 Z0.1533
N544 X1.5659 Z0.1504
N545 X1.6031 Z0.135
N546 X1.6217 Z0.1229
N547 X2.3283
N548 X2.3841 Z0.1498
N549 X2.4956 Z0.1534
N550 X2.5328 Z0.1463
N551 X2.57 Z0.1246
N552 Z0.1259 A162.
N553 Z0.1274 A164.
N554 X2.5328 Z0.1494
N555 X2.4956 Z0.1566
N556 X2.3841 Z0.153
N557 X2.3469 Z0.1362
N558 X2.3283 Z0.1226
N559 X1.6217 Z0.1234
N560 X1.6031 Z0.138
N561 X1.5659 Z0.1536
N562 X1.4544 Z0.1565
N563 X1.4172 Z0.1484
N564 X1.38 Z0.125
N565 Y0.0001 Z0.1267 A166.
N566 Y0. Z0.1286 A168.
N567 X1.4172 Z0.1519
N568 X1.4544 Z0.16
N569 X1.5659 Z0.1572
N570 X1.6031 Z0.1416
N571 X1.6217 Z0.127
N572 X1.6403 Z0.1229
N573 X2.3283 Z0.1243
N574 X2.3469 Z0.1398
N575 X2.3841 Z0.1565
N576 X2.4956 Z0.1601
N577 X2.5328 Z0.153
N578 X2.57 Z0.1311
N579 Y0.0001 Z0.1325 A170.
N580 Y0. Z0.134 A172.
N581 X2.5328 Z0.1556
N582 X2.4956 Z0.1626
N583 X2.3841 Z0.159
N584 X2.3469 Z0.1425
N585 X2.3283 Z0.1273
N586 X2.3097 Z0.1228
N587 X1.6403
N588 X1.6217 Z0.13
N589 X1.6031 Z0.1443
N590 X1.5659 Z0.1597
N591 X1.4544 Z0.1625
N592 X1.4172 Z0.1545
N593 X1.38 Z0.1315
N594 Z0.1323 A174.
N595 Z0.1333 A176.
N596 X1.4172 Z0.1561
N597 X1.4544 Z0.164
N598 X1.5659 Z0.1612
N599 X1.6031 Z0.146
N600 X1.6403 Z0.1227
N601 X2.3097
N602 X2.3283 Z0.1291
N603 X2.3469 Z0.1442
N604 X2.3841 Z0.1605
N605 X2.4956 Z0.1641
N606 X2.5328 Z0.1571
N607 X2.57 Z0.1357
N608 Z0.1359 A178.
N609 Z0.1363 A180.
N610 X2.5328 Z0.1576
N611 X2.4956 Z0.1646
N612 X2.3841 Z0.1611
N613 X2.3469 Z0.1447
N614 X2.3283 Z0.1297
N615 X2.3097 Z0.1229
N616 X1.6403
N617 X1.6031 Z0.1465
N618 X1.5659 Z0.1617
N619 X1.4544 Z0.1645
N620 X1.4172 Z0.1566
N621 X1.38 Z0.1339
N622 Z0.1335 A182.
N623 Z0.1333 A184.
N624 X1.4172 Z0.1561
N625 X1.4544 Z0.164
N626 X1.5659 Z0.1612
N627 X1.6031 Z0.146
N628 X1.6403 Z0.1227
N629 X2.3097
N630 X2.3283 Z0.1291
N631 X2.3469 Z0.1442
N632 X2.3841 Z0.1605
N633 X2.4956 Z0.1641
N634 X2.5328 Z0.1571
N635 X2.57 Z0.1357
N636 Z0.1348 A186.
N637 Z0.134 A188.
N638 X2.5328 Z0.1556
N639 X2.4956 Z0.1626
N640 X2.3841 Z0.159
N641 X2.3469 Z0.1425
N642 X2.3283 Z0.1273
N643 X2.3097 Z0.1228
N644 X1.6403
N645 X1.6217 Z0.13
N646 X1.6031 Z0.1443
N647 X1.5659 Z0.1597
N648 X1.4544 Z0.1625
N649 X1.4172 Z0.1545
N650 X1.38 Z0.1315
N651 Y-0.0001 Z0.13 A190.
N652 Y0. Z0.1286 A192.
N653 X1.4172 Z0.1519
N654 X1.4544 Z0.16
N655 X1.5659 Z0.1572
N656 X1.6031 Z0.1416
N657 X1.6217 Z0.127
N658 X1.6403 Z0.1229
N659 X2.3283 Z0.1243
N660 X2.3469 Z0.1398
N661 X2.3841 Z0.1565
N662 X2.4956 Z0.1601
N663 X2.5328 Z0.153
N664 X2.57 Z0.1311
N665 Y-0.0001 Z0.1292 A194.
N666 Y0. Z0.1274 A196.
N667 X2.5328 Z0.1494
N668 X2.4956 Z0.1566
N669 X2.3841 Z0.153
N670 X2.3469 Z0.1362
N671 X2.3283 Z0.1226
N672 X1.6217 Z0.1234
N673 X1.6031 Z0.138
N674 X1.5659 Z0.1536
N675 X1.4544 Z0.1565
N676 X1.4172 Z0.1484
N677 X1.38 Z0.125
N678 Z0.1235 A198.
N679 Z0.1222 A200.
N680 X1.4172 Z0.1452
N681 X1.4544 Z0.1533
N682 X1.5659 Z0.1504
N683 X1.6031 Z0.135
N684 X1.6217 Z0.1229
N685 X2.3283
N686 X2.3841 Z0.1498
N687 X2.4956 Z0.1534
N688 X2.5328 Z0.1463
N689 X2.57 Z0.1246
N690 Z0.1236 A202.
N691 Z0.1227 A204.
N692 X2.5328 Z0.1442
N693 X2.4956 Z0.1512
N694 X2.3841 Z0.1477
N695 X2.3283 Z0.1228
N696 X1.6217
N697 X1.5659 Z0.1483
N698 X1.4544 Z0.1511
N699 X1.4172 Z0.1432
N700 X1.38 Z0.1203
N701 Z0.1198 A206.
N702 Z0.1194 A208.
N703 X1.4172 Z0.1422
N704 X1.4544 Z0.1501
N705 X1.5659 Z0.1473
N706 X1.6217 Z0.1226
N707 X2.3283
N708 X2.3841 Z0.1466
N709 X2.4956 Z0.1502
N710 X2.5328 Z0.1432
N711 X2.57 Z0.1218
N712 Z0.1218 A210.
N713 Z0.1218 A212.
N714 X2.5328 Z0.1432
N715 X2.4956 Z0.1502
N716 X2.3841 Z0.1466
N717 X2.3283 Z0.1229
N718 X1.6217
N719 X1.5659 Z0.1473
N720 X1.4544 Z0.1501
N721 X1.4172 Z0.1422
N722 X1.38 Z0.1194
N723 Z0.1198 A214.
N724 Z0.1203 A216.
N725 X1.4172 Z0.1432
N726 X1.4544 Z0.1511
N727 X1.5659 Z0.1483
N728 X1.6217 Z0.1228
N729 X2.3283
N730 X2.3841 Z0.1477
N731 X2.4956 Z0.1512
N732 X2.5328 Z0.1442
N733 X2.57 Z0.1227
N734 Z0.1236 A218.
N735 Z0.1246 A220.
N736 X2.5328 Z0.1463
N737 X2.4956 Z0.1534
N738 X2.3841 Z0.1498
N739 X2.3283 Z0.1226
N740 X1.6217
N741 X1.6031 Z0.135
N742 X1.5659 Z0.1504
N743 X1.4544 Z0.1533
N744 X1.4172 Z0.1452
N745 X1.38 Z0.1222
N746 Z0.1235 A222.
N747 Z0.125 A224.
N748 X1.4172 Z0.1484
N749 X1.4544 Z0.1565
N750 X1.5659 Z0.1536
N751 X1.6031 Z0.138
N752 X1.6217 Z0.1234
N753 X2.3283 Z0.1229
N754 X2.3469 Z0.1362
N755 X2.3841 Z0.153
N756 X2.4956 Z0.1566
N757 X2.5328 Z0.1494
N758 X2.57 Z0.1274
N759 Y0.0001 Z0.1292 A226.
N760 Y0. Z0.1311 A228.
N761 X2.5328 Z0.153
N762 X2.4956 Z0.1601
N763 X2.3841 Z0.1565
N764 X2.3469 Z0.1398
N765 X2.3283 Z0.1243
N766 X1.6403 Z0.1228
N767 X1.6217 Z0.127
N768 X1.6031 Z0.1416
N769 X1.5659 Z0.1572
N770 X1.4544 Z0.16
N771 X1.4172 Z0.1519
N772 X1.38 Z0.1286
N773 Y0.0001 Z0.13 A230.
N774 Y0. Z0.1315 A232.
N775 X1.4172 Z0.1545
N776 X1.4544 Z0.1625
N777 X1.5659 Z0.1597
N778 X1.6031 Z0.1443
N779 X1.6217 Z0.13
N780 X1.6403 Z0.1226
N781 X2.3097
N782 X2.3283 Z0.1273
N783 X2.3469 Z0.1425
N784 X2.3841 Z0.159
N785 X2.4956 Z0.1626
N786 X2.5328 Z0.1556
N787 X2.57 Z0.134
N788 Z0.1348 A234.
N789 Z0.1357 A236.
N790 X2.5328 Z0.1571
N791 X2.4956 Z0.1641
N792 X2.3841 Z0.1605
N793 X2.3469 Z0.1442
N794 X2.3283 Z0.1291
N795 X2.3097 Z0.1229
N796 X1.6403
N797 X1.6031 Z0.146
N798 X1.5659 Z0.1612
N799 X1.4544 Z0.164
N800 X1.4172 Z0.1561
N801 X1.38 Z0.1333
N802 Z0.1335 A238.
N803 Z0.1339 A240.
N804 X1.4172 Z0.1566
N805 X1.4544 Z0.1645
N806 X1.5659 Z0.1617
N807 X1.6031 Z0.1465
N808 X1.6403 Z0.1228
N809 X2.3097
N810 X2.3283 Z0.1297
N811 X2.3469 Z0.1447
N812 X2.3841 Z0.1611
N813 X2.4956 Z0.1646
N814 X2.5328 Z0.1576
N815 X2.57 Z0.1363
N816 Z0.1359 A242.
N817 Z0.1357 A244.
N818 X2.5328 Z0.1571
N819 X2.4956 Z0.1641
N820 X2.3841 Z0.1605
N821 X2.3469 Z0.1442
N822 X2.3283 Z0.1291
N823 X2.3097 Z0.1226
N824 X1.6403
N825 X1.6031 Z0.146
N826 X1.5659 Z0.1612
N827 X1.4544 Z0.164
N828 X1.4172 Z0.1561
N829 X1.38 Z0.1333
N830 Z0.1323 A246.
N831 Z0.1315 A248.
N832 X1.4172 Z0.1545
N833 X1.4544 Z0.1625
N834 X1.5659 Z0.1597
N835 X1.6031 Z0.1443
N836 X1.6217 Z0.13
N837 X1.6403 Z0.1229
N838 X2.3097
N839 X2.3283 Z0.1273
N840 X2.3469 Z0.1425
N841 X2.3841 Z0.159
N842 X2.4956 Z0.1626
N843 X2.5328 Z0.1556
N844 X2.57 Z0.134
N845 Y-0.0001 Z0.1325 A250.
N846 Y0. Z0.1311 A252.
N847 X2.5328 Z0.153
N848 X2.4956 Z0.1601
N849 X2.3841 Z0.1565
N850 X2.3469 Z0.1398
N851 X2.3283 Z0.1243
N852 X1.6403 Z0.1227
N853 X1.6217 Z0.127
N854 X1.6031 Z0.1416
N855 X1.5659 Z0.1572
N856 X1.4544 Z0.16
N857 X1.4172 Z0.1519
N858 X1.38 Z0.1286
N859 Y-0.0001 Z0.1267 A254.
N860 Y0. Z0.125 A256.
N861 X1.4172 Z0.1484
N862 X1.4544 Z0.1565
N863 X1.5659 Z0.1536
N864 X1.6031 Z0.138
N865 X1.6217 Z0.1234
N866 X2.3283 Z0.1227
N867 X2.3469 Z0.1362
N868 X2.3841 Z0.153
N869 X2.4956 Z0.1566
N870 X2.5328 Z0.1494
N871 X2.57 Z0.1274
N872 Z0.1259 A258.
N873 Z0.1246 A260.
N874 X2.5328 Z0.1463
N875 X2.4956 Z0.1534
N876 X2.3841 Z0.1498
N877 X2.3283 Z0.1229
N878 X1.6217
N879 X1.6031 Z0.135
N880 X1.5659 Z0.1504
N881 X1.4544 Z0.1533
N882 X1.4172 Z0.1452
N883 X1.38 Z0.1222
N884 Z0.1212 A262.
N885 Z0.1203 A264.
N886 X1.4172 Z0.1432
N887 X1.4544 Z0.1511
N888 X1.5659 Z0.1483
N889 X1.6217 Z0.1227
N890 X2.3283
N891 X2.3841 Z0.1477
N892 X2.4956 Z0.1512
N893 X2.5328 Z0.1442
N894 X2.57 Z0.1227
N895 Z0.1222 A266.
N896 Z0.1218 A268.
N897 X2.5328 Z0.1432
N898 X2.4956 Z0.1502
N899 X2.3841 Z0.1466
N900 X2.3283 Z0.1229
N901 X1.6217
N902 X1.5659 Z0.1473
N903 X1.4544 Z0.1501
N904 X1.4172 Z0.1422
N905 X1.38 Z0.1194
N906 Z0.1194 A270.
N907 Z0.1194 A272.
N908 X1.4172 Z0.1422
N909 X1.4544 Z0.1501
N910 X1.5659 Z0.1473
N911 X1.6217 Z0.1229
N912 X2.3283
N913 X2.3841 Z0.1466
N914 X2.4956 Z0.1502
N915 X2.5328 Z0.1432
N916 X2.57 Z0.1218
N917 Z0.1222 A274.
N918 Z0.1227 A276.
N919 X2.5328 Z0.1442
N920 X2.4956 Z0.1512
N921 X2.3841 Z0.1477
N922 X2.3283 Z0.1227
N923 X1.6217
N924 X1.5659 Z0.1483
N925 X1.4544 Z0.1511
N926 X1.4172 Z0.1432
N927 X1.38 Z0.1203
N928 Z0.1212 A278.
N929 Z0.1222 A280.
N930 X1.4172 Z0.1452
N931 X1.4544 Z0.1533
N932 X1.5659 Z0.1504
N933 X1.6031 Z0.135
N934 X1.6217 Z0.1229
N935 X2.3283
N936 X2.3841 Z0.1498
N937 X2.4956 Z0.1534
N938 X2.5328 Z0.1463
N939 X2.57 Z0.1246
N940 Z0.1259 A282.
N941 Z0.1274 A284.
N942 X2.5328 Z0.1494
N943 X2.4956 Z0.1566
N944 X2.3841 Z0.153
N945 X2.3469 Z0.1362
N946 X2.3283 Z0.1227
N947 X1.6217 Z0.1234
N948 X1.6031 Z0.138
N949 X1.5659 Z0.1536
N950 X1.4544 Z0.1565
N951 X1.4172 Z0.1484
N952 X1.38 Z0.125
N953 Y0.0001 Z0.1267 A286.
N954 Y0. Z0.1286 A288.
N955 X1.4172 Z0.1519
N956 X1.4544 Z0.16
N957 X1.5659 Z0.1572
N958 X1.6031 Z0.1416
N959 X1.6217 Z0.127
N960 X1.6403 Z0.1227
N961 X2.3283 Z0.1243
N962 X2.3469 Z0.1398
N963 X2.3841 Z0.1565
N964 X2.4956 Z0.1601
N965 X2.5328 Z0.153
N966 X2.57 Z0.1311
N967 Y0.0001 Z0.1325 A290.
N968 Y0. Z0.134 A292.
N969 X2.5328 Z0.1556
N970 X2.4956 Z0.1626
N971 X2.3841 Z0.159
N972 X2.3469 Z0.1425
N973 X2.3283 Z0.1273
N974 X2.3097 Z0.1229
N975 X1.6403
N976 X1.6217 Z0.13
N977 X1.6031 Z0.1443
N978 X1.5659 Z0.1597
N979 X1.4544 Z0.1625
N980 X1.4172 Z0.1545
N981 X1.38 Z0.1315
N982 Z0.1323 A294.
N983 Z0.1333 A296.
N984 X1.4172 Z0.1561
N985 X1.4544 Z0.164
N986 X1.5659 Z0.1612
N987 X1.6031 Z0.146
N988 X1.6403 Z0.1226
N989 X2.3097
N990 X2.3283 Z0.1291
N991 X2.3469 Z0.1442
N992 X2.3841 Z0.1605
N993 X2.4956 Z0.1641
N994 X2.5328 Z0.1571
N995 X2.57 Z0.1357
N996 Z0.1359 A298.
N997 Z0.1363 A300.
N998 X2.5328 Z0.1576
N999 X2.4956 Z0.1646
N1000 X2.3841 Z0.1611
N1001 X2.3469 Z0.1447
N1002 X2.3283 Z0.1297
N1003 X2.3097 Z0.1228
N1004 X1.6403
N1005 X1.6031 Z0.1465
N1006 X1.5659 Z0.1617
N1007 X1.4544 Z0.1645
N1008 X1.4172 Z0.1566
N1009 X1.38 Z0.1339
N1010 Z0.1335 A302.
N1011 Z0.1333 A304.
N1012 X1.4172 Z0.1561
N1013 X1.4544 Z0.164
N1014 X1.5659 Z0.1612
N1015 X1.6031 Z0.146
N1016 X1.6403 Z0.1229
N1017 X2.3097
N1018 X2.3283 Z0.1291
N1019 X2.3469 Z0.1442
N1020 X2.3841 Z0.1605
N1021 X2.4956 Z0.1641
N1022 X2.5328 Z0.1571
N1023 X2.57 Z0.1357
N1024 Z0.1348 A306.
N1025 Z0.134 A308.
N1026 X2.5328 Z0.1556
N1027 X2.4956 Z0.1626
N1028 X2.3841 Z0.159
N1029 X2.3469 Z0.1425
N1030 X2.3283 Z0.1273
N1031 X2.3097 Z0.1226
N1032 X1.6403
N1033 X1.6217 Z0.13
N1034 X1.6031 Z0.1443
N1035 X1.5659 Z0.1597
N1036 X1.4544 Z0.1625
N1037 X1.4172 Z0.1545
N1038 X1.38 Z0.1315
N1039 Y-0.0001 Z0.13 A310.
N1040 Y0. Z0.1286 A312.
N1041 X1.4172 Z0.1519
N1042 X1.4544 Z0.16
N1043 X1.5659 Z0.1572
N1044 X1.6031 Z0.1416
N1045 X1.6217 Z0.127
N1046 X1.6403 Z0.1228
N1047 X2.3283 Z0.1243
N1048 X2.3469 Z0.1398
N1049 X2.3841 Z0.1565
N1050 X2.4956 Z0.1601
N1051 X2.5328 Z0.153
N1052 X2.57 Z0.1311
N1053 Y-0.0001 Z0.1292 A314.
N1054 Y0. Z0.1274 A316.
N1055 X2.5328 Z0.1494
N1056 X2.4956 Z0.1566
N1057 X2.3841 Z0.153
N1058 X2.3469 Z0.1362
N1059 X2.3283 Z0.1229
N1060 X1.6217 Z0.1234
N1061 X1.6031 Z0.138
N1062 X1.5659 Z0.1536
N1063 X1.4544 Z0.1565
N1064 X1.4172 Z0.1484
N1065 X1.38 Z0.125
N1066 Z0.1235 A318.
N1067 Z0.1222 A320.
N1068 X1.4172 Z0.1452
N1069 X1.4544 Z0.1533
N1070 X1.5659 Z0.1504
N1071 X1.6031 Z0.135
N1072 X1.6217 Z0.1226
N1073 X2.3283
N1074 X2.3841 Z0.1498
N1075 X2.4956 Z0.1534
N1076 X2.5328 Z0.1463
N1077 X2.57 Z0.1246
N1078 Z0.1236 A322.
N1079 Z0.1227 A324.
N1080 X2.5328 Z0.1442
N1081 X2.4956 Z0.1512
N1082 X2.3841 Z0.1477
N1083 X2.3283 Z0.1228
N1084 X1.6217
N1085 X1.5659 Z0.1483
N1086 X1.4544 Z0.1511
N1087 X1.4172 Z0.1432
N1088 X1.38 Z0.1203
N1089 Z0.1198 A326.
N1090 Z0.1194 A328.
N1091 X1.4172 Z0.1422
N1092 X1.4544 Z0.1501
N1093 X1.5659 Z0.1473
N1094 X1.6217 Z0.1229
N1095 X2.3283
N1096 X2.3841 Z0.1466
N1097 X2.4956 Z0.1502
N1098 X2.5328 Z0.1432
N1099 X2.57 Z0.1218
N1100 Z0.1218 A330.
N1101 Z0.1218 A332.
N1102 X2.5328 Z0.1432
N1103 X2.4956 Z0.1502
N1104 X2.3841 Z0.1466
N1105 X2.3283 Z0.1226
N1106 X1.6217
N1107 X1.5659 Z0.1473
N1108 X1.4544 Z0.1501
N1109 X1.4172 Z0.1422
N1110 X1.38 Z0.1194
N1111 Z0.1198 A334.
N1112 Z0.1203 A336.
N1113 X1.4172 Z0.1432
N1114 X1.4544 Z0.1511
N1115 X1.5659 Z0.1483
N1116 X1.6217 Z0.1228
N1117 X2.3283
N1118 X2.3841 Z0.1477
N1119 X2.4956 Z0.1512
N1120 X2.5328 Z0.1442
N1121 X2.57 Z0.1227
N1122 Z0.1236 A338.
N1123 Z0.1246 A340.
N1124 X2.5328 Z0.1463
N1125 X2.4956 Z0.1534
N1126 X2.3841 Z0.1498
N1127 X2.3283 Z0.1229
N1128 X1.6217
N1129 X1.6031 Z0.135
N1130 X1.5659 Z0.1504
N1131 X1.4544 Z0.1533
N1132 X1.4172 Z0.1452
N1133 X1.38 Z0.1222
N1134 Z0.1235 A342.
N1135 Z0.125 A344.
N1136 X1.4172 Z0.1484
N1137 X1.4544 Z0.1565
N1138 X1.5659 Z0.1536
N1139 X1.6031 Z0.138
N1140 X1.6217 Z0.1234
N1141 X2.3283 Z0.1226
N1142 X2.3469 Z0.1362
N1143 X2.3841 Z0.153
N1144 X2.4956 Z0.1566
N1145 X2.5328 Z0.1494
N1146 X2.57 Z0.1274
N1147 Y0.0001 Z0.1292 A346.
N1148 Y0. Z0.1311 A348.
N1149 X2.5328 Z0.153
N1150 X2.4956 Z0.1601
N1151 X2.3841 Z0.1565
N1152 X2.3469 Z0.1398
N1153 X2.3283 Z0.1243
N1154 X1.6403 Z0.1229
N1155 X1.6217 Z0.127
N1156 X1.6031 Z0.1416
N1157 X1.5659 Z0.1572
N1158 X1.4544 Z0.16
N1159 X1.4172 Z0.1519
N1160 X1.38 Z0.1286
N1161 Y0.0001 Z0.13 A350.
N1162 Y0. Z0.1315 A352.
N1163 X1.4172 Z0.1545
N1164 X1.4544 Z0.1625
N1165 X1.5659 Z0.1597
N1166 X1.6031 Z0.1443
N1167 X1.6217 Z0.13
N1168 X1.6403 Z0.1228
N1169 X2.3097
N1170 X2.3283 Z0.1273
N1171 X2.3469 Z0.1425
N1172 X2.3841 Z0.159
N1173 X2.4956 Z0.1626
N1174 X2.5328 Z0.1556
N1175 X2.57 Z0.134
N1176 Z0.1348 A354.
N1177 Z0.1357 A356.
N1178 X2.5328 Z0.1571
N1179 X2.4956 Z0.1641
N1180 X2.3841 Z0.1605
N1181 X2.3469 Z0.1442
N1182 X2.3283 Z0.1291
N1183 X2.3097 Z0.1227
N1184 X1.6403
N1185 X1.6031 Z0.146
N1186 X1.5659 Z0.1612
N1187 X1.4544 Z0.164
N1188 X1.4172 Z0.1561
N1189 X1.38 Z0.1333
N1190 Z0.1039 A360.
N1191 X1.4172 Z0.1266
N1192 X1.4544 Z0.1345
N1193 X1.5659 Z0.1317
N1194 X1.6031 Z0.1165
N1195 X1.6403 Z0.0929
N1196 X2.3097
N1197 X2.3283 Z0.0997
N1198 X2.3469 Z0.1147
N1199 X2.3841 Z0.1311
N1200 X2.4956 Z0.1346
N1201 X2.5328 Z0.1276
N1202 X2.57 Z0.1063
N1203 Z0.1059 A362.
N1204 Z0.1057 A364.
N1205 X2.5328 Z0.1271
N1206 X2.4956 Z0.1341
N1207 X2.3841 Z0.1305
N1208 X2.3469 Z0.1142
N1209 X2.3283 Z0.0991
N1210 X2.3097 Z0.0927
N1211 X1.6403
N1212 X1.6031 Z0.116
N1213 X1.5659 Z0.1312
N1214 X1.4544 Z0.134
N1215 X1.4172 Z0.1261
N1216 X1.38 Z0.1033
N1217 Z0.1024 A366.
N1218 Z0.1015 A368.
N1219 X1.4172 Z0.1245
N1220 X1.4544 Z0.1325
N1221 X1.5659 Z0.1297
N1222 X1.6031 Z0.1143
N1223 X1.6217 Z0.1
N1224 X1.6403 Z0.0928
N1225 X2.3097
N1226 X2.3283 Z0.0973
N1227 X2.3469 Z0.1125
N1228 X2.3841 Z0.129
N1229 X2.4956 Z0.1326
N1230 X2.5328 Z0.1256
N1231 X2.57 Z0.104
N1232 Y-0.0001 Z0.1025 A370.
N1233 Y0. Z0.1011 A372.
N1234 X2.5328 Z0.123
N1235 X2.4956 Z0.1301
N1236 X2.3841 Z0.1265
N1237 X2.3469 Z0.1098
N1238 X2.3283 Z0.0943
N1239 X1.6403 Z0.0929
N1240 X1.6217 Z0.097
N1241 X1.6031 Z0.1116
N1242 X1.5659 Z0.1272
N1243 X1.4544 Z0.13
N1244 X1.4172 Z0.1219
N1245 X1.38 Z0.0986
N1246 Y-0.0001 Z0.0967 A374.
N1247 Y0. Z0.095 A376.
N1248 X1.4172 Z0.1184
N1249 X1.4544 Z0.1265
N1250 X1.5659 Z0.1236
N1251 X1.6031 Z0.108
N1252 X1.6217 Z0.0934
N1253 X2.3283 Z0.0926
N1254 X2.3469 Z0.1062
N1255 X2.3841 Z0.123
N1256 X2.4956 Z0.1266
N1257 X2.5328 Z0.1194
N1258 X2.57 Z0.0974
N1259 Z0.096 A378.
N1260 Z0.0946 A380.
N1261 X2.5328 Z0.1163
N1262 X2.4956 Z0.1234
N1263 X2.3841 Z0.1198
N1264 X2.3283 Z0.0929
N1265 X1.6217
N1266 X1.6031 Z0.105
N1267 X1.5659 Z0.1204
N1268 X1.4544 Z0.1233
N1269 X1.4172 Z0.1152
N1270 X1.38 Z0.0922
N1271 Z0.0912 A382.
N1272 Z0.0903 A384.
N1273 X1.4172 Z0.1132
N1274 X1.4544 Z0.1211
N1275 X1.5659 Z0.1183
N1276 X1.6217 Z0.0928
N1277 X2.3283
N1278 X2.3841 Z0.1177
N1279 X2.4956 Z0.1212
N1280 X2.5328 Z0.1142
N1281 X2.57 Z0.0927
N1282 Z0.0922 A386.
N1283 Z0.0918 A388.
N1284 X2.5328 Z0.1132
N1285 X2.4956 Z0.1202
N1286 X2.3841 Z0.1166
N1287 X2.3283 Z0.0926
N1288 X1.6217
N1289 X1.5659 Z0.1173
N1290 X1.4544 Z0.1201
N1291 X1.4172 Z0.1122
N1292 X1.38 Z0.0894
N1293 Z0.0894 A390.
N1294 Z0.0894 A392.
N1295 X1.4172 Z0.1122
N1296 X1.4544 Z0.1201
N1297 X1.5659 Z0.1173
N1298 X1.6217 Z0.0929
N1299 X2.3283
N1300 X2.3841 Z0.1166
N1301 X2.4956 Z0.1202
N1302 X2.5328 Z0.1132
N1303 X2.57 Z0.0918
N1304 Z0.0922 A394.
N1305 Z0.0927 A396.
N1306 X2.5328 Z0.1142
N1307 X2.4956 Z0.1212
N1308 X2.3841 Z0.1177
N1309 X2.3283 Z0.0928
N1310 X1.6217
N1311 X1.5659 Z0.1183
N1312 X1.4544 Z0.1211
N1313 X1.4172 Z0.1132
N1314 X1.38 Z0.0903
N1315 Z0.0912 A398.
N1316 Z0.0922 A400.
N1317 X1.4172 Z0.1152
N1318 X1.4544 Z0.1233
N1319 X1.5659 Z0.1204
N1320 X1.6031 Z0.105
N1321 X1.6217 Z0.0926
N1322 X2.3283
N1323 X2.3841 Z0.1198
N1324 X2.4956 Z0.1234
N1325 X2.5328 Z0.1163
N1326 X2.57 Z0.0946
N1327 Z0.096 A402.
N1328 Z0.0974 A404.
N1329 X2.5328 Z0.1194
N1330 X2.4956 Z0.1266
N1331 X2.3841 Z0.123
N1332 X2.3469 Z0.1062
N1333 X2.3283 Z0.0929
N1334 X1.6217 Z0.0934
N1335 X1.6031 Z0.108
N1336 X1.5659 Z0.1236
N1337 X1.4544 Z0.1265
N1338 X1.4172 Z0.1184
N1339 X1.38 Z0.095
N1340 Y0.0001 Z0.0967 A406.
N1341 Y0. Z0.0986 A408.
N1342 X1.4172 Z0.1219
N1343 X1.4544 Z0.13
N1344 X1.5659 Z0.1272
N1345 X1.6031 Z0.1116
N1346 X1.6217 Z0.097
N1347 X1.6403 Z0.0928
N1348 X2.3283 Z0.0943
N1349 X2.3469 Z0.1098
N1350 X2.3841 Z0.1265
N1351 X2.4956 Z0.1301
N1352 X2.5328 Z0.123
N1353 X2.57 Z0.1011
N1354 Y0.0001 Z0.1025 A410.
N1355 Y0. Z0.104 A412.
N1356 X2.5328 Z0.1256
N1357 X2.4956 Z0.1326
N1358 X2.3841 Z0.129
N1359 X2.3469 Z0.1125
N1360 X2.3283 Z0.0973
N1361 X2.3097 Z0.0926
N1362 X1.6403
N1363 X1.6217 Z0.1
N1364 X1.6031 Z0.1143
N1365 X1.5659 Z0.1297
N1366 X1.4544 Z0.1325
N1367 X1.4172 Z0.1245
N1368 X1.38 Z0.1015
N1369 Z0.1024 A414.
N1370 Z0.1033 A416.
N1371 X1.4172 Z0.1261
N1372 X1.4544 Z0.134
N1373 X1.5659 Z0.1312
N1374 X1.6031 Z0.116
N1375 X1.6403 Z0.0929
N1376 X2.3097
N1377 X2.3283 Z0.0991
N1378 X2.3469 Z0.1142
N1379 X2.3841 Z0.1305
N1380 X2.4956 Z0.1341
N1381 X2.5328 Z0.1271
N1382 X2.57 Z0.1057
N1383 Z0.1059 A418.
N1384 Z0.1063 A420.
N1385 X2.5328 Z0.1276
N1386 X2.4956 Z0.1346
N1387 X2.3841 Z0.1311
N1388 X2.3469 Z0.1147
N1389 X2.3283 Z0.0997
N1390 X2.3097 Z0.0928
N1391 X1.6403
N1392 X1.6031 Z0.1165
N1393 X1.5659 Z0.1317
N1394 X1.4544 Z0.1345
N1395 X1.4172 Z0.1266
N1396 X1.38 Z0.1039
N1397 Z0.1035 A422.
N1398 Z0.1033 A424.
N1399 X1.4172 Z0.1261
N1400 X1.4544 Z0.134
N1401 X1.5659 Z0.1312
N1402 X1.6031 Z0.116
N1403 X1.6403 Z0.0926
N1404 X2.3097
N1405 X2.3283 Z0.0991
N1406 X2.3469 Z0.1142
N1407 X2.3841 Z0.1305
N1408 X2.4956 Z0.1341
N1409 X2.5328 Z0.1271
N1410 X2.57 Z0.1057
N1411 Z0.1048 A426.
N1412 Z0.104 A428.
N1413 X2.5328 Z0.1256
N1414 X2.4956 Z0.1326
N1415 X2.3841 Z0.129
N1416 X2.3469 Z0.1125
N1417 X2.3283 Z0.0973
N1418 X2.3097 Z0.0929
N1419 X1.6403
N1420 X1.6217 Z0.1
N1421 X1.6031 Z0.1143
N1422 X1.5659 Z0.1297
N1423 X1.4544 Z0.1325
N1424 X1.4172 Z0.1245
N1425 X1.38 Z0.1015
N1426 Y-0.0001 Z0.1 A430.
N1427 Y0. Z0.0986 A432.
N1428 X1.4172 Z0.1219
N1429 X1.4544 Z0.13
N1430 X1.5659 Z0.1272
N1431 X1.6031 Z0.1116
N1432 X1.6217 Z0.097
N1433 X1.6403 Z0.0927
N1434 X2.3283 Z0.0943
N1435 X2.3469 Z0.1098
N1436 X2.3841 Z0.1265
N1437 X2.4956 Z0.1301
N1438 X2.5328 Z0.123
N1439 X2.57 Z0.1011
N1440 Y-0.0001 Z0.0992 A434.
N1441 Y0. Z0.0974 A436.
N1442 X2.5328 Z0.1194
N1443 X2.4956 Z0.1266
N1444 X2.3841 Z0.123
N1445 X2.3469 Z0.1062
N1446 X2.3283 Z0.0927
N1447 X1.6217 Z0.0934
N1448 X1.6031 Z0.108
N1449 X1.5659 Z0.1236
N1450 X1.4544 Z0.1265
N1451 X1.4172 Z0.1184
N1452 X1.38 Z0.095
N1453 Z0.0935 A438.
N1454 Z0.0922 A440.
N1455 X1.4172 Z0.1152
N1456 X1.4544 Z0.1233
N1457 X1.5659 Z0.1204
N1458 X1.6031 Z0.105
N1459 X1.6217 Z0.0929
N1460 X2.3283
N1461 X2.3841 Z0.1198
N1462 X2.4956 Z0.1234
N1463 X2.5328 Z0.1163
N1464 X2.57 Z0.0946
N1465 Z0.0936 A442.
N1466 Z0.0927 A444.
N1467 X2.5328 Z0.1142
N1468 X2.4956 Z0.1212
N1469 X2.3841 Z0.1177
N1470 X2.3283 Z0.0927
N1471 X1.6217
N1472 X1.5659 Z0.1183
N1473 X1.4544 Z0.1211
N1474 X1.4172 Z0.1132
N1475 X1.38 Z0.0903
N1476 Z0.0898 A446.
N1477 Z0.0894 A448.
N1478 X1.4172 Z0.1122
N1479 X1.4544 Z0.1201
N1480 X1.5659 Z0.1173
N1481 X1.6217 Z0.0929
N1482 X2.3283
N1483 X2.3841 Z0.1166
N1484 X2.4956 Z0.1202
N1485 X2.5328 Z0.1132
N1486 X2.57 Z0.0918
N1487 Z0.0918 A450.
N1488 Z0.0918 A452.
N1489 X2.5328 Z0.1132
N1490 X2.4956 Z0.1202
N1491 X2.3841 Z0.1166
N1492 X2.3283 Z0.0929
N1493 X1.6217
N1494 X1.5659 Z0.1173
N1495 X1.4544 Z0.1201
N1496 X1.4172 Z0.1122
N1497 X1.38 Z0.0894
N1498 Z0.0898 A454.
N1499 Z0.0903 A456.
N1500 X1.4172 Z0.1132
N1501 X1.4544 Z0.1211
N1502 X1.5659 Z0.1183
N1503 X1.6217 Z0.0927
N1504 X2.3283
N1505 X2.3841 Z0.1177
N1506 X2.4956 Z0.1212
N1507 X2.5328 Z0.1142
N1508 X2.57 Z0.0927
N1509 Z0.0936 A458.
N1510 Z0.0946 A460.
N1511 X2.5328 Z0.1163
N1512 X2.4956 Z0.1234
N1513 X2.3841 Z0.1198
N1514 X2.3283 Z0.0929
N1515 X1.6217
N1516 X1.6031 Z0.105
N1517 X1.5659 Z0.1204
N1518 X1.4544 Z0.1233
N1519 X1.4172 Z0.1152
N1520 X1.38 Z0.0922
N1521 Z0.0935 A462.
N1522 Z0.095 A464.
N1523 X1.4172 Z0.1184
N1524 X1.4544 Z0.1265
N1525 X1.5659 Z0.1236
N1526 X1.6031 Z0.108
N1527 X1.6217 Z0.0934
N1528 X2.3283 Z0.0927
N1529 X2.3469 Z0.1062
N1530 X2.3841 Z0.123
N1531 X2.4956 Z0.1266
N1532 X2.5328 Z0.1194
N1533 X2.57 Z0.0974
N1534 Y0.0001 Z0.0992 A466.
N1535 Y0. Z0.1011 A468.
N1536 X2.5328 Z0.123
N1537 X2.4956 Z0.1301
N1538 X2.3841 Z0.1265
N1539 X2.3469 Z0.1098
N1540 X2.3283 Z0.0943
N1541 X1.6403 Z0.0927
N1542 X1.6217 Z0.097
N1543 X1.6031 Z0.1116
N1544 X1.5659 Z0.1272
N1545 X1.4544 Z0.13
N1546 X1.4172 Z0.1219
N1547 X1.38 Z0.0986
N1548 Y0.0001 Z0.1 A470.
N1549 Y0. Z0.1015 A472.
N1550 X1.4172 Z0.1245
N1551 X1.4544 Z0.1325
N1552 X1.5659 Z0.1297
N1553 X1.6031 Z0.1143
N1554 X1.6217 Z0.1
N1555 X1.6403 Z0.0929
N1556 X2.3097
N1557 X2.3283 Z0.0973
N1558 X2.3469 Z0.1125
N1559 X2.3841 Z0.129
N1560 X2.4956 Z0.1326
N1561 X2.5328 Z0.1256
N1562 X2.57 Z0.104
N1563 Z0.1048 A474.
N1564 Z0.1057 A476.
N1565 X2.5328 Z0.1271
N1566 X2.4956 Z0.1341
N1567 X2.3841 Z0.1305
N1568 X2.3469 Z0.1142
N1569 X2.3283 Z0.0991
N1570 X2.3097 Z0.0926
N1571 X1.6403
N1572 X1.6031 Z0.116
N1573 X1.5659 Z0.1312
N1574 X1.4544 Z0.134
N1575 X1.4172 Z0.1261
N1576 X1.38 Z0.1033
N1577 Z0.1035 A478.
N1578 Z0.1039 A480.
N1579 X1.4172 Z0.1266
N1580 X1.4544 Z0.1345
N1581 X1.5659 Z0.1317
N1582 X1.6031 Z0.1165
N1583 X1.6403 Z0.0928
N1584 X2.3097
N1585 X2.3283 Z0.0997
N1586 X2.3469 Z0.1147
N1587 X2.3841 Z0.1311
N1588 X2.4956 Z0.1346
N1589 X2.5328 Z0.1276
N1590 X2.57 Z0.1063
N1591 Z0.1059 A482.
N1592 Z0.1057 A484.
N1593 X2.5328 Z0.1271
N1594 X2.4956 Z0.1341
N1595 X2.3841 Z0.1305
N1596 X2.3469 Z0.1142
N1597 X2.3283 Z0.0991
N1598 X2.3097 Z0.0929
N1599 X1.6403
N1600 X1.6031 Z0.116
N1601 X1.5659 Z0.1312
N1602 X1.4544 Z0.134
N1603 X1.4172 Z0.1261
N1604 X1.38 Z0.1033
N1605 Z0.1024 A486.
N1606 Z0.1015 A488.
N1607 X1.4172 Z0.1245
N1608 X1.4544 Z0.1325
N1609 X1.5659 Z0.1297
N1610 X1.6031 Z0.1143
N1611 X1.6217 Z0.1
N1612 X1.6403 Z0.0926
N1613 X2.3097
N1614 X2.3283 Z0.0973
N1615 X2.3469 Z0.1125
N1616 X2.3841 Z0.129
N1617 X2.4956 Z0.1326
N1618 X2.5328 Z0.1256
N1619 X2.57 Z0.104
N1620 Y-0.0001 Z0.1025 A490.
N1621 Y0. Z0.1011 A492.
N1622 X2.5328 Z0.123
N1623 X2.4956 Z0.1301
N1624 X2.3841 Z0.1265
N1625 X2.3469 Z0.1098
N1626 X2.3283 Z0.0943
N1627 X1.6403 Z0.0928
N1628 X1.6217 Z0.097
N1629 X1.6031 Z0.1116
N1630 X1.5659 Z0.1272
N1631 X1.4544 Z0.13
N1632 X1.4172 Z0.1219
N1633 X1.38 Z0.0986
N1634 Y-0.0001 Z0.0967 A494.
N1635 Y0. Z0.095 A496.
N1636 X1.4172 Z0.1184
N1637 X1.4544 Z0.1265
N1638 X1.5659 Z0.1236
N1639 X1.6031 Z0.108
N1640 X1.6217 Z0.0934
N1641 X2.3283 Z0.0929
N1642 X2.3469 Z0.1062
N1643 X2.3841 Z0.123
N1644 X2.4956 Z0.1266
N1645 X2.5328 Z0.1194
N1646 X2.57 Z0.0974
N1647 Z0.096 A498.
N1648 Z0.0946 A500.
N1649 X2.5328 Z0.1163
N1650 X2.4956 Z0.1234
N1651 X2.3841 Z0.1198
N1652 X2.3283 Z0.0926
N1653 X1.6217
N1654 X1.6031 Z0.105
N1655 X1.5659 Z0.1204
N1656 X1.4544 Z0.1233
N1657 X1.4172 Z0.1152
N1658 X1.38 Z0.0922
N1659 Z0.0912 A502.
N1660 Z0.0903 A504.
N1661 X1.4172 Z0.1132
N1662 X1.4544 Z0.1211
N1663 X1.5659 Z0.1183
N1664 X1.6217 Z0.0928
N1665 X2.3283
N1666 X2.3841 Z0.1177
N1667 X2.4956 Z0.1212
N1668 X2.5328 Z0.1142
N1669 X2.57 Z0.0927
N1670 Z0.0922 A506.
N1671 Z0.0918 A508.
N1672 X2.5328 Z0.1132
N1673 X2.4956 Z0.1202
N1674 X2.3841 Z0.1166
N1675 X2.3283 Z0.0929
N1676 X1.6217
N1677 X1.5659 Z0.1173
N1678 X1.4544 Z0.1201
N1679 X1.4172 Z0.1122
N1680 X1.38 Z0.0894
N1681 Z0.0894 A510.
N1682 Z0.0894 A512.
N1683 X1.4172 Z0.1122
N1684 X1.4544 Z0.1201
N1685 X1.5659 Z0.1173
N1686 X1.6217 Z0.0926
N1687 X2.3283
N1688 X2.3841 Z0.1166
N1689 X2.4956 Z0.1202
N1690 X2.5328 Z0.1132
N1691 X2.57 Z0.0918
N1692 Z0.0922 A514.
N1693 Z0.0927 A516.
N1694 X2.5328 Z0.1142
N1695 X2.4956 Z0.1212
N1696 X2.3841 Z0.1177
N1697 X2.3283 Z0.0928
N1698 X1.6217
N1699 X1.5659 Z0.1183
N1700 X1.4544 Z0.1211
N1701 X1.4172 Z0.1132
N1702 X1.38 Z0.0903
N1703 Z0.0912 A518.
N1704 Z0.0922 A520.
N1705 X1.4172 Z0.1152
N1706 X1.4544 Z0.1233
N1707 X1.5659 Z0.1204
N1708 X1.6031 Z0.105
N1709 X1.6217 Z0.0929
N1710 X2.3283
N1711 X2.3841 Z0.1198
N1712 X2.4956 Z0.1234
N1713 X2.5328 Z0.1163
N1714 X2.57 Z0.0946
N1715 Z0.096 A522.
N1716 Z0.0974 A524.
N1717 X2.5328 Z0.1194
N1718 X2.4956 Z0.1266
N1719 X2.3841 Z0.123
N1720 X2.3469 Z0.1062
N1721 X2.3283 Z0.0926
N1722 X1.6217 Z0.0934
N1723 X1.6031 Z0.108
N1724 X1.5659 Z0.1236
N1725 X1.4544 Z0.1265
N1726 X1.4172 Z0.1184
N1727 X1.38 Z0.095
N1728 Y0.0001 Z0.0967 A526.
N1729 Y0. Z0.0986 A528.
N1730 X1.4172 Z0.1219
N1731 X1.4544 Z0.13
N1732 X1.5659 Z0.1272
N1733 X1.6031 Z0.1116
N1734 X1.6217 Z0.097
N1735 X1.6403 Z0.0929
N1736 X2.3283 Z0.0943
N1737 X2.3469 Z0.1098
N1738 X2.3841 Z0.1265
N1739 X2.4956 Z0.1301
N1740 X2.5328 Z0.123
N1741 X2.57 Z0.1011
N1742 Y0.0001 Z0.1025 A530.
N1743 Y0. Z0.104 A532.
N1744 X2.5328 Z0.1256
N1745 X2.4956 Z0.1326
N1746 X2.3841 Z0.129
N1747 X2.3469 Z0.1125
N1748 X2.3283 Z0.0973
N1749 X2.3097 Z0.0928
N1750 X1.6403
N1751 X1.6217 Z0.1
N1752 X1.6031 Z0.1143
N1753 X1.5659 Z0.1297
N1754 X1.4544 Z0.1325
N1755 X1.4172 Z0.1245
N1756 X1.38 Z0.1015
N1757 Z0.1024 A534.
N1758 Z0.1033 A536.
N1759 X1.4172 Z0.1261
N1760 X1.4544 Z0.134
N1761 X1.5659 Z0.1312
N1762 X1.6031 Z0.116
N1763 X1.6403 Z0.0927
N1764 X2.3097
N1765 X2.3283 Z0.0991
N1766 X2.3469 Z0.1142
N1767 X2.3841 Z0.1305
N1768 X2.4956 Z0.1341
N1769 X2.5328 Z0.1271
N1770 X2.57 Z0.1057
N1771 Z0.1059 A538.
N1772 Z0.1063 A540.
N1773 X2.5328 Z0.1276
N1774 X2.4956 Z0.1346
N1775 X2.3841 Z0.1311
N1776 X2.3469 Z0.1147
N1777 X2.3283 Z0.0997
N1778 X2.3097 Z0.0929
N1779 X1.6403
N1780 X1.6031 Z0.1165
N1781 X1.5659 Z0.1317
N1782 X1.4544 Z0.1345
N1783 X1.4172 Z0.1266
N1784 X1.38 Z0.1039
N1785 Z0.1035 A542.
N1786 Z0.1033 A544.
N1787 X1.4172 Z0.1261
N1788 X1.4544 Z0.134
N1789 X1.5659 Z0.1312
N1790 X1.6031 Z0.116
N1791 X1.6403 Z0.0927
N1792 X2.3097
N1793 X2.3283 Z0.0991
N1794 X2.3469 Z0.1142
N1795 X2.3841 Z0.1305
N1796 X2.4956 Z0.1341
N1797 X2.5328 Z0.1271
N1798 X2.57 Z0.1057
N1799 Z0.1048 A546.
N1800 Z0.104 A548.
N1801 X2.5328 Z0.1256
N1802 X2.4956 Z0.1326
N1803 X2.3841 Z0.129
N1804 X2.3469 Z0.1125
N1805 X2.3283 Z0.0973
N1806 X2.3097 Z0.0928
N1807 X1.6403
N1808 X1.6217 Z0.1
N1809 X1.6031 Z0.1143
N1810 X1.5659 Z0.1297
N1811 X1.4544 Z0.1325
N1812 X1.4172 Z0.1245
N1813 X1.38 Z0.1015
N1814 Y-0.0001 Z0.1 A550.
N1815 Y0. Z0.0986 A552.
N1816 X1.4172 Z0.1219
N1817 X1.4544 Z0.13
N1818 X1.5659 Z0.1272
N1819 X1.6031 Z0.1116
N1820 X1.6217 Z0.097
N1821 X1.6403 Z0.0929
N1822 X2.3283 Z0.0943
N1823 X2.3469 Z0.1098
N1824 X2.3841 Z0.1265
N1825 X2.4956 Z0.1301
N1826 X2.5328 Z0.123
N1827 X2.57 Z0.1011
N1828 Y-0.0001 Z0.0992 A554.
N1829 Y0. Z0.0974 A556.
N1830 X2.5328 Z0.1194
N1831 X2.4956 Z0.1266
N1832 X2.3841 Z0.123
N1833 X2.3469 Z0.1062
N1834 X2.3283 Z0.0926
N1835 X1.6217 Z0.0934
N1836 X1.6031 Z0.108
N1837 X1.5659 Z0.1236
N1838 X1.4544 Z0.1265
N1839 X1.4172 Z0.1184
N1840 X1.38 Z0.095
N1841 Z0.0935 A558.
N1842 Z0.0922 A560.
N1843 X1.4172 Z0.1152
N1844 X1.4544 Z0.1233
N1845 X1.5659 Z0.1204
N1846 X1.6031 Z0.105
N1847 X1.6217 Z0.0929
N1848 X2.3283
N1849 X2.3841 Z0.1198
N1850 X2.4956 Z0.1234
N1851 X2.5328 Z0.1163
N1852 X2.57 Z0.0946
N1853 Z0.0936 A562.
N1854 Z0.0927 A564.
N1855 X2.5328 Z0.1142
N1856 X2.4956 Z0.1212
N1857 X2.3841 Z0.1177
N1858 X2.3283 Z0.0928
N1859 X1.6217
N1860 X1.5659 Z0.1183
N1861 X1.4544 Z0.1211
N1862 X1.4172 Z0.1132
N1863 X1.38 Z0.0903
N1864 Z0.0898 A566.
N1865 Z0.0894 A568.
N1866 X1.4172 Z0.1122
N1867 X1.4544 Z0.1201
N1868 X1.5659 Z0.1173
N1869 X1.6217 Z0.0926
N1870 X2.3283
N1871 X2.3841 Z0.1166
N1872 X2.4956 Z0.1202
N1873 X2.5328 Z0.1132
N1874 X2.57 Z0.0918
N1875 Z0.0918 A570.
N1876 Z0.0918 A572.
N1877 X2.5328 Z0.1132
N1878 X2.4956 Z0.1202
N1879 X2.3841 Z0.1166
N1880 X2.3283 Z0.0929
N1881 X1.6217
N1882 X1.5659 Z0.1173
N1883 X1.4544 Z0.1201
N1884 X1.4172 Z0.1122
N1885 X1.38 Z0.0894
N1886 Z0.0898 A574.
N1887 Z0.0903 A576.
N1888 X1.4172 Z0.1132
N1889 X1.4544 Z0.1211
N1890 X1.5659 Z0.1183
N1891 X1.6217 Z0.0928
N1892 X2.3283
N1893 X2.3841 Z0.1177
N1894 X2.4956 Z0.1212
N1895 X2.5328 Z0.1142
N1896 X2.57 Z0.0927
N1897 Z0.0936 A578.
N1898 Z0.0946 A580.
N1899 X2.5328 Z0.1163
N1900 X2.4956 Z0.1234
N1901 X2.3841 Z0.1198
N1902 X2.3283 Z0.0926
N1903 X1.6217
N1904 X1.6031 Z0.105
N1905 X1.5659 Z0.1204
N1906 X1.4544 Z0.1233
N1907 X1.4172 Z0.1152
N1908 X1.38 Z0.0922
N1909 Z0.0935 A582.
N1910 Z0.095 A584.
N1911 X1.4172 Z0.1184
N1912 X1.4544 Z0.1265
N1913 X1.5659 Z0.1236
N1914 X1.6031 Z0.108
N1915 X1.6217 Z0.0934
N1916 X2.3283 Z0.0929
N1917 X2.3469 Z0.1062
N1918 X2.3841 Z0.123
N1919 X2.4956 Z0.1266
N1920 X2.5328 Z0.1194
N1921 X2.57 Z0.0974
N1922 Y0.0001 Z0.0992 A586.
N1923 Y0. Z0.1011 A588.
N1924 X2.5328 Z0.123
N1925 X2.4956 Z0.1301
N1926 X2.3841 Z0.1265
N1927 X2.3469 Z0.1098
N1928 X2.3283 Z0.0943
N1929 X1.6403 Z0.0928
N1930 X1.6217 Z0.097
N1931 X1.6031 Z0.1116
N1932 X1.5659 Z0.1272
N1933 X1.4544 Z0.13
N1934 X1.4172 Z0.1219
N1935 X1.38 Z0.0986
N1936 Y0.0001 Z0.1 A590.
N1937 Y0. Z0.1015 A592.
N1938 X1.4172 Z0.1245
N1939 X1.4544 Z0.1325
N1940 X1.5659 Z0.1297
N1941 X1.6031 Z0.1143
N1942 X1.6217 Z0.1
N1943 X1.6403 Z0.0926
N1944 X2.3097
N1945 X2.3283 Z0.0973
N1946 X2.3469 Z0.1125
N1947 X2.3841 Z0.129
N1948 X2.4956 Z0.1326
N1949 X2.5328 Z0.1256
N1950 X2.57 Z0.104
N1951 Z0.1048 A594.
N1952 Z0.1057 A596.
N1953 X2.5328 Z0.1271
N1954 X2.4956 Z0.1341
N1955 X2.3841 Z0.1305
N1956 X2.3469 Z0.1142
N1957 X2.3283 Z0.0991
N1958 X2.3097 Z0.0929
N1959 X1.6403
N1960 X1.6031 Z0.116
N1961 X1.5659 Z0.1312
N1962 X1.4544 Z0.134
N1963 X1.4172 Z0.1261
N1964 X1.38 Z0.1033
N1965 Z0.1035 A598.
N1966 Z0.1039 A600.
N1967 X1.4172 Z0.1266
N1968 X1.4544 Z0.1345
N1969 X1.5659 Z0.1317
N1970 X1.6031 Z0.1165
N1971 X1.6403 Z0.0928
N1972 X2.3097
N1973 X2.3283 Z0.0997
N1974 X2.3469 Z0.1147
N1975 X2.3841 Z0.1311
N1976 X2.4956 Z0.1346
N1977 X2.5328 Z0.1276
N1978 X2.57 Z0.1063
N1979 Z0.1059 A602.
N1980 Z0.1057 A604.
N1981 X2.5328 Z0.1271
N1982 X2.4956 Z0.1341
N1983 X2.3841 Z0.1305
N1984 X2.3469 Z0.1142
N1985 X2.3283 Z0.0991
N1986 X2.3097 Z0.0926
N1987 X1.6403
N1988 X1.6031 Z0.116
N1989 X1.5659 Z0.1312
N1990 X1.4544 Z0.134
N1991 X1.4172 Z0.1261
N1992 X1.38 Z0.1033
N1993 Z0.1024 A606.
N1994 Z0.1015 A608.
N1995 X1.4172 Z0.1245
N1996 X1.4544 Z0.1325
N1997 X1.5659 Z0.1297
N1998 X1.6031 Z0.1143
N1999 X1.6217 Z0.1
N2000 X1.6403 Z0.0929
N2001 X2.3097
N2002 X2.3283 Z0.0973
N2003 X2.3469 Z0.1125
N2004 X2.3841 Z0.129
N2005 X2.4956 Z0.1326
N2006 X2.5328 Z0.1256
N2007 X2.57 Z0.104
N2008 Y-0.0001 Z0.1025 A610.
N2009 Y0. Z0.1011 A612.
N2010 X2.5328 Z0.123
N2011 X2.4956 Z0.1301
N2012 X2.3841 Z0.1265
N2013 X2.3469 Z0.1098
N2014 X2.3283 Z0.0943
N2015 X1.6403 Z0.0927
N2016 X1.6217 Z0.097
N2017 X1.6031 Z0.1116
N2018 X1.5659 Z0.1272
N2019 X1.4544 Z0.13
N2020 X1.4172 Z0.1219
N2021 X1.38 Z0.0986
N2022 Y-0.0001 Z0.0967 A614.
N2023 Y0. Z0.095 A616.
N2024 X1.4172 Z0.1184
N2025 X1.4544 Z0.1265
N2026 X1.5659 Z0.1236
N2027 X1.6031 Z0.108
N2028 X1.6217 Z0.0934
N2029 X2.3283 Z0.0927
N2030 X2.3469 Z0.1062
N2031 X2.3841 Z0.123
N2032 X2.4956 Z0.1266
N2033 X2.5328 Z0.1194
N2034 X2.57 Z0.0974
N2035 Z0.096 A618.
N2036 Z0.0946 A620.
N2037 X2.5328 Z0.1163
N2038 X2.4956 Z0.1234
N2039 X2.3841 Z0.1198
N2040 X2.3283 Z0.0929
N2041 X1.6217
N2042 X1.6031 Z0.105
N2043 X1.5659 Z0.1204
N2044 X1.4544 Z0.1233
N2045 X1.4172 Z0.1152
N2046 X1.38 Z0.0922
N2047 Z0.0912 A622.
N2048 Z0.0903 A624.
N2049 X1.4172 Z0.1132
N2050 X1.4544 Z0.1211
N2051 X1.5659 Z0.1183
N2052 X1.6217 Z0.0927
N2053 X2.3283
N2054 X2.3841 Z0.1177
N2055 X2.4956 Z0.1212
N2056 X2.5328 Z0.1142
N2057 X2.57 Z0.0927
N2058 Z0.0922 A626.
N2059 Z0.0918 A628.
N2060 X2.5328 Z0.1132
N2061 X2.4956 Z0.1202
N2062 X2.3841 Z0.1166
N2063 X2.3283 Z0.0929
N2064 X1.6217
N2065 X1.5659 Z0.1173
N2066 X1.4544 Z0.1201
N2067 X1.4172 Z0.1122
N2068 X1.38 Z0.0894
N2069 Z0.0894 A630.
N2070 Z0.0894 A632.
N2071 X1.4172 Z0.1122
N2072 X1.4544 Z0.1201
N2073 X1.5659 Z0.1173
N2074 X1.6217 Z0.0929
N2075 X2.3283
N2076 X2.3841 Z0.1166
N2077 X2.4956 Z0.1202
N2078 X2.5328 Z0.1132
N2079 X2.57 Z0.0918
N2080 Z0.0922 A634.
N2081 Z0.0927 A636.
N2082 X2.5328 Z0.1142
N2083 X2.4956 Z0.1212
N2084 X2.3841 Z0.1177
N2085 X2.3283 Z0.0927
N2086 X1.6217
N2087 X1.5659 Z0.1183
N2088 X1.4544 Z0.1211
N2089 X1.4172 Z0.1132
N2090 X1.38 Z0.0903
N2091 Z0.0912 A638.
N2092 Z0.0922 A640.
N2093 X1.4172 Z0.1152
N2094 X1.4544 Z0.1233
N2095 X1.5659 Z0.1204
N2096 X1.6031 Z0.105
N2097 X1.6217 Z0.0929
N2098 X2.3283
N2099 X2.3841 Z0.1198
N2100 X2.4956 Z0.1234
N2101 X2.5328 Z0.1163
N2102 X2.57 Z0.0946
N2103 Z0.096 A642.
N2104 Z0.0974 A644.
N2105 X2.5328 Z0.1194
N2106 X2.4956 Z0.1266
N2107 X2.3841 Z0.123
N2108 X2.3469 Z0.1062
N2109 X2.3283 Z0.0927
N2110 X1.6217 Z0.0934
N2111 X1.6031 Z0.108
N2112 X1.5659 Z0.1236
N2113 X1.4544 Z0.1265
N2114 X1.4172 Z0.1184
N2115 X1.38 Z0.095
N2116 Y0.0001 Z0.0967 A646.
N2117 Y0. Z0.0986 A648.
N2118 X1.4172 Z0.1219
N2119 X1.4544 Z0.13
N2120 X1.5659 Z0.1272
N2121 X1.6031 Z0.1116
N2122 X1.6217 Z0.097
N2123 X1.6403 Z0.0927
N2124 X2.3283 Z0.0943
N2125 X2.3469 Z0.1098
N2126 X2.3841 Z0.1265
N2127 X2.4956 Z0.1301
N2128 X2.5328 Z0.123
N2129 X2.57 Z0.1011
N2130 Y0.0001 Z0.1025 A650.
N2131 Y0. Z0.104 A652.
N2132 X2.5328 Z0.1256
N2133 X2.4956 Z0.1326
N2134 X2.3841 Z0.129
N2135 X2.3469 Z0.1125
N2136 X2.3283 Z0.0973
N2137 X2.3097 Z0.0929
N2138 X1.6403
N2139 X1.6217 Z0.1
N2140 X1.6031 Z0.1143
N2141 X1.5659 Z0.1297
N2142 X1.4544 Z0.1325
N2143 X1.4172 Z0.1245
N2144 X1.38 Z0.1015
N2145 Z0.1024 A654.
N2146 Z0.1033 A656.
N2147 X1.4172 Z0.1261
N2148 X1.4544 Z0.134
N2149 X1.5659 Z0.1312
N2150 X1.6031 Z0.116
N2151 X1.6403 Z0.0926
N2152 X2.3097
N2153 X2.3283 Z0.0991
N2154 X2.3469 Z0.1142
N2155 X2.3841 Z0.1305
N2156 X2.4956 Z0.1341
N2157 X2.5328 Z0.1271
N2158 X2.57 Z0.1057
N2159 Z0.1059 A658.
N2160 Z0.1063 A660.
N2161 X2.5328 Z0.1276
N2162 X2.4956 Z0.1346
N2163 X2.3841 Z0.1311
N2164 X2.3469 Z0.1147
N2165 X2.3283 Z0.0997
N2166 X2.3097 Z0.0928
N2167 X1.6403
N2168 X1.6031 Z0.1165
N2169 X1.5659 Z0.1317
N2170 X1.4544 Z0.1345
N2171 X1.4172 Z0.1266
N2172 X1.38 Z0.1039
N2173 Z0.1035 A662.
N2174 Z0.1033 A664.
N2175 X1.4172 Z0.1261
N2176 X1.4544 Z0.134
N2177 X1.5659 Z0.1312
N2178 X1.6031 Z0.116
N2179 X1.6403 Z0.0929
N2180 X2.3097
N2181 X2.3283 Z0.0991
N2182 X2.3469 Z0.1142
N2183 X2.3841 Z0.1305
N2184 X2.4956 Z0.1341
N2185 X2.5328 Z0.1271
N2186 X2.57 Z0.1057
N2187 Z0.1048 A666.
N2188 Z0.104 A668.
N2189 X2.5328 Z0.1256
N2190 X2.4956 Z0.1326
N2191 X2.3841 Z0.129
N2192 X2.3469 Z0.1125
N2193 X2.3283 Z0.0973
N2194 X2.3097 Z0.0926
N2195 X1.6403
N2196 X1.6217 Z0.1
N2197 X1.6031 Z0.1143
N2198 X1.5659 Z0.1297
N2199 X1.4544 Z0.1325
N2200 X1.4172 Z0.1245
N2201 X1.38 Z0.1015
N2202 Y-0.0001 Z0.1 A670.
N2203 Y0. Z0.0986 A672.
N2204 X1.4172 Z0.1219
N2205 X1.4544 Z0.13
N2206 X1.5659 Z0.1272
N2207 X1.6031 Z0.1116
N2208 X1.6217 Z0.097
N2209 X1.6403 Z0.0928
N2210 X2.3283 Z0.0943
N2211 X2.3469 Z0.1098
N2212 X2.3841 Z0.1265
N2213 X2.4956 Z0.1301
N2214 X2.5328 Z0.123
N2215 X2.57 Z0.1011
N2216 Y-0.0001 Z0.0992 A674.
N2217 Y0. Z0.0974 A676.
N2218 X2.5328 Z0.1194
N2219 X2.4956 Z0.1266
N2220 X2.3841 Z0.123
N2221 X2.3469 Z0.1062
N2222 X2.3283 Z0.0929
N2223 X1.6217 Z0.0934
N2224 X1.6031 Z0.108
N2225 X1.5659 Z0.1236
N2226 X1.4544 Z0.1265
N2227 X1.4172 Z0.1184
N2228 X1.38 Z0.095
N2229 Z0.0935 A678.
N2230 Z0.0922 A680.
N2231 X1.4172 Z0.1152
N2232 X1.4544 Z0.1233
N2233 X1.5659 Z0.1204
N2234 X1.6031 Z0.105
N2235 X1.6217 Z0.0926
N2236 X2.3283
N2237 X2.3841 Z0.1198
N2238 X2.4956 Z0.1234
N2239 X2.5328 Z0.1163
N2240 X2.57 Z0.0946
N2241 Z0.0936 A682.
N2242 Z0.0927 A684.
N2243 X2.5328 Z0.1142
N2244 X2.4956 Z0.1212
N2245 X2.3841 Z0.1177
N2246 X2.3283 Z0.0928
N2247 X1.6217
N2248 X1.5659 Z0.1183
N2249 X1.4544 Z0.1211
N2250 X1.4172 Z0.1132
N2251 X1.38 Z0.0903
N2252 Z0.0898 A686.
N2253 Z0.0894 A688.
N2254 X1.4172 Z0.1122
N2255 X1.4544 Z0.1201
N2256 X1.5659 Z0.1173
N2257 X1.6217 Z0.0929
N2258 X2.3283
N2259 X2.3841 Z0.1166
N2260 X2.4956 Z0.1202
N2261 X2.5328 Z0.1132
N2262 X2.57 Z0.0918
N2263 Z0.0918 A690.
N2264 Z0.0918 A692.
N2265 X2.5328 Z0.1132
N2266 X2.4956 Z0.1202
N2267 X2.3841 Z0.1166
N2268 X2.3283 Z0.0926
N2269 X1.6217
N2270 X1.5659 Z0.1173
N2271 X1.4544 Z0.1201
N2272 X1.4172 Z0.1122
N2273 X1.38 Z0.0894
N2274 Z0.0898 A694.
N2275 Z0.0903 A696.
N2276 X1.4172 Z0.1132
N2277 X1.4544 Z0.1211
N2278 X1.5659 Z0.1183
N2279 X1.6217 Z0.0928
N2280 X2.3283
N2281 X2.3841 Z0.1177
N2282 X2.4956 Z0.1212
N2283 X2.5328 Z0.1142
N2284 X2.57 Z0.0927
N2285 Z0.0936 A698.
N2286 Z0.0946 A700.
N2287 X2.5328 Z0.1163
N2288 X2.4956 Z0.1234
N2289 X2.3841 Z0.1198
N2290 X2.3283 Z0.0929
N2291 X1.6217
N2292 X1.6031 Z0.105
N2293 X1.5659 Z0.1204
N2294 X1.4544 Z0.1233
N2295 X1.4172 Z0.1152
N2296 X1.38 Z0.0922
N2297 Z0.0935 A702.
N2298 Z0.095 A704.
N2299 X1.4172 Z0.1184
N2300 X1.4544 Z0.1265
N2301 X1.5659 Z0.1236
N2302 X1.6031 Z0.108
N2303 X1.6217 Z0.0934
N2304 X2.3283 Z0.0926
N2305 X2.3469 Z0.1062
N2306 X2.3841 Z0.123
N2307 X2.4956 Z0.1266
N2308 X2.5328 Z0.1194
N2309 X2.57 Z0.0974
N2310 Y0.0001 Z0.0992 A706.
N2311 Y0. Z0.1011 A708.
N2312 X2.5328 Z0.123
N2313 X2.4956 Z0.1301
N2314 X2.3841 Z0.1265
N2315 X2.3469 Z0.1098
N2316 X2.3283 Z0.0943
N2317 X1.6403 Z0.0929
N2318 X1.6217 Z0.097
N2319 X1.6031 Z0.1116
N2320 X1.5659 Z0.1272
N2321 X1.4544 Z0.13
N2322 X1.4172 Z0.1219
N2323 X1.38 Z0.0986
N2324 Y0.0001 Z0.1 A710.
N2325 Y0. Z0.1015 A712.
N2326 X1.4172 Z0.1245
N2327 X1.4544 Z0.1325
N2328 X1.5659 Z0.1297
N2329 X1.6031 Z0.1143
N2330 X1.6217 Z0.1
N2331 X1.6403 Z0.0928
N2332 X2.3097
N2333 X2.3283 Z0.0973
N2334 X2.3469 Z0.1125
N2335 X2.3841 Z0.129
N2336 X2.4956 Z0.1326
N2337 X2.5328 Z0.1256
N2338 X2.57 Z0.104
N2339 Z0.1048 A714.
N2340 Z0.1057 A716.
N2341 X2.5328 Z0.1271
N2342 X2.4956 Z0.1341
N2343 X2.3841 Z0.1305
N2344 X2.3469 Z0.1142
N2345 X2.3283 Z0.0991
N2346 X2.3097 Z0.0927
N2347 X1.6403
N2348 X1.6031 Z0.116
N2349 X1.5659 Z0.1312
N2350 X1.4544 Z0.134
N2351 X1.4172 Z0.1261
N2352 X1.38 Z0.1033
N2353 Z0.0739 A720.
N2354 X1.4172 Z0.0966
N2355 X1.4544 Z0.1045
N2356 X1.5659 Z0.1017
N2357 X1.6031 Z0.0865
N2358 X1.6403 Z0.0629
N2359 X2.3097
N2360 X2.3283 Z0.0697
N2361 X2.3469 Z0.0847
N2362 X2.3841 Z0.1011
N2363 X2.4956 Z0.1046
N2364 X2.5328 Z0.0976
N2365 X2.57 Z0.0763
N2366 Z0.0761 A722.
N2367 Z0.0757 A724.
N2368 X2.5328 Z0.0971
N2369 X2.4956 Z0.1041
N2370 X2.3841 Z0.1005
N2371 X2.3469 Z0.0842
N2372 X2.3283 Z0.0691
N2373 X2.3097 Z0.0627
N2374 X1.6403
N2375 X1.6031 Z0.086
N2376 X1.5659 Z0.1012
N2377 X1.4544 Z0.104
N2378 X1.4172 Z0.0961
N2379 X1.38 Z0.0733
N2380 Z0.0726 A726.
N2381 Z0.0715 A728.
N2382 X1.4172 Z0.0945
N2383 X1.4544 Z0.1025
N2384 X1.5659 Z0.0997
N2385 X1.6031 Z0.0843
N2386 X1.6217 Z0.07
N2387 X1.6403 Z0.0628
N2388 X2.3097
N2389 X2.3283 Z0.0673
N2390 X2.3469 Z0.0825
N2391 X2.3841 Z0.099
N2392 X2.4956 Z0.1026
N2393 X2.5328 Z0.0956
N2394 X2.57 Z0.074
N2395 Y-0.0001 Z0.0727 A730.
N2396 Y0. Z0.0711 A732.
N2397 X2.5328 Z0.093
N2398 X2.4956 Z0.1001
N2399 X2.3841 Z0.0965
N2400 X2.3469 Z0.0798
N2401 X2.3283 Z0.0643
N2402 X1.6403 Z0.0629
N2403 X1.6217 Z0.067
N2404 X1.6031 Z0.0816
N2405 X1.5659 Z0.0972
N2406 X1.4544 Z0.1
N2407 X1.4172 Z0.0919
N2408 X1.38 Z0.0686
N2409 Y-0.0001 Z0.0668 A734.
N2410 Y0. Z0.065 A736.
N2411 X1.4172 Z0.0884
N2412 X1.4544 Z0.0965
N2413 X1.5659 Z0.0936
N2414 X1.6031 Z0.078
N2415 X1.6217 Z0.0634
N2416 X2.3283 Z0.0626
N2417 X2.3469 Z0.0762
N2418 X2.3841 Z0.093
N2419 X2.4956 Z0.0966
N2420 X2.5328 Z0.0894
N2421 X2.57 Z0.0674
N2422 Z0.066 A738.
N2423 Z0.0646 A740.
N2424 X2.5328 Z0.0863
N2425 X2.4956 Z0.0934
N2426 X2.3841 Z0.0898
N2427 X2.3283 Z0.0629
N2428 X1.6217
N2429 X1.6031 Z0.075
N2430 X1.5659 Z0.0904
N2431 X1.4544 Z0.0933
N2432 X1.4172 Z0.0852
N2433 X1.38 Z0.0622
N2434 Z0.0612 A742.
N2435 Z0.0603 A744.
N2436 X1.4172 Z0.0832
N2437 X1.4544 Z0.0911
N2438 X1.5659 Z0.0883
N2439 X1.6217 Z0.0628
N2440 X2.3283
N2441 X2.3841 Z0.0877
N2442 X2.4956 Z0.0912
N2443 X2.5328 Z0.0842
N2444 X2.57 Z0.0627
N2445 Z0.0622 A746.
N2446 Z0.0618 A748.
N2447 X2.5328 Z0.0832
N2448 X2.4956 Z0.0902
N2449 X2.3841 Z0.0866
N2450 X2.3283 Z0.0626
N2451 X1.6217
N2452 X1.5659 Z0.0873
N2453 X1.4544 Z0.0901
N2454 X1.4172 Z0.0822
N2455 X1.38 Z0.0594
N2456 A750.
N2457 A752.
N2458 X1.4172 Z0.0822
N2459 X1.4544 Z0.0901
N2460 X1.5659 Z0.0873
N2461 X1.6217 Z0.0629
N2462 X2.3283
N2463 X2.3841 Z0.0866
N2464 X2.4956 Z0.0902
N2465 X2.5328 Z0.0832
N2466 X2.57 Z0.0618
N2467 Z0.0622 A754.
N2468 Z0.0627 A756.
N2469 X2.5328 Z0.0842
N2470 X2.4956 Z0.0912
N2471 X2.3841 Z0.0877
N2472 X2.3283 Z0.0628
N2473 X1.6217
N2474 X1.5659 Z0.0883
N2475 X1.4544 Z0.0911
N2476 X1.4172 Z0.0832
N2477 X1.38 Z0.0603
N2478 Z0.0612 A758.
N2479 Z0.0622 A760.
N2480 X1.4172 Z0.0852
N2481 X1.4544 Z0.0933
N2482 X1.5659 Z0.0904
N2483 X1.6031 Z0.075
N2484 X1.6217 Z0.0626
N2485 X2.3283
N2486 X2.3841 Z0.0898
N2487 X2.4956 Z0.0934
N2488 X2.5328 Z0.0863
N2489 X2.57 Z0.0646
N2490 Z0.066 A762.
N2491 Z0.0674 A764.
N2492 X2.5328 Z0.0894
N2493 X2.4956 Z0.0966
N2494 X2.3841 Z0.093
N2495 X2.3469 Z0.0762
N2496 X2.3283 Z0.0629
N2497 X1.6217 Z0.0634
N2498 X1.6031 Z0.078
N2499 X1.5659 Z0.0936
N2500 X1.4544 Z0.0965
N2501 X1.4172 Z0.0884
N2502 X1.38 Z0.065
N2503 Y0.0001 Z0.0668 A766.
N2504 Y0. Z0.0686 A768.
N2505 X1.4172 Z0.0919
N2506 X1.4544 Z0.1
N2507 X1.5659 Z0.0972
N2508 X1.6031 Z0.0816
N2509 X1.6217 Z0.067
N2510 X1.6403 Z0.0628
N2511 X2.3283 Z0.0643
N2512 X2.3469 Z0.0798
N2513 X2.3841 Z0.0965
N2514 X2.4956 Z0.1001
N2515 X2.5328 Z0.093
N2516 X2.57 Z0.0711
N2517 Y0.0001 Z0.0727 A770.
N2518 Y0. Z0.074 A772.
N2519 X2.5328 Z0.0956
N2520 X2.4956 Z0.1026
N2521 X2.3841 Z0.099
N2522 X2.3469 Z0.0825
N2523 X2.3283 Z0.0673
N2524 X2.3097 Z0.0626
N2525 X1.6403
N2526 X1.6217 Z0.07
N2527 X1.6031 Z0.0843
N2528 X1.5659 Z0.0997
N2529 X1.4544 Z0.1025
N2530 X1.4172 Z0.0945
N2531 X1.38 Z0.0715
N2532 Z0.0726 A774.
N2533 Z0.0733 A776.
N2534 X1.4172 Z0.0961
N2535 X1.4544 Z0.104
N2536 X1.5659 Z0.1012
N2537 X1.6031 Z0.086
N2538 X1.6403 Z0.0629
N2539 X2.3097
N2540 X2.3283 Z0.0691
N2541 X2.3469 Z0.0842
N2542 X2.3841 Z0.1005
N2543 X2.4956 Z0.1041
N2544 X2.5328 Z0.0971
N2545 X2.57 Z0.0757
N2546 Z0.0761 A778.
N2547 Z0.0763 A780.
N2548 X2.5328 Z0.0976
N2549 X2.4956 Z0.1046
N2550 X2.3841 Z0.1011
N2551 X2.3469 Z0.0847
N2552 X2.3283 Z0.0697
N2553 X2.3097 Z0.0628
N2554 X1.6403
N2555 X1.6031 Z0.0865
N2556 X1.5659 Z0.1017
N2557 X1.4544 Z0.1045
N2558 X1.4172 Z0.0966
N2559 X1.38 Z0.0739
N2560 Z0.0737 A782.
N2561 Z0.0733 A784.
N2562 X1.4172 Z0.0961
N2563 X1.4544 Z0.104
N2564 X1.5659 Z0.1012
N2565 X1.6031 Z0.086
N2566 X1.6403 Z0.0626
N2567 X2.3097
N2568 X2.3283 Z0.0691
N2569 X2.3469 Z0.0842
N2570 X2.3841 Z0.1005
N2571 X2.4956 Z0.1041
N2572 X2.5328 Z0.0971
N2573 X2.57 Z0.0757
N2574 Z0.075 A786.
N2575 Z0.074 A788.
N2576 X2.5328 Z0.0956
N2577 X2.4956 Z0.1026
N2578 X2.3841 Z0.099
N2579 X2.3469 Z0.0825
N2580 X2.3283 Z0.0673
N2581 X2.3097 Z0.0629
N2582 X1.6403
N2583 X1.6217 Z0.07
N2584 X1.6031 Z0.0843
N2585 X1.5659 Z0.0997
N2586 X1.4544 Z0.1025
N2587 X1.4172 Z0.0945
N2588 X1.38 Z0.0715
N2589 Y-0.0001 Z0.0702 A790.
N2590 Y0. Z0.0686 A792.
N2591 X1.4172 Z0.0919
N2592 X1.4544 Z0.1
N2593 X1.5659 Z0.0972
N2594 X1.6031 Z0.0816
N2595 X1.6217 Z0.067
N2596 X1.6403 Z0.0627
N2597 X2.3283 Z0.0643
N2598 X2.3469 Z0.0798
N2599 X2.3841 Z0.0965
N2600 X2.4956 Z0.1001
N2601 X2.5328 Z0.093
N2602 X2.57 Z0.0711
N2603 Y-0.0001 Z0.0693 A794.
N2604 Y0. Z0.0674 A796.
N2605 X2.5328 Z0.0894
N2606 X2.4956 Z0.0966
N2607 X2.3841 Z0.093
N2608 X2.3469 Z0.0762
N2609 X2.3283 Z0.0627
N2610 X1.6217 Z0.0634
N2611 X1.6031 Z0.078
N2612 X1.5659 Z0.0936
N2613 X1.4544 Z0.0965
N2614 X1.4172 Z0.0884
N2615 X1.38 Z0.065
N2616 Z0.0635 A798.
N2617 Z0.0622 A800.
N2618 X1.4172 Z0.0852
N2619 X1.4544 Z0.0933
N2620 X1.5659 Z0.0904
N2621 X1.6031 Z0.075
N2622 X1.6217 Z0.0629
N2623 X2.3283
N2624 X2.3841 Z0.0898
N2625 X2.4956 Z0.0934
N2626 X2.5328 Z0.0863
N2627 X2.57 Z0.0646
N2628 Z0.0636 A802.
N2629 Z0.0627 A804.
N2630 X2.5328 Z0.0842
N2631 X2.4956 Z0.0912
N2632 X2.3841 Z0.0877
N2633 X2.3283 Z0.0627
N2634 X1.6217
N2635 X1.5659 Z0.0883
N2636 X1.4544 Z0.0911
N2637 X1.4172 Z0.0832
N2638 X1.38 Z0.0603
N2639 Z0.0599 A806.
N2640 Z0.0594 A808.
N2641 X1.4172 Z0.0822
N2642 X1.4544 Z0.0901
N2643 X1.5659 Z0.0873
N2644 X1.6217 Z0.0629
N2645 X2.3283
N2646 X2.3841 Z0.0866
N2647 X2.4956 Z0.0902
N2648 X2.5328 Z0.0832
N2649 X2.57 Z0.0618
N2650 A810.
N2651 A812.
N2652 X2.5328 Z0.0832
N2653 X2.4956 Z0.0902
N2654 X2.3841 Z0.0866
N2655 X2.3283 Z0.0629
N2656 X1.6217
N2657 X1.5659 Z0.0873
N2658 X1.4544 Z0.0901
N2659 X1.4172 Z0.0822
N2660 X1.38 Z0.0594
N2661 Z0.0599 A814.
N2662 Z0.0603 A816.
N2663 X1.4172 Z0.0832
N2664 X1.4544 Z0.0911
N2665 X1.5659 Z0.0883
N2666 X1.6217 Z0.0627
N2667 X2.3283
N2668 X2.3841 Z0.0877
N2669 X2.4956 Z0.0912
N2670 X2.5328 Z0.0842
N2671 X2.57 Z0.0627
N2672 Z0.0636 A818.
N2673 Z0.0646 A820.
N2674 X2.5328 Z0.0863
N2675 X2.4956 Z0.0934
N2676 X2.3841 Z0.0898
N2677 X2.3283 Z0.0629
N2678 X1.6217
N2679 X1.6031 Z0.075
N2680 X1.5659 Z0.0904
N2681 X1.4544 Z0.0933
N2682 X1.4172 Z0.0852
N2683 X1.38 Z0.0622
N2684 Z0.0635 A822.
N2685 Z0.065 A824.
N2686 X1.4172 Z0.0884
N2687 X1.4544 Z0.0965
N2688 X1.5659 Z0.0936
N2689 X1.6031 Z0.078
N2690 X1.6217 Z0.0634
N2691 X2.3283 Z0.0627
N2692 X2.3469 Z0.0762
N2693 X2.3841 Z0.093
N2694 X2.4956 Z0.0966
N2695 X2.5328 Z0.0894
N2696 X2.57 Z0.0674
N2697 Y0.0001 Z0.0693 A826.
N2698 Y0. Z0.0711 A828.
N2699 X2.5328 Z0.093
N2700 X2.4956 Z0.1001
N2701 X2.3841 Z0.0965
N2702 X2.3469 Z0.0798
N2703 X2.3283 Z0.0643
N2704 X1.6403 Z0.0627
N2705 X1.6217 Z0.067
N2706 X1.6031 Z0.0816
N2707 X1.5659 Z0.0972
N2708 X1.4544 Z0.1
N2709 X1.4172 Z0.0919
N2710 X1.38 Z0.0686
N2711 Y0.0001 Z0.0702 A830.
N2712 Y0. Z0.0715 A832.
N2713 X1.4172 Z0.0945
N2714 X1.4544 Z0.1025
N2715 X1.5659 Z0.0997
N2716 X1.6031 Z0.0843
N2717 X1.6217 Z0.07
N2718 X1.6403 Z0.0629
N2719 X2.3097
N2720 X2.3283 Z0.0673
N2721 X2.3469 Z0.0825
N2722 X2.3841 Z0.099
N2723 X2.4956 Z0.1026
N2724 X2.5328 Z0.0956
N2725 X2.57 Z0.074
N2726 Z0.075 A834.
N2727 Z0.0757 A836.
N2728 X2.5328 Z0.0971
N2729 X2.4956 Z0.1041
N2730 X2.3841 Z0.1005
N2731 X2.3469 Z0.0842
N2732 X2.3283 Z0.0691
N2733 X2.3097 Z0.0626
N2734 X1.6403
N2735 X1.6031 Z0.086
N2736 X1.5659 Z0.1012
N2737 X1.4544 Z0.104
N2738 X1.4172 Z0.0961
N2739 X1.38 Z0.0733
N2740 Z0.0737 A838.
N2741 Z0.0739 A840.
N2742 X1.4172 Z0.0966
N2743 X1.4544 Z0.1045
N2744 X1.5659 Z0.1017
N2745 X1.6031 Z0.0865
N2746 X1.6403 Z0.0628
N2747 X2.3097
N2748 X2.3283 Z0.0697
N2749 X2.3469 Z0.0847
N2750 X2.3841 Z0.1011
N2751 X2.4956 Z0.1046
N2752 X2.5328 Z0.0976
N2753 X2.57 Z0.0763
N2754 Z0.0761 A842.
N2755 Z0.0757 A844.
N2756 X2.5328 Z0.0971
N2757 X2.4956 Z0.1041
N2758 X2.3841 Z0.1005
N2759 X2.3469 Z0.0842
N2760 X2.3283 Z0.0691
N2761 X2.3097 Z0.0629
N2762 X1.6403
N2763 X1.6031 Z0.086
N2764 X1.5659 Z0.1012
N2765 X1.4544 Z0.104
N2766 X1.4172 Z0.0961
N2767 X1.38 Z0.0733
N2768 Z0.0726 A846.
N2769 Z0.0715 A848.
N2770 X1.4172 Z0.0945
N2771 X1.4544 Z0.1025
N2772 X1.5659 Z0.0997
N2773 X1.6031 Z0.0843
N2774 X1.6217 Z0.07
N2775 X1.6403 Z0.0626
N2776 X2.3097
N2777 X2.3283 Z0.0673
N2778 X2.3469 Z0.0825
N2779 X2.3841 Z0.099
N2780 X2.4956 Z0.1026
N2781 X2.5328 Z0.0956
N2782 X2.57 Z0.074
N2783 Y-0.0001 Z0.0727 A850.
N2784 Y0. Z0.0711 A852.
N2785 X2.5328 Z0.093
N2786 X2.4956 Z0.1001
N2787 X2.3841 Z0.0965
N2788 X2.3469 Z0.0798
N2789 X2.3283 Z0.0643
N2790 X1.6403 Z0.0628
N2791 X1.6217 Z0.067
N2792 X1.6031 Z0.0816
N2793 X1.5659 Z0.0972
N2794 X1.4544 Z0.1
N2795 X1.4172 Z0.0919
N2796 X1.38 Z0.0686
N2797 Y-0.0001 Z0.0668 A854.
N2798 Y0. Z0.065 A856.
N2799 X1.4172 Z0.0884
N2800 X1.4544 Z0.0965
N2801 X1.5659 Z0.0936
N2802 X1.6031 Z0.078
N2803 X1.6217 Z0.0634
N2804 X2.3283 Z0.0629
N2805 X2.3469 Z0.0762
N2806 X2.3841 Z0.093
N2807 X2.4956 Z0.0966
N2808 X2.5328 Z0.0894
N2809 X2.57 Z0.0674
N2810 Z0.066 A858.
N2811 Z0.0646 A860.
N2812 X2.5328 Z0.0863
N2813 X2.4956 Z0.0934
N2814 X2.3841 Z0.0898
N2815 X2.3283 Z0.0626
N2816 X1.6217
N2817 X1.6031 Z0.075
N2818 X1.5659 Z0.0904
N2819 X1.4544 Z0.0933
N2820 X1.4172 Z0.0852
N2821 X1.38 Z0.0622
N2822 Z0.0612 A862.
N2823 Z0.0603 A864.
N2824 X1.4172 Z0.0832
N2825 X1.4544 Z0.0911
N2826 X1.5659 Z0.0883
N2827 X1.6217 Z0.0628
N2828 X2.3283
N2829 X2.3841 Z0.0877
N2830 X2.4956 Z0.0912
N2831 X2.5328 Z0.0842
N2832 X2.57 Z0.0627
N2833 Z0.0622 A866.
N2834 Z0.0618 A868.
N2835 X2.5328 Z0.0832
N2836 X2.4956 Z0.0902
N2837 X2.3841 Z0.0866
N2838 X2.3283 Z0.0629
N2839 X1.6217
N2840 X1.5659 Z0.0873
N2841 X1.4544 Z0.0901
N2842 X1.4172 Z0.0822
N2843 X1.38 Z0.0594
N2844 A870.
N2845 A872.
N2846 X1.4172 Z0.0822
N2847 X1.4544 Z0.0901
N2848 X1.5659 Z0.0873
N2849 X1.6217 Z0.0626
N2850 X2.3283
N2851 X2.3841 Z0.0866
N2852 X2.4956 Z0.0902
N2853 X2.5328 Z0.0832
N2854 X2.57 Z0.0618
N2855 Z0.0622 A874.
N2856 Z0.0627 A876.
N2857 X2.5328 Z0.0842
N2858 X2.4956 Z0.0912
N2859 X2.3841 Z0.0877
N2860 X2.3283 Z0.0628
N2861 X1.6217
N2862 X1.5659 Z0.0883
N2863 X1.4544 Z0.0911
N2864 X1.4172 Z0.0832
N2865 X1.38 Z0.0603
N2866 Z0.0612 A878.
N2867 Z0.0622 A880.
N2868 X1.4172 Z0.0852
N2869 X1.4544 Z0.0933
N2870 X1.5659 Z0.0904
N2871 X1.6031 Z0.075
N2872 X1.6217 Z0.0629
N2873 X2.3283
N2874 X2.3841 Z0.0898
N2875 X2.4956 Z0.0934
N2876 X2.5328 Z0.0863
N2877 X2.57 Z0.0646
N2878 Z0.066 A882.
N2879 Z0.0674 A884.
N2880 X2.5328 Z0.0894
N2881 X2.4956 Z0.0966
N2882 X2.3841 Z0.093
N2883 X2.3469 Z0.0762
N2884 X2.3283 Z0.0626
N2885 X1.6217 Z0.0634
N2886 X1.6031 Z0.078
N2887 X1.5659 Z0.0936
N2888 X1.4544 Z0.0965
N2889 X1.4172 Z0.0884
N2890 X1.38 Z0.065
N2891 Y0.0001 Z0.0668 A886.
N2892 Y0. Z0.0686 A888.
N2893 X1.4172 Z0.0919
N2894 X1.4544 Z0.1
N2895 X1.5659 Z0.0972
N2896 X1.6031 Z0.0816
N2897 X1.6217 Z0.067
N2898 X1.6403 Z0.0629
N2899 X2.3283 Z0.0643
N2900 X2.3469 Z0.0798
N2901 X2.3841 Z0.0965
N2902 X2.4956 Z0.1001
N2903 X2.5328 Z0.093
N2904 X2.57 Z0.0711
N2905 Y0.0001 Z0.0727 A890.
N2906 Y0. Z0.074 A892.
N2907 X2.5328 Z0.0956
N2908 X2.4956 Z0.1026
N2909 X2.3841 Z0.099
N2910 X2.3469 Z0.0825
N2911 X2.3283 Z0.0673
N2912 X2.3097 Z0.0628
N2913 X1.6403
N2914 X1.6217 Z0.07
N2915 X1.6031 Z0.0843
N2916 X1.5659 Z0.0997
N2917 X1.4544 Z0.1025
N2918 X1.4172 Z0.0945
N2919 X1.38 Z0.0715
N2920 Z0.0726 A894.
N2921 Z0.0733 A896.
N2922 X1.4172 Z0.0961
N2923 X1.4544 Z0.104
N2924 X1.5659 Z0.1012
N2925 X1.6031 Z0.086
N2926 X1.6403 Z0.0627
N2927 X2.3097
N2928 X2.3283 Z0.0691
N2929 X2.3469 Z0.0842
N2930 X2.3841 Z0.1005
N2931 X2.4956 Z0.1041
N2932 X2.5328 Z0.0971
N2933 X2.57 Z0.0757
N2934 Z0.0761 A898.
N2935 Z0.0763 A900.
N2936 X2.5328 Z0.0976
N2937 X2.4956 Z0.1046
N2938 X2.3841 Z0.1011
N2939 X2.3469 Z0.0847
N2940 X2.3283 Z0.0697
N2941 X2.3097 Z0.0629
N2942 X1.6403
N2943 X1.6031 Z0.0865
N2944 X1.5659 Z0.1017
N2945 X1.4544 Z0.1045
N2946 X1.4172 Z0.0966
N2947 X1.38 Z0.0739
N2948 Z0.0737 A902.
N2949 Z0.0733 A904.
N2950 X1.4172 Z0.0961
N2951 X1.4544 Z0.104
N2952 X1.5659 Z0.1012
N2953 X1.6031 Z0.086
N2954 X1.6403 Z0.0627
N2955 X2.3097
N2956 X2.3283 Z0.0691
N2957 X2.3469 Z0.0842
N2958 X2.3841 Z0.1005
N2959 X2.4956 Z0.1041
N2960 X2.5328 Z0.0971
N2961 X2.57 Z0.0757
N2962 Z0.075 A906.
N2963 Z0.074 A908.
N2964 X2.5328 Z0.0956
N2965 X2.4956 Z0.1026
N2966 X2.3841 Z0.099
N2967 X2.3469 Z0.0825
N2968 X2.3283 Z0.0673
N2969 X2.3097 Z0.0628
N2970 X1.6403
N2971 X1.6217 Z0.07
N2972 X1.6031 Z0.0843
N2973 X1.5659 Z0.0997
N2974 X1.4544 Z0.1025
N2975 X1.4172 Z0.0945
N2976 X1.38 Z0.0715
N2977 Y-0.0001 Z0.0702 A910.
N2978 Y0. Z0.0686 A912.
N2979 X1.4172 Z0.0919
N2980 X1.4544 Z0.1
N2981 X1.5659 Z0.0972
N2982 X1.6031 Z0.0816
N2983 X1.6217 Z0.067
N2984 X1.6403 Z0.0629
N2985 X2.3283 Z0.0643
N2986 X2.3469 Z0.0798
N2987 X2.3841 Z0.0965
N2988 X2.4956 Z0.1001
N2989 X2.5328 Z0.093
N2990 X2.57 Z0.0711
N2991 Y-0.0001 Z0.0693 A914.
N2992 Y0. Z0.0674 A916.
N2993 X2.5328 Z0.0894
N2994 X2.4956 Z0.0966
N2995 X2.3841 Z0.093
N2996 X2.3469 Z0.0762
N2997 X2.3283 Z0.0626
N2998 X1.6217 Z0.0634
N2999 X1.6031 Z0.078
N3000 X1.5659 Z0.0936
N3001 X1.4544 Z0.0965
N3002 X1.4172 Z0.0884
N3003 X1.38 Z0.065
N3004 Z0.0635 A918.
N3005 Z0.0622 A920.
N3006 X1.4172 Z0.0852
N3007 X1.4544 Z0.0933
N3008 X1.5659 Z0.0904
N3009 X1.6031 Z0.075
N3010 X1.6217 Z0.0629
N3011 X2.3283
N3012 X2.3841 Z0.0898
N3013 X2.4956 Z0.0934
N3014 X2.5328 Z0.0863
N3015 X2.57 Z0.0646
N3016 Z0.0636 A922.
N3017 Z0.0627 A924.
N3018 X2.5328 Z0.0842
N3019 X2.4956 Z0.0912
N3020 X2.3841 Z0.0877
N3021 X2.3283 Z0.0628
N3022 X1.6217
N3023 X1.5659 Z0.0883
N3024 X1.4544 Z0.0911
N3025 X1.4172 Z0.0832
N3026 X1.38 Z0.0603
N3027 Z0.0599 A926.
N3028 Z0.0594 A928.
N3029 X1.4172 Z0.0822
N3030 X1.4544 Z0.0901
N3031 X1.5659 Z0.0873
N3032 X1.6217 Z0.0626
N3033 X2.3283
N3034 X2.3841 Z0.0866
N3035 X2.4956 Z0.0902
N3036 X2.5328 Z0.0832
N3037 X2.57 Z0.0618
N3038 A930.
N3039 A932.
N3040 X2.5328 Z0.0832
N3041 X2.4956 Z0.0902
N3042 X2.3841 Z0.0866
N3043 X2.3283 Z0.0629
N3044 X1.6217
N3045 X1.5659 Z0.0873
N3046 X1.4544 Z0.0901
N3047 X1.4172 Z0.0822
N3048 X1.38 Z0.0594
N3049 Z0.0599 A934.
N3050 Z0.0603 A936.
N3051 X1.4172 Z0.0832
N3052 X1.4544 Z0.0911
N3053 X1.5659 Z0.0883
N3054 X1.6217 Z0.0628
N3055 X2.3283
N3056 X2.3841 Z0.0877
N3057 X2.4956 Z0.0912
N3058 X2.5328 Z0.0842
N3059 X2.57 Z0.0627
N3060 Z0.0636 A938.
N3061 Z0.0646 A940.
N3062 X2.5328 Z0.0863
N3063 X2.4956 Z0.0934
N3064 X2.3841 Z0.0898
N3065 X2.3283 Z0.0626
N3066 X1.6217
N3067 X1.6031 Z0.075
N3068 X1.5659 Z0.0904
N3069 X1.4544 Z0.0933
N3070 X1.4172 Z0.0852
N3071 X1.38 Z0.0622
N3072 Z0.0635 A942.
N3073 Z0.065 A944.
N3074 X1.4172 Z0.0884
N3075 X1.4544 Z0.0965
N3076 X1.5659 Z0.0936
N3077 X1.6031 Z0.078
N3078 X1.6217 Z0.0634
N3079 X2.3283 Z0.0629
N3080 X2.3469 Z0.0762
N3081 X2.3841 Z0.093
N3082 X2.4956 Z0.0966
N3083 X2.5328 Z0.0894
N3084 X2.57 Z0.0674
N3085 Y0.0001 Z0.0693 A946.
N3086 Y0. Z0.0711 A948.
N3087 X2.5328 Z0.093
N3088 X2.4956 Z0.1001
N3089 X2.3841 Z0.0965
N3090 X2.3469 Z0.0798
N3091 X2.3283 Z0.0643
N3092 X1.6403 Z0.0628
N3093 X1.6217 Z0.067
N3094 X1.6031 Z0.0816
N3095 X1.5659 Z0.0972
N3096 X1.4544 Z0.1
N3097 X1.4172 Z0.0919
N3098 X1.38 Z0.0686
N3099 Y0.0001 Z0.0702 A950.
N3100 Y0. Z0.0715 A952.
N3101 X1.4172 Z0.0945
N3102 X1.4544 Z0.1025
N3103 X1.5659 Z0.0997
N3104 X1.6031 Z0.0843
N3105 X1.6217 Z0.07
N3106 X1.6403 Z0.0626
N3107 X2.3097
N3108 X2.3283 Z0.0673
N3109 X2.3469 Z0.0825
N3110 X2.3841 Z0.099
N3111 X2.4956 Z0.1026
N3112 X2.5328 Z0.0956
N3113 X2.57 Z0.074
N3114 Z0.075 A954.
N3115 Z0.0757 A956.
N3116 X2.5328 Z0.0971
N3117 X2.4956 Z0.1041
N3118 X2.3841 Z0.1005
N3119 X2.3469 Z0.0842
N3120 X2.3283 Z0.0691
N3121 X2.3097 Z0.0629
N3122 X1.6403
N3123 X1.6031 Z0.086
N3124 X1.5659 Z0.1012
N3125 X1.4544 Z0.104
N3126 X1.4172 Z0.0961
N3127 X1.38 Z0.0733
N3128 Z0.0737 A958.
N3129 Z0.0739 A960.
N3130 X1.4172 Z0.0966
N3131 X1.4544 Z0.1045
N3132 X1.5659 Z0.1017
N3133 X1.6031 Z0.0865
N3134 X1.6403 Z0.0628
N3135 X2.3097
N3136 X2.3283 Z0.0697
N3137 X2.3469 Z0.0847
N3138 X2.3841 Z0.1011
N3139 X2.4956 Z0.1046
N3140 X2.5328 Z0.0976
N3141 X2.57 Z0.0763
N3142 Z0.0761 A962.
N3143 Z0.0757 A964.
N3144 X2.5328 Z0.0971
N3145 X2.4956 Z0.1041
N3146 X2.3841 Z0.1005
N3147 X2.3469 Z0.0842
N3148 X2.3283 Z0.0691
N3149 X2.3097 Z0.0626
N3150 X1.6403
N3151 X1.6031 Z0.086
N3152 X1.5659 Z0.1012
N3153 X1.4544 Z0.104
N3154 X1.4172 Z0.0961
N3155 X1.38 Z0.0733
N3156 Z0.0726 A966.
N3157 Z0.0715 A968.
N3158 X1.4172 Z0.0945
N3159 X1.4544 Z0.1025
N3160 X1.5659 Z0.0997
N3161 X1.6031 Z0.0843
N3162 X1.6217 Z0.07
N3163 X1.6403 Z0.0629
N3164 X2.3097
N3165 X2.3283 Z0.0673
N3166 X2.3469 Z0.0825
N3167 X2.3841 Z0.099
N3168 X2.4956 Z0.1026
N3169 X2.5328 Z0.0956
N3170 X2.57 Z0.074
N3171 Y-0.0001 Z0.0727 A970.
N3172 Y0. Z0.0711 A972.
N3173 X2.5328 Z0.093
N3174 X2.4956 Z0.1001
N3175 X2.3841 Z0.0965
N3176 X2.3469 Z0.0798
N3177 X2.3283 Z0.0643
N3178 X1.6403 Z0.0627
N3179 X1.6217 Z0.067
N3180 X1.6031 Z0.0816
N3181 X1.5659 Z0.0972
N3182 X1.4544 Z0.1
N3183 X1.4172 Z0.0919
N3184 X1.38 Z0.0686
N3185 Y-0.0001 Z0.0668 A974.
N3186 Y0. Z0.065 A976.
N3187 X1.4172 Z0.0884
N3188 X1.4544 Z0.0965
N3189 X1.5659 Z0.0936
N3190 X1.6031 Z0.078
N3191 X1.6217 Z0.0634
N3192 X2.3283 Z0.0627
N3193 X2.3469 Z0.0762
N3194 X2.3841 Z0.093
N3195 X2.4956 Z0.0966
N3196 X2.5328 Z0.0894
N3197 X2.57 Z0.0674
N3198 Z0.066 A978.
N3199 Z0.0646 A980.
N3200 X2.5328 Z0.0863
N3201 X2.4956 Z0.0934
N3202 X2.3841 Z0.0898
N3203 X2.3283 Z0.0629
N3204 X1.6217
N3205 X1.6031 Z0.075
N3206 X1.5659 Z0.0904
N3207 X1.4544 Z0.0933
N3208 X1.4172 Z0.0852
N3209 X1.38 Z0.0622
N3210 Z0.0612 A982.
N3211 Z0.0603 A984.
N3212 X1.4172 Z0.0832
N3213 X1.4544 Z0.0911
N3214 X1.5659 Z0.0883
N3215 X1.6217 Z0.0627
N3216 X2.3283
N3217 X2.3841 Z0.0877
N3218 X2.4956 Z0.0912
N3219 X2.5328 Z0.0842
N3220 X2.57 Z0.0627
N3221 Z0.0622 A986.
N3222 Z0.0618 A988.
N3223 X2.5328 Z0.0832
N3224 X2.4956 Z0.0902
N3225 X2.3841 Z0.0866
N3226 X2.3283 Z0.0629
N3227 X1.6217
N3228 X1.5659 Z0.0873
N3229 X1.4544 Z0.0901
N3230 X1.4172 Z0.0822
N3231 X1.38 Z0.0594
N3232 A990.
N3233 A992.
N3234 X1.4172 Z0.0822
N3235 X1.4544 Z0.0901
N3236 X1.5659 Z0.0873
N3237 X1.6217 Z0.0629
N3238 X2.3283
N3239 X2.3841 Z0.0866
N3240 X2.4956 Z0.0902
N3241 X2.5328 Z0.0832
N3242 X2.57 Z0.0618
N3243 Z0.0622 A994.
N3244 Z0.0627 A996.
N3245 X2.5328 Z0.0842
N3246 X2.4956 Z0.0912
N3247 X2.3841 Z0.0877
N3248 X2.3283 Z0.0627
N3249 X1.6217
N3250 X1.5659 Z0.0883
N3251 X1.4544 Z0.0911
N3252 X1.4172 Z0.0832
N3253 X1.38 Z0.0603
N3254 Z0.0612 A998.
N3255 Z0.0622 A1000.
N3256 X1.4172 Z0.0852
N3257 X1.4544 Z0.0933
N3258 X1.5659 Z0.0904
N3259 X1.6031 Z0.075
N3260 X1.6217 Z0.0629
N3261 X2.3283
N3262 X2.3841 Z0.0898
N3263 X2.4956 Z0.0934
N3264 X2.5328 Z0.0863
N3265 X2.57 Z0.0646
N3266 Z0.066 A1002.
N3267 Z0.0674 A1004.
N3268 X2.5328 Z0.0894
N3269 X2.4956 Z0.0966
N3270 X2.3841 Z0.093
N3271 X2.3469 Z0.0762
N3272 X2.3283 Z0.0627
N3273 X1.6217 Z0.0634
N3274 X1.6031 Z0.078
N3275 X1.5659 Z0.0936
N3276 X1.4544 Z0.0965
N3277 X1.4172 Z0.0884
N3278 X1.38 Z0.065
N3279 Y0.0001 Z0.0668 A1006.
N3280 Y0. Z0.0686 A1008.
N3281 X1.4172 Z0.0919
N3282 X1.4544 Z0.1
N3283 X1.5659 Z0.0972
N3284 X1.6031 Z0.0816
N3285 X1.6217 Z0.067
N3286 X1.6403 Z0.0627
N3287 X2.3283 Z0.0643
N3288 X2.3469 Z0.0798
N3289 X2.3841 Z0.0965
N3290 X2.4956 Z0.1001
N3291 X2.5328 Z0.093
N3292 X2.57 Z0.0711
N3293 Y0.0001 Z0.0727 A1010.
N3294 Y0. Z0.074 A1012.
N3295 X2.5328 Z0.0956
N3296 X2.4956 Z0.1026
N3297 X2.3841 Z0.099
N3298 X2.3469 Z0.0825
N3299 X2.3283 Z0.0673
N3300 X2.3097 Z0.0629
N3301 X1.6403
N3302 X1.6217 Z0.07
N3303 X1.6031 Z0.0843
N3304 X1.5659 Z0.0997
N3305 X1.4544 Z0.1025
N3306 X1.4172 Z0.0945
N3307 X1.38 Z0.0715
N3308 Z0.0726 A1014.
N3309 Z0.0733 A1016.
N3310 X1.4172 Z0.0961
N3311 X1.4544 Z0.104
N3312 X1.5659 Z0.1012
N3313 X1.6031 Z0.086
N3314 X1.6403 Z0.0626
N3315 X2.3097
N3316 X2.3283 Z0.0691
N3317 X2.3469 Z0.0842
N3318 X2.3841 Z0.1005
N3319 X2.4956 Z0.1041
N3320 X2.5328 Z0.0971
N3321 X2.57 Z0.0757
N3322 Z0.0761 A1018.
N3323 Z0.0763 A1020.
N3324 X2.5328 Z0.0976
N3325 X2.4956 Z0.1046
N3326 X2.3841 Z0.1011
N3327 X2.3469 Z0.0847
N3328 X2.3283 Z0.0697
N3329 X2.3097 Z0.0628
N3330 X1.6403
N3331 X1.6031 Z0.0865
N3332 X1.5659 Z0.1017
N3333 X1.4544 Z0.1045
N3334 X1.4172 Z0.0966
N3335 X1.38 Z0.0739
N3336 Z0.0737 A1022.
N3337 Z0.0733 A1024.
N3338 X1.4172 Z0.0961
N3339 X1.4544 Z0.104
N3340 X1.5659 Z0.1012
N3341 X1.6031 Z0.086
N3342 X1.6403 Z0.0629
N3343 X2.3097
N3344 X2.3283 Z0.0691
N3345 X2.3469 Z0.0842
N3346 X2.3841 Z0.1005
N3347 X2.4956 Z0.1041
N3348 X2.5328 Z0.0971
N3349 X2.57 Z0.0757
N3350 Z0.075 A1026.
N3351 Z0.074 A1028.
N3352 X2.5328 Z0.0956
N3353 X2.4956 Z0.1026
N3354 X2.3841 Z0.099
N3355 X2.3469 Z0.0825
N3356 X2.3283 Z0.0673
N3357 X2.3097 Z0.0626
N3358 X1.6403
N3359 X1.6217 Z0.07
N3360 X1.6031 Z0.0843
N3361 X1.5659 Z0.0997
N3362 X1.4544 Z0.1025
N3363 X1.4172 Z0.0945
N3364 X1.38 Z0.0715
N3365 Y-0.0001 Z0.0702 A1030.
N3366 Y0. Z0.0686 A1032.
N3367 X1.4172 Z0.0919
N3368 X1.4544 Z0.1
N3369 X1.5659 Z0.0972
N3370 X1.6031 Z0.0816
N3371 X1.6217 Z0.067
N3372 X1.6403 Z0.0628
N3373 X2.3283 Z0.0643
N3374 X2.3469 Z0.0798
N3375 X2.3841 Z0.0965
N3376 X2.4956 Z0.1001
N3377 X2.5328 Z0.093
N3378 X2.57 Z0.0711
N3379 Y-0.0001 Z0.0693 A1034.
N3380 Y0. Z0.0674 A1036.
N3381 X2.5328 Z0.0894
N3382 X2.4956 Z0.0966
N3383 X2.3841 Z0.093
N3384 X2.3469 Z0.0762
N3385 X2.3283 Z0.0629
N3386 X1.6217 Z0.0634
N3387 X1.6031 Z0.078
N3388 X1.5659 Z0.0936
N3389 X1.4544 Z0.0965
N3390 X1.4172 Z0.0884
N3391 X1.38 Z0.065
N3392 Z0.0635 A1038.
N3393 Z0.0622 A1040.
N3394 X1.4172 Z0.0852
N3395 X1.4544 Z0.0933
N3396 X1.5659 Z0.0904
N3397 X1.6031 Z0.075
N3398 X1.6217 Z0.0626
N3399 X2.3283
N3400 X2.3841 Z0.0898
N3401 X2.4956 Z0.0934
N3402 X2.5328 Z0.0863
N3403 X2.57 Z0.0646
N3404 Z0.0636 A1042.
N3405 Z0.0627 A1044.
N3406 X2.5328 Z0.0842
N3407 X2.4956 Z0.0912
N3408 X2.3841 Z0.0877
N3409 X2.3283 Z0.0628
N3410 X1.6217
N3411 X1.5659 Z0.0883
N3412 X1.4544 Z0.0911
N3413 X1.4172 Z0.0832
N3414 X1.38 Z0.0603
N3415 Z0.0599 A1046.
N3416 Z0.0594 A1048.
N3417 X1.4172 Z0.0822
N3418 X1.4544 Z0.0901
N3419 X1.5659 Z0.0873
N3420 X1.6217 Z0.0629
N3421 X2.3283
N3422 X2.3841 Z0.0866
N3423 X2.4956 Z0.0902
N3424 X2.5328 Z0.0832
N3425 X2.57 Z0.0618
N3426 A1050.
N3427 A1052.
N3428 X2.5328 Z0.0832
N3429 X2.4956 Z0.0902
N3430 X2.3841 Z0.0866
N3431 X2.3283 Z0.0626
N3432 X1.6217
N3433 X1.5659 Z0.0873
N3434 X1.4544 Z0.0901
N3435 X1.4172 Z0.0822
N3436 X1.38 Z0.0594
N3437 Z0.0599 A1054.
N3438 Z0.0603 A1056.
N3439 X1.4172 Z0.0832
N3440 X1.4544 Z0.0911
N3441 X1.5659 Z0.0883
N3442 X1.6217 Z0.0628
N3443 X2.3283
N3444 X2.3841 Z0.0877
N3445 X2.4956 Z0.0912
N3446 X2.5328 Z0.0842
N3447 X2.57 Z0.0627
N3448 Z0.0636 A1058.
N3449 Z0.0646 A1060.
N3450 X2.5328 Z0.0863
N3451 X2.4956 Z0.0934
N3452 X2.3841 Z0.0898
N3453 X2.3283 Z0.0629
N3454 X1.6217
N3455 X1.6031 Z0.075
N3456 X1.5659 Z0.0904
N3457 X1.4544 Z0.0933
N3458 X1.4172 Z0.0852
N3459 X1.38 Z0.0622
N3460 Z0.0635 A1062.
N3461 Z0.065 A1064.
N3462 X1.4172 Z0.0884
N3463 X1.4544 Z0.0965
N3464 X1.5659 Z0.0936
N3465 X1.6031 Z0.078
N3466 X1.6217 Z0.0634
N3467 X2.3283 Z0.0626
N3468 X2.3469 Z0.0762
N3469 X2.3841 Z0.093
N3470 X2.4956 Z0.0966
N3471 X2.5328 Z0.0894
N3472 X2.57 Z0.0674
N3473 Y0.0001 Z0.0693 A1066.
N3474 Y0. Z0.0711 A1068.
N3475 X2.5328 Z0.093
N3476 X2.4956 Z0.1001
N3477 X2.3841 Z0.0965
N3478 X2.3469 Z0.0798
N3479 X2.3283 Z0.0643
N3480 X1.6403 Z0.0629
N3481 X1.6217 Z0.067
N3482 X1.6031 Z0.0816
N3483 X1.5659 Z0.0972
N3484 X1.4544 Z0.1
N3485 X1.4172 Z0.0919
N3486 X1.38 Z0.0686
N3487 Y0.0001 Z0.0702 A1070.
N3488 Y0. Z0.0715 A1072.
N3489 X1.4172 Z0.0945
N3490 X1.4544 Z0.1025
N3491 X1.5659 Z0.0997
N3492 X1.6031 Z0.0843
N3493 X1.6217 Z0.07
N3494 X1.6403 Z0.0628
N3495 X2.3097
N3496 X2.3283 Z0.0673
N3497 X2.3469 Z0.0825
N3498 X2.3841 Z0.099
N3499 X2.4956 Z0.1026
N3500 X2.5328 Z0.0956
N3501 X2.57 Z0.074
N3502 Z0.075 A1074.
N3503 Z0.0757 A1076.
N3504 X2.5328 Z0.0971
N3505 X2.4956 Z0.1041
N3506 X2.3841 Z0.1005
N3507 X2.3469 Z0.0842
N3508 X2.3283 Z0.0691
N3509 X2.3097 Z0.0627
N3510 X1.6403
N3511 X1.6031 Z0.086
N3512 X1.5659 Z0.1012
N3513 X1.4544 Z0.104
N3514 X1.4172 Z0.0961
N3515 X1.38 Z0.0733
N3516 G00 Z0.1733
N3517 Z0.2733
N3518 Z1.125
N3519 M05
N3520 G49 M29
N3521 M01
(N3522 T1 M06)
N3523 M30
