(1001)
(T1  D=6.35 CR=0 - ZMIN=-19.8 - flat end mill)
G90 G94
G17
G21
G28 G91 Z0
G90

(Pocket1)
T1 M6
S5000 M3
G54
M8
G0 X77.219 Y29.85
Z15
Z3
G1 Z2.735 F333.3
X77.231 Y29.841 Z2.596
X77.266 Y29.813 Z2.465
X77.322 Y29.766 Z2.346
X77.394 Y29.702 Z2.246
X77.478 Y29.622 Z2.17
X77.568 Y29.529 Z2.12
X77.66 Y29.426 Z2.1
G2 X73.057 Y25.527 Z1.769 I-2.301 J-1.95
X77.66 Y29.426 Z1.438 I2.301 J1.95
X73.057 Y25.527 Z1.107 I-2.301 J-1.95
X77.66 Y29.426 Z0.776 I2.301 J1.95
X73.057 Y25.527 Z0.445 I-2.301 J-1.95
X77.66 Y29.426 Z0.115 I2.301 J1.95
X73.057 Y25.527 Z-0.216 I-2.301 J-1.95
X77.66 Y29.426 Z-0.547 I2.301 J1.95
X73.057 Y25.527 Z-0.878 I-2.301 J-1.95
X77.66 Y29.426 Z-1.209 I2.301 J1.95
X73.057 Y25.527 Z-1.54 I-2.301 J-1.95
X77.66 Y29.426 Z-1.871 I2.301 J1.95
X77.971 Y25.969 Z-2 I-2.301 J-1.95
G1 X71.662 Y15.038 F1000
X70.58 Y13.283
X70.108 Y12.606
X69.696 Y12.038
X69.476 Y11.782
X68.892 Y11.195
X67.927 Y10.255
X67.773 Y10.129
X67.328 Y9.806
X66.576 Y9.28
X65.988 Y8.882
X65.816 Y8.778
X64.29 Y8.055
X63.708 Y7.801
X63.622 Y7.768
X63.537 Y7.74
X62.007 Y7.32
X61.437 Y7.177
X61.206 Y7.133
X60.968 Y7.1
X59.775 Y6.997
X58.558 Y6.943
X57.96 Y6.929
X32.04
X31.442 Y6.943
X30.225 Y6.997
X29.032 Y7.1
X28.794 Y7.133
X28.563 Y7.177
X27.988 Y7.321
X27.375 Y7.485
X26.423 Y7.751
X26.289 Y7.802
X25.715 Y8.053
X24.184 Y8.778
X24.01 Y8.883
X23.555 Y9.189
X22.81 Y9.71
X22.21 Y10.142
X22.137 Y10.199
X21.391 Y10.916
X20.522 Y11.784
X20.301 Y12.042
X20.016 Y12.428
X19.42 Y13.284
X18.338 Y15.038
X5.897 Y36.587
X4.944 Y38.27
X4.177 Y39.926
X4.087 Y40.144
X3.921 Y40.681
X3.592 Y41.904
X3.453 Y42.475
X3.416 Y42.677
X3.278 Y44.173
X3.224 Y45
X3.278 Y45.827
X3.416 Y47.323
X3.453 Y47.525
X3.592 Y48.096
X3.921 Y49.319
X4.087 Y49.856
X4.177 Y50.074
X4.944 Y51.731
X5.536 Y52.78
X18.709 Y75.606
X19.059 Y76.19
X19.399 Y76.691
X19.89 Y77.392
X20.304 Y77.962
X20.524 Y78.218
X21.108 Y78.805
X22.073 Y79.745
X22.227 Y79.871
X22.672 Y80.194
X23.424 Y80.72
X24.012 Y81.118
X24.184 Y81.222
X25.71 Y81.945
X26.291 Y82.199
X26.378 Y82.232
X26.463 Y82.26
X27.993 Y82.68
X28.563 Y82.823
X28.794 Y82.867
X29.032 Y82.9
X30.225 Y83.003
X31.442 Y83.057
X32.04 Y83.071
X57.96
X58.558 Y83.057
X59.775 Y83.003
X60.968 Y82.9
X61.206 Y82.867
X61.437 Y82.823
X62.012 Y82.679
X62.625 Y82.515
X63.577 Y82.249
X63.711 Y82.198
X64.285 Y81.947
X65.816 Y81.222
X65.99 Y81.117
X66.445 Y80.811
X67.19 Y80.29
X67.79 Y79.858
X67.863 Y79.801
X68.609 Y79.084
X69.478 Y78.216
X69.699 Y77.958
X69.985 Y77.57
X70.541 Y76.776
X70.945 Y76.184
X71.175 Y75.806
X84.103 Y53.413
X85.056 Y51.73
X85.823 Y50.074
X85.913 Y49.856
X86.079 Y49.319
X86.408 Y48.096
X86.547 Y47.525
X86.584 Y47.323
X86.722 Y45.827
X86.776 Y45
X86.722 Y44.173
X86.584 Y42.677
X86.547 Y42.475
X86.408 Y41.904
X86.079 Y40.681
X85.913 Y40.144
X85.823 Y39.926
X85.056 Y38.269
X84.464 Y37.22
X77.971 Y25.969
G2 X73.287 Y23.667 I-4.058 J2.342
G3 X68.603 Y21.366 I-0.611 J-4.672
G1 X65.436 Y15.925
G2 X62.28 Y13.471 I-5.658 J4.02
X58.362 Y12.671 I-4.328 J11.2
G1 X30.6 Y12.717
G2 X27.296 Y13.575 I0.594 J9.077
X24.676 Y15.765 I2.919 J6.154
G1 X10.872 Y39.431
G3 X10.065 Y40.808 I-64.518 J-36.883
G2 X9.428 Y42.27 I5.277 J3.169
X8.992 Y44.452 I12.831 J3.702
X9.144 Y46.673 I6.091 J0.698
X9.719 Y48.352 I10.876 J-2.788
X10.514 Y49.94 I14.921 J-6.471
G1 X24.557 Y74.066
G2 X27.717 Y76.524 I5.694 J-4.059
X31.638 Y77.329 I4.329 J-11.132
G1 X59.4 Y77.283
G2 X62.707 Y76.421 I-0.592 J-9.045
X65.329 Y74.228 I-2.951 J-6.192
G1 X79.128 Y50.569
G2 X79.88 Y49.245 I-259.933 J-148.594
X80.529 Y47.868 I-8.975 J-5.071
X80.886 Y43.847 I-6.868 J-2.636
X79.486 Y40.06 I-12.107 J2.322
G1 X68.603 Y21.366
G2 X64.144 Y18.677 I-4.684 J2.727
G3 X58.961 Y18.171 I1.933 J-46.597
G2 X58.177 Y18.097 I-1.011 J6.546
G1 X30.955 Y18.136
G2 X29.705 Y18.513 I0.189 J2.883
X28.755 Y19.409 I1.398 J2.436
G1 X14.879 Y43.373
G2 X14.547 Y44.158 I5.103 J2.621
X14.409 Y45 I2.492 J0.842
X14.549 Y45.846 I2.629 J0
X14.884 Y46.636 I5.576 J-1.897
G1 X28.586 Y70.354
G2 X30.021 Y71.513 I2.676 J-1.845
X31.823 Y71.903 I1.98 J-4.792
G1 X59.045 Y71.864
G2 X60.367 Y71.413 I-0.175 J-2.671
X61.36 Y70.431 I-2.105 J-3.123
G1 X75.12 Y46.627
G2 X75.116 Y43.364 I-3.196 J-1.628
G1 X61.243 Y19.405
G2 X59.869 Y18.378 I-2.102 J1.378
X58.961 Y18.171 I-1.919 J6.34
X54.033 Y20.421 I-0.752 J4.874
G3 X49.291 Y23.042 I-4.742 J-2.98
G1 X34.775
G2 X31.096 Y25.165 I0 J4.247
G1 X20.875 Y42.869
G2 X20.875 Y47.123 I3.684 J2.127
G1 X31.097 Y64.835
G2 X34.774 Y66.958 I3.678 J-2.122
G1 X55.225
G2 X58.904 Y64.835 I0 J-4.247
G1 X69.125 Y47.131
G2 X69.125 Y42.877 I-3.684 J-2.127
G1 X58.903 Y25.165
G2 X55.226 Y23.042 I-3.678 J2.122
G1 X49.291
G2 X45.411 Y25.628 I0 J4.203
G3 X41.531 Y28.215 I-3.88 J-1.617
G1 X37.761
G2 X34.083 Y30.338 I0 J4.247
G1 X26.846 Y42.872
G2 X26.846 Y47.12 I3.68 J2.124
G1 X34.084 Y59.662
G2 X37.762 Y61.785 I3.678 J-2.122
G1 X52.239
G2 X55.917 Y59.662 I0 J-4.247
G1 X63.154 Y47.128
G2 X63.154 Y42.88 I-3.68 J-2.124
G1 X55.916 Y30.338
G2 X52.238 Y28.215 I-3.678 J2.122
G1 X41.531
G2 X37.397 Y32.191 I0 J4.137
G3 X35.805 Y37.702 I-11.941 J-0.464
G1 X32.82 Y42.873
G2 X32.819 Y47.121 I3.68 J2.124
G1 X37.071 Y54.488
G2 X40.749 Y56.612 I3.678 J-2.122
G1 X49.252
G2 X52.93 Y54.488 I0 J-4.247
G1 X57.18 Y47.127
G2 X57.181 Y42.879 I-3.68 J-2.124
G1 X52.929 Y35.512
G2 X49.251 Y33.388 I-3.678 J2.122
G1 X40.748
G2 X37.07 Y35.512 I0 J4.247
G1 X35.805 Y37.702
G2 X36.086 Y42.993 I4.209 J2.43
G3 X38.973 Y47.435 I-40.428 J29.441
G1 X40.059 Y49.315
G2 X43.736 Y51.439 I3.678 J-2.122
G1 X46.265
G2 X49.944 Y49.315 I0 J-4.247
G1 X51.207 Y47.127
G2 X51.208 Y42.879 I-3.68 J-2.124
G1 X49.941 Y40.685
G2 X46.264 Y38.561 I-3.678 J2.122
G1 X43.735
G2 X40.056 Y40.685 I0 J4.247
G1 X38.793 Y42.873
G2 X38.792 Y47.121 I3.68 J2.124
G1 X38.973 Y47.435
G2 X43.433 Y48.925 I3.071 J-1.772
X45.991 Y44.98 I-1.647 J-3.87
X44.007 Y45.016 I-0.992 J0.018
X45.991 Y44.98 I0.992 J-0.018
G1 X45.987 Y44.91 Z-1.992
X45.978 Y44.839 Z-1.984
X45.965 Y44.774 Z-1.961
X45.948 Y44.709 Z-1.937
X45.906 Y44.596 Z-1.861
X45.861 Y44.506 Z-1.761
X45.821 Y44.442 Z-1.641
X45.794 Y44.404 Z-1.506
X45.784 Y44.391 Z-1.365
G0 Z5
X77.219 Y29.85
Z0.735
G1 X77.231 Y29.841 Z0.596 F333.3
X77.266 Y29.813 Z0.465
X77.322 Y29.766 Z0.346
X77.394 Y29.702 Z0.246
X77.478 Y29.622 Z0.17
X77.568 Y29.529 Z0.12
X77.66 Y29.426 Z0.1
G2 X73.057 Y25.527 Z-0.231 I-2.301 J-1.95
X77.66 Y29.426 Z-0.562 I2.301 J1.95
X73.057 Y25.527 Z-0.893 I-2.301 J-1.95
X77.66 Y29.426 Z-1.224 I2.301 J1.95
X73.057 Y25.527 Z-1.555 I-2.301 J-1.95
X77.66 Y29.426 Z-1.885 I2.301 J1.95
X73.057 Y25.527 Z-2.216 I-2.301 J-1.95
X77.66 Y29.426 Z-2.547 I2.301 J1.95
X73.057 Y25.527 Z-2.878 I-2.301 J-1.95
X77.66 Y29.426 Z-3.209 I2.301 J1.95
X73.057 Y25.527 Z-3.54 I-2.301 J-1.95
X77.66 Y29.426 Z-3.871 I2.301 J1.95
X77.971 Y25.969 Z-4 I-2.301 J-1.95
G1 X71.662 Y15.038 F1000
X70.58 Y13.283
X70.108 Y12.606
X69.696 Y12.038
X69.476 Y11.782
X68.892 Y11.195
X67.927 Y10.255
X67.773 Y10.129
X67.328 Y9.806
X66.576 Y9.28
X65.988 Y8.882
X65.816 Y8.778
X64.29 Y8.055
X63.708 Y7.801
X63.622 Y7.768
X63.537 Y7.74
X62.007 Y7.32
X61.437 Y7.177
X61.206 Y7.133
X60.968 Y7.1
X59.775 Y6.997
X58.558 Y6.943
X57.96 Y6.929
X32.04
X31.442 Y6.943
X30.225 Y6.997
X29.032 Y7.1
X28.794 Y7.133
X28.563 Y7.177
X27.988 Y7.321
X27.375 Y7.485
X26.423 Y7.751
X26.289 Y7.802
X25.715 Y8.053
X24.184 Y8.778
X24.01 Y8.883
X23.555 Y9.189
X22.81 Y9.71
X22.21 Y10.142
X22.137 Y10.199
X21.391 Y10.916
X20.522 Y11.784
X20.301 Y12.042
X20.016 Y12.428
X19.42 Y13.284
X18.338 Y15.038
X5.897 Y36.587
X4.944 Y38.27
X4.177 Y39.926
X4.087 Y40.144
X3.921 Y40.681
X3.592 Y41.904
X3.453 Y42.475
X3.416 Y42.677
X3.278 Y44.173
X3.224 Y45
X3.278 Y45.827
X3.416 Y47.323
X3.453 Y47.525
X3.592 Y48.096
X3.921 Y49.319
X4.087 Y49.856
X4.177 Y50.074
X4.944 Y51.731
X5.536 Y52.78
X18.709 Y75.606
X19.059 Y76.19
X19.399 Y76.691
X19.89 Y77.392
X20.304 Y77.962
X20.524 Y78.218
X21.108 Y78.805
X22.073 Y79.745
X22.227 Y79.871
X22.672 Y80.194
X23.424 Y80.72
X24.012 Y81.118
X24.184 Y81.222
X25.71 Y81.945
X26.291 Y82.199
X26.378 Y82.232
X26.463 Y82.26
X27.993 Y82.68
X28.563 Y82.823
X28.794 Y82.867
X29.032 Y82.9
X30.225 Y83.003
X31.442 Y83.057
X32.04 Y83.071
X57.96
X58.558 Y83.057
X59.775 Y83.003
X60.968 Y82.9
X61.206 Y82.867
X61.437 Y82.823
X62.012 Y82.679
X62.625 Y82.515
X63.577 Y82.249
X63.711 Y82.198
X64.285 Y81.947
X65.816 Y81.222
X65.99 Y81.117
X66.445 Y80.811
X67.19 Y80.29
X67.79 Y79.858
X67.863 Y79.801
X68.609 Y79.084
X69.478 Y78.216
X69.699 Y77.958
X69.985 Y77.57
X70.541 Y76.776
X70.945 Y76.184
X71.175 Y75.806
X84.103 Y53.413
X85.056 Y51.73
X85.823 Y50.074
X85.913 Y49.856
X86.079 Y49.319
X86.408 Y48.096
X86.547 Y47.525
X86.584 Y47.323
X86.722 Y45.827
X86.776 Y45
X86.722 Y44.173
X86.584 Y42.677
X86.547 Y42.475
X86.408 Y41.904
X86.079 Y40.681
X85.913 Y40.144
X85.823 Y39.926
X85.056 Y38.269
X84.464 Y37.22
X77.971 Y25.969
G2 X73.287 Y23.667 I-4.058 J2.342
G3 X68.603 Y21.366 I-0.611 J-4.672
G1 X65.436 Y15.925
G2 X62.28 Y13.471 I-5.658 J4.02
X58.362 Y12.671 I-4.328 J11.2
G1 X30.6 Y12.717
G2 X27.296 Y13.575 I0.594 J9.077
X24.676 Y15.765 I2.919 J6.154
G1 X10.872 Y39.431
G3 X10.065 Y40.808 I-64.518 J-36.883
G2 X9.428 Y42.27 I5.277 J3.169
X8.992 Y44.452 I12.831 J3.702
X9.144 Y46.673 I6.091 J0.698
X9.719 Y48.352 I10.876 J-2.788
X10.514 Y49.94 I14.921 J-6.471
G1 X24.557 Y74.066
G2 X27.717 Y76.524 I5.694 J-4.059
X31.638 Y77.329 I4.329 J-11.132
G1 X59.4 Y77.283
G2 X62.707 Y76.421 I-0.592 J-9.045
X65.329 Y74.228 I-2.951 J-6.192
G1 X79.128 Y50.569
G2 X79.88 Y49.245 I-259.933 J-148.594
X80.529 Y47.868 I-8.975 J-5.071
X80.886 Y43.847 I-6.868 J-2.636
X79.486 Y40.06 I-12.107 J2.322
G1 X68.603 Y21.366
G2 X64.144 Y18.677 I-4.684 J2.727
G3 X58.961 Y18.171 I1.933 J-46.597
G2 X58.177 Y18.097 I-1.011 J6.546
G1 X30.955 Y18.136
G2 X29.705 Y18.513 I0.189 J2.883
X28.755 Y19.409 I1.398 J2.436
G1 X14.879 Y43.373
G2 X14.547 Y44.158 I5.103 J2.621
X14.409 Y45 I2.492 J0.842
X14.549 Y45.846 I2.629 J0
X14.884 Y46.636 I5.576 J-1.897
G1 X28.586 Y70.354
G2 X30.021 Y71.513 I2.676 J-1.845
X31.823 Y71.903 I1.98 J-4.792
G1 X59.045 Y71.864
G2 X60.367 Y71.413 I-0.175 J-2.671
X61.36 Y70.431 I-2.105 J-3.123
G1 X75.12 Y46.627
G2 X75.116 Y43.364 I-3.196 J-1.628
G1 X61.243 Y19.405
G2 X59.869 Y18.378 I-2.102 J1.378
X58.961 Y18.171 I-1.919 J6.34
X54.033 Y20.421 I-0.752 J4.874
G3 X49.291 Y23.042 I-4.742 J-2.98
G1 X34.775
G2 X31.096 Y25.165 I0 J4.247
G1 X20.875 Y42.869
G2 X20.875 Y47.123 I3.684 J2.127
G1 X31.097 Y64.835
G2 X34.774 Y66.958 I3.678 J-2.122
G1 X55.225
G2 X58.904 Y64.835 I0 J-4.247
G1 X69.125 Y47.131
G2 X69.125 Y42.877 I-3.684 J-2.127
G1 X58.903 Y25.165
G2 X55.226 Y23.042 I-3.678 J2.122
G1 X49.291
G2 X45.411 Y25.628 I0 J4.203
G3 X41.531 Y28.215 I-3.88 J-1.617
G1 X37.761
G2 X34.083 Y30.338 I0 J4.247
G1 X26.846 Y42.872
G2 X26.846 Y47.12 I3.68 J2.124
G1 X34.084 Y59.662
G2 X37.762 Y61.785 I3.678 J-2.122
G1 X52.239
G2 X55.917 Y59.662 I0 J-4.247
G1 X63.154 Y47.128
G2 X63.154 Y42.88 I-3.68 J-2.124
G1 X55.916 Y30.338
G2 X52.238 Y28.215 I-3.678 J2.122
G1 X41.531
G2 X37.397 Y32.191 I0 J4.137
G3 X35.805 Y37.702 I-11.941 J-0.464
G1 X32.82 Y42.873
G2 X32.819 Y47.121 I3.68 J2.124
G1 X37.071 Y54.488
G2 X40.749 Y56.612 I3.678 J-2.122
G1 X49.252
G2 X52.93 Y54.488 I0 J-4.247
G1 X57.18 Y47.127
G2 X57.181 Y42.879 I-3.68 J-2.124
G1 X52.929 Y35.512
G2 X49.251 Y33.388 I-3.678 J2.122
G1 X40.748
G2 X37.07 Y35.512 I0 J4.247
G1 X35.805 Y37.702
G2 X36.086 Y42.993 I4.209 J2.43
G3 X38.973 Y47.435 I-40.428 J29.441
G1 X40.059 Y49.315
G2 X43.736 Y51.439 I3.678 J-2.122
G1 X46.265
G2 X49.944 Y49.315 I0 J-4.247
G1 X51.207 Y47.127
G2 X51.208 Y42.879 I-3.68 J-2.124
G1 X49.941 Y40.685
G2 X46.264 Y38.561 I-3.678 J2.122
G1 X43.735
G2 X40.056 Y40.685 I0 J4.247
G1 X38.793 Y42.873
G2 X38.792 Y47.121 I3.68 J2.124
G1 X38.973 Y47.435
G2 X43.433 Y48.925 I3.071 J-1.772
X45.991 Y44.98 I-1.647 J-3.87
X44.007 Y45.016 I-0.992 J0.018
X45.991 Y44.98 I0.992 J-0.018
G1 X45.987 Y44.91 Z-3.992
X45.978 Y44.839 Z-3.984
X45.965 Y44.774 Z-3.961
X45.948 Y44.709 Z-3.937
X45.906 Y44.596 Z-3.861
X45.861 Y44.506 Z-3.761
X45.821 Y44.442 Z-3.641
X45.794 Y44.404 Z-3.506
X45.784 Y44.391 Z-3.365
G0 Z5
X77.219 Y29.85
Z3
G1 Z-1.265 F333.3
X77.231 Y29.841 Z-1.404
X77.266 Y29.813 Z-1.535
X77.322 Y29.766 Z-1.654
X77.394 Y29.702 Z-1.754
X77.478 Y29.622 Z-1.83
X77.568 Y29.529 Z-1.88
X77.66 Y29.426 Z-1.9
G2 X73.057 Y25.527 Z-2.231 I-2.301 J-1.95
X77.66 Y29.426 Z-2.562 I2.301 J1.95
X73.057 Y25.527 Z-2.893 I-2.301 J-1.95
X77.66 Y29.426 Z-3.224 I2.301 J1.95
X73.057 Y25.527 Z-3.555 I-2.301 J-1.95
X77.66 Y29.426 Z-3.885 I2.301 J1.95
X73.057 Y25.527 Z-4.216 I-2.301 J-1.95
X77.66 Y29.426 Z-4.547 I2.301 J1.95
X73.057 Y25.527 Z-4.878 I-2.301 J-1.95
X77.66 Y29.426 Z-5.209 I2.301 J1.95
X73.057 Y25.527 Z-5.54 I-2.301 J-1.95
X77.66 Y29.426 Z-5.871 I2.301 J1.95
X77.971 Y25.969 Z-6 I-2.301 J-1.95
G1 X71.662 Y15.038 F1000
X70.58 Y13.283
X70.108 Y12.606
X69.696 Y12.038
X69.476 Y11.782
X68.892 Y11.195
X67.927 Y10.255
X67.773 Y10.129
X67.328 Y9.806
X66.576 Y9.28
X65.988 Y8.882
X65.816 Y8.778
X64.29 Y8.055
X63.708 Y7.801
X63.622 Y7.768
X63.537 Y7.74
X62.007 Y7.32
X61.437 Y7.177
X61.206 Y7.133
X60.968 Y7.1
X59.775 Y6.997
X58.558 Y6.943
X57.96 Y6.929
X32.04
X31.442 Y6.943
X30.225 Y6.997
X29.032 Y7.1
X28.794 Y7.133
X28.563 Y7.177
X27.988 Y7.321
X27.375 Y7.485
X26.423 Y7.751
X26.289 Y7.802
X25.715 Y8.053
X24.184 Y8.778
X24.01 Y8.883
X23.555 Y9.189
X22.81 Y9.71
X22.21 Y10.142
X22.137 Y10.199
X21.391 Y10.916
X20.522 Y11.784
X20.301 Y12.042
X20.016 Y12.428
X19.42 Y13.284
X18.338 Y15.038
X5.897 Y36.587
X4.944 Y38.27
X4.177 Y39.926
X4.087 Y40.144
X3.921 Y40.681
X3.592 Y41.904
X3.453 Y42.475
X3.416 Y42.677
X3.278 Y44.173
X3.224 Y45
X3.278 Y45.827
X3.416 Y47.323
X3.453 Y47.525
X3.592 Y48.096
X3.921 Y49.319
X4.087 Y49.856
X4.177 Y50.074
X4.944 Y51.731
X5.536 Y52.78
X18.709 Y75.606
X19.059 Y76.19
X19.399 Y76.691
X19.89 Y77.392
X20.304 Y77.962
X20.524 Y78.218
X21.108 Y78.805
X22.073 Y79.745
X22.227 Y79.871
X22.672 Y80.194
X23.424 Y80.72
X24.012 Y81.118
X24.184 Y81.222
X25.71 Y81.945
X26.291 Y82.199
X26.378 Y82.232
X26.463 Y82.26
X27.993 Y82.68
X28.563 Y82.823
X28.794 Y82.867
X29.032 Y82.9
X30.225 Y83.003
X31.442 Y83.057
X32.04 Y83.071
X57.96
X58.558 Y83.057
X59.775 Y83.003
X60.968 Y82.9
X61.206 Y82.867
X61.437 Y82.823
X62.012 Y82.679
X62.625 Y82.515
X63.577 Y82.249
X63.711 Y82.198
X64.285 Y81.947
X65.816 Y81.222
X65.99 Y81.117
X66.445 Y80.811
X67.19 Y80.29
X67.79 Y79.858
X67.863 Y79.801
X68.609 Y79.084
X69.478 Y78.216
X69.699 Y77.958
X69.985 Y77.57
X70.541 Y76.776
X70.945 Y76.184
X71.175 Y75.806
X84.103 Y53.413
X85.056 Y51.73
X85.823 Y50.074
X85.913 Y49.856
X86.079 Y49.319
X86.408 Y48.096
X86.547 Y47.525
X86.584 Y47.323
X86.722 Y45.827
X86.776 Y45
X86.722 Y44.173
X86.584 Y42.677
X86.547 Y42.475
X86.408 Y41.904
X86.079 Y40.681
X85.913 Y40.144
X85.823 Y39.926
X85.056 Y38.269
X84.464 Y37.22
X77.971 Y25.969
G2 X73.287 Y23.667 I-4.058 J2.342
G3 X68.603 Y21.366 I-0.611 J-4.672
G1 X65.436 Y15.925
G2 X62.28 Y13.471 I-5.658 J4.02
X58.362 Y12.671 I-4.328 J11.2
G1 X30.6 Y12.717
G2 X27.296 Y13.575 I0.594 J9.077
X24.676 Y15.765 I2.919 J6.154
G1 X10.872 Y39.431
G3 X10.065 Y40.808 I-64.518 J-36.883
G2 X9.428 Y42.27 I5.277 J3.169
X8.992 Y44.452 I12.831 J3.702
X9.144 Y46.673 I6.091 J0.698
X9.719 Y48.352 I10.876 J-2.788
X10.514 Y49.94 I14.921 J-6.471
G1 X24.557 Y74.066
G2 X27.717 Y76.524 I5.694 J-4.059
X31.638 Y77.329 I4.329 J-11.132
G1 X59.4 Y77.283
G2 X62.707 Y76.421 I-0.592 J-9.045
X65.329 Y74.228 I-2.951 J-6.192
G1 X79.128 Y50.569
G2 X79.88 Y49.245 I-259.933 J-148.594
X80.529 Y47.868 I-8.975 J-5.071
X80.886 Y43.847 I-6.868 J-2.636
X79.486 Y40.06 I-12.107 J2.322
G1 X68.603 Y21.366
G2 X64.144 Y18.677 I-4.684 J2.727
G3 X58.961 Y18.171 I1.933 J-46.597
G2 X58.177 Y18.097 I-1.011 J6.546
G1 X30.955 Y18.136
G2 X29.705 Y18.513 I0.189 J2.883
X28.755 Y19.409 I1.398 J2.436
G1 X14.879 Y43.373
G2 X14.547 Y44.158 I5.103 J2.621
X14.409 Y45 I2.492 J0.842
X14.549 Y45.846 I2.629 J0
X14.884 Y46.636 I5.576 J-1.897
G1 X28.586 Y70.354
G2 X30.021 Y71.513 I2.676 J-1.845
X31.823 Y71.903 I1.98 J-4.792
G1 X59.045 Y71.864
G2 X60.367 Y71.413 I-0.175 J-2.671
X61.36 Y70.431 I-2.105 J-3.123
G1 X75.12 Y46.627
G2 X75.116 Y43.364 I-3.196 J-1.628
G1 X61.243 Y19.405
G2 X59.869 Y18.378 I-2.102 J1.378
X58.961 Y18.171 I-1.919 J6.34
X54.033 Y20.421 I-0.752 J4.874
G3 X49.291 Y23.042 I-4.742 J-2.98
G1 X34.775
G2 X31.096 Y25.165 I0 J4.247
G1 X20.875 Y42.869
G2 X20.875 Y47.123 I3.684 J2.127
G1 X31.097 Y64.835
G2 X34.774 Y66.958 I3.678 J-2.122
G1 X55.225
G2 X58.904 Y64.835 I0 J-4.247
G1 X69.125 Y47.131
G2 X69.125 Y42.877 I-3.684 J-2.127
G1 X58.903 Y25.165
G2 X55.226 Y23.042 I-3.678 J2.122
G1 X49.291
G2 X45.411 Y25.628 I0 J4.203
G3 X41.531 Y28.215 I-3.88 J-1.617
G1 X37.761
G2 X34.083 Y30.338 I0 J4.247
G1 X26.846 Y42.872
G2 X26.846 Y47.12 I3.68 J2.124
G1 X34.084 Y59.662
G2 X37.762 Y61.785 I3.678 J-2.122
G1 X52.239
G2 X55.917 Y59.662 I0 J-4.247
G1 X63.154 Y47.128
G2 X63.154 Y42.88 I-3.68 J-2.124
G1 X55.916 Y30.338
G2 X52.238 Y28.215 I-3.678 J2.122
G1 X41.531
G2 X37.397 Y32.191 I0 J4.137
G3 X35.805 Y37.702 I-11.941 J-0.464
G1 X32.82 Y42.873
G2 X32.819 Y47.121 I3.68 J2.124
G1 X37.071 Y54.488
G2 X40.749 Y56.612 I3.678 J-2.122
G1 X49.252
G2 X52.93 Y54.488 I0 J-4.247
G1 X57.18 Y47.127
G2 X57.181 Y42.879 I-3.68 J-2.124
G1 X52.929 Y35.512
G2 X49.251 Y33.388 I-3.678 J2.122
G1 X40.748
G2 X37.07 Y35.512 I0 J4.247
G1 X35.805 Y37.702
G2 X36.086 Y42.993 I4.209 J2.43
G3 X38.973 Y47.435 I-40.428 J29.441
G1 X40.059 Y49.315
G2 X43.736 Y51.439 I3.678 J-2.122
G1 X46.265
G2 X49.944 Y49.315 I0 J-4.247
G1 X51.207 Y47.127
G2 X51.208 Y42.879 I-3.68 J-2.124
G1 X49.941 Y40.685
G2 X46.264 Y38.561 I-3.678 J2.122
G1 X43.735
G2 X40.056 Y40.685 I0 J4.247
G1 X38.793 Y42.873
G2 X38.792 Y47.121 I3.68 J2.124
G1 X38.973 Y47.435
G2 X43.433 Y48.925 I3.071 J-1.772
X45.991 Y44.98 I-1.647 J-3.87
X44.007 Y45.016 I-0.992 J0.018
X45.991 Y44.98 I0.992 J-0.018
G1 X45.987 Y44.91 Z-5.992
X45.978 Y44.839 Z-5.984
X45.965 Y44.774 Z-5.961
X45.948 Y44.709 Z-5.937
X45.906 Y44.596 Z-5.861
X45.861 Y44.506 Z-5.761
X45.821 Y44.442 Z-5.641
X45.794 Y44.404 Z-5.506
X45.784 Y44.391 Z-5.365
G0 Z5
X77.219 Y29.85
G1 Z-3.265 F333.3
X77.231 Y29.841 Z-3.404
X77.266 Y29.813 Z-3.535
X77.322 Y29.766 Z-3.654
X77.394 Y29.702 Z-3.754
X77.478 Y29.622 Z-3.83
X77.568 Y29.529 Z-3.88
X77.66 Y29.426 Z-3.9
G2 X73.057 Y25.527 Z-4.231 I-2.301 J-1.95
X77.66 Y29.426 Z-4.562 I2.301 J1.95
X73.057 Y25.527 Z-4.893 I-2.301 J-1.95
X77.66 Y29.426 Z-5.224 I2.301 J1.95
X73.057 Y25.527 Z-5.555 I-2.301 J-1.95
X77.66 Y29.426 Z-5.885 I2.301 J1.95
X73.057 Y25.527 Z-6.216 I-2.301 J-1.95
X77.66 Y29.426 Z-6.547 I2.301 J1.95
X73.057 Y25.527 Z-6.878 I-2.301 J-1.95
X77.66 Y29.426 Z-7.209 I2.301 J1.95
X73.057 Y25.527 Z-7.54 I-2.301 J-1.95
X77.66 Y29.426 Z-7.871 I2.301 J1.95
X77.971 Y25.969 Z-8 I-2.301 J-1.95
G1 X71.662 Y15.038 F1000
X70.58 Y13.283
X70.108 Y12.606
X69.696 Y12.038
X69.476 Y11.782
X68.892 Y11.195
X67.927 Y10.255
X67.773 Y10.129
X67.328 Y9.806
X66.576 Y9.28
X65.988 Y8.882
X65.816 Y8.778
X64.29 Y8.055
X63.708 Y7.801
X63.622 Y7.768
X63.537 Y7.74
X62.007 Y7.32
X61.437 Y7.177
X61.206 Y7.133
X60.968 Y7.1
X59.775 Y6.997
X58.558 Y6.943
X57.96 Y6.929
X32.04
X31.442 Y6.943
X30.225 Y6.997
X29.032 Y7.1
X28.794 Y7.133
X28.563 Y7.177
X27.988 Y7.321
X27.375 Y7.485
X26.423 Y7.751
X26.289 Y7.802
X25.715 Y8.053
X24.184 Y8.778
X24.01 Y8.883
X23.555 Y9.189
X22.81 Y9.71
X22.21 Y10.142
X22.137 Y10.199
X21.391 Y10.916
X20.522 Y11.784
X20.301 Y12.042
X20.016 Y12.428
X19.42 Y13.284
X18.338 Y15.038
X5.897 Y36.587
X4.944 Y38.27
X4.177 Y39.926
X4.087 Y40.144
X3.921 Y40.681
X3.592 Y41.904
X3.453 Y42.475
X3.416 Y42.677
X3.278 Y44.173
X3.224 Y45
X3.278 Y45.827
X3.416 Y47.323
X3.453 Y47.525
X3.592 Y48.096
X3.921 Y49.319
X4.087 Y49.856
X4.177 Y50.074
X4.944 Y51.731
X5.536 Y52.78
X18.709 Y75.606
X19.059 Y76.19
X19.399 Y76.691
X19.89 Y77.392
X20.304 Y77.962
X20.524 Y78.218
X21.108 Y78.805
X22.073 Y79.745
X22.227 Y79.871
X22.672 Y80.194
X23.424 Y80.72
X24.012 Y81.118
X24.184 Y81.222
X25.71 Y81.945
X26.291 Y82.199
X26.378 Y82.232
X26.463 Y82.26
X27.993 Y82.68
X28.563 Y82.823
X28.794 Y82.867
X29.032 Y82.9
X30.225 Y83.003
X31.442 Y83.057
X32.04 Y83.071
X57.96
X58.558 Y83.057
X59.775 Y83.003
X60.968 Y82.9
X61.206 Y82.867
X61.437 Y82.823
X62.012 Y82.679
X62.625 Y82.515
X63.577 Y82.249
X63.711 Y82.198
X64.285 Y81.947
X65.816 Y81.222
X65.99 Y81.117
X66.445 Y80.811
X67.19 Y80.29
X67.79 Y79.858
X67.863 Y79.801
X68.609 Y79.084
X69.478 Y78.216
X69.699 Y77.958
X69.985 Y77.57
X70.541 Y76.776
X70.945 Y76.184
X71.175 Y75.806
X84.103 Y53.413
X85.056 Y51.73
X85.823 Y50.074
X85.913 Y49.856
X86.079 Y49.319
X86.408 Y48.096
X86.547 Y47.525
X86.584 Y47.323
X86.722 Y45.827
X86.776 Y45
X86.722 Y44.173
X86.584 Y42.677
X86.547 Y42.475
X86.408 Y41.904
X86.079 Y40.681
X85.913 Y40.144
X85.823 Y39.926
X85.056 Y38.269
X84.464 Y37.22
X77.971 Y25.969
G2 X73.287 Y23.667 I-4.058 J2.342
G3 X68.603 Y21.366 I-0.611 J-4.672
G1 X65.436 Y15.925
G2 X62.28 Y13.471 I-5.658 J4.02
X58.362 Y12.671 I-4.328 J11.2
G1 X30.6 Y12.717
G2 X27.296 Y13.575 I0.594 J9.077
X24.676 Y15.765 I2.919 J6.154
G1 X10.872 Y39.431
G3 X10.065 Y40.808 I-64.518 J-36.883
G2 X9.428 Y42.27 I5.277 J3.169
X8.992 Y44.452 I12.831 J3.702
X9.144 Y46.673 I6.091 J0.698
X9.719 Y48.352 I10.876 J-2.788
X10.514 Y49.94 I14.921 J-6.471
G1 X24.557 Y74.066
G2 X27.717 Y76.524 I5.694 J-4.059
X31.638 Y77.329 I4.329 J-11.132
G1 X59.4 Y77.283
G2 X62.707 Y76.421 I-0.592 J-9.045
X65.329 Y74.228 I-2.951 J-6.192
G1 X79.128 Y50.569
G2 X79.88 Y49.245 I-259.933 J-148.594
X80.529 Y47.868 I-8.975 J-5.071
X80.886 Y43.847 I-6.868 J-2.636
X79.486 Y40.06 I-12.107 J2.322
G1 X68.603 Y21.366
G2 X64.144 Y18.677 I-4.684 J2.727
G3 X58.961 Y18.171 I1.933 J-46.597
G2 X58.177 Y18.097 I-1.011 J6.546
G1 X30.955 Y18.136
G2 X29.705 Y18.513 I0.189 J2.883
X28.755 Y19.409 I1.398 J2.436
G1 X14.879 Y43.373
G2 X14.547 Y44.158 I5.103 J2.621
X14.409 Y45 I2.492 J0.842
X14.549 Y45.846 I2.629 J0
X14.884 Y46.636 I5.576 J-1.897
G1 X28.586 Y70.354
G2 X30.021 Y71.513 I2.676 J-1.845
X31.823 Y71.903 I1.98 J-4.792
G1 X59.045 Y71.864
G2 X60.367 Y71.413 I-0.175 J-2.671
X61.36 Y70.431 I-2.105 J-3.123
G1 X75.12 Y46.627
G2 X75.116 Y43.364 I-3.196 J-1.628
G1 X61.243 Y19.405
G2 X59.869 Y18.378 I-2.102 J1.378
X58.961 Y18.171 I-1.919 J6.34
X54.033 Y20.421 I-0.752 J4.874
G3 X49.291 Y23.042 I-4.742 J-2.98
G1 X34.775
G2 X31.096 Y25.165 I0 J4.247
G1 X20.875 Y42.869
G2 X20.875 Y47.123 I3.684 J2.127
G1 X31.097 Y64.835
G2 X34.774 Y66.958 I3.678 J-2.122
G1 X55.225
G2 X58.904 Y64.835 I0 J-4.247
G1 X69.125 Y47.131
G2 X69.125 Y42.877 I-3.684 J-2.127
G1 X58.903 Y25.165
G2 X55.226 Y23.042 I-3.678 J2.122
G1 X49.291
G2 X45.411 Y25.628 I0 J4.203
G3 X41.531 Y28.215 I-3.88 J-1.617
G1 X37.761
G2 X34.083 Y30.338 I0 J4.247
G1 X26.846 Y42.872
G2 X26.846 Y47.12 I3.68 J2.124
G1 X34.084 Y59.662
G2 X37.762 Y61.785 I3.678 J-2.122
G1 X52.239
G2 X55.917 Y59.662 I0 J-4.247
G1 X63.154 Y47.128
G2 X63.154 Y42.88 I-3.68 J-2.124
G1 X55.916 Y30.338
G2 X52.238 Y28.215 I-3.678 J2.122
G1 X41.531
G2 X37.397 Y32.191 I0 J4.137
G3 X35.805 Y37.702 I-11.941 J-0.464
G1 X32.82 Y42.873
G2 X32.819 Y47.121 I3.68 J2.124
G1 X37.071 Y54.488
G2 X40.749 Y56.612 I3.678 J-2.122
G1 X49.252
G2 X52.93 Y54.488 I0 J-4.247
G1 X57.18 Y47.127
G2 X57.181 Y42.879 I-3.68 J-2.124
G1 X52.929 Y35.512
G2 X49.251 Y33.388 I-3.678 J2.122
G1 X40.748
G2 X37.07 Y35.512 I0 J4.247
G1 X35.805 Y37.702
G2 X36.086 Y42.993 I4.209 J2.43
G3 X38.973 Y47.435 I-40.428 J29.441
G1 X40.059 Y49.315
G2 X43.736 Y51.439 I3.678 J-2.122
G1 X46.265
G2 X49.944 Y49.315 I0 J-4.247
G1 X51.207 Y47.127
G2 X51.208 Y42.879 I-3.68 J-2.124
G1 X49.941 Y40.685
G2 X46.264 Y38.561 I-3.678 J2.122
G1 X43.735
G2 X40.056 Y40.685 I0 J4.247
G1 X38.793 Y42.873
G2 X38.792 Y47.121 I3.68 J2.124
G1 X38.973 Y47.435
G2 X43.433 Y48.925 I3.071 J-1.772
X45.991 Y44.98 I-1.647 J-3.87
X44.007 Y45.016 I-0.992 J0.018
X45.991 Y44.98 I0.992 J-0.018
X45.822 Y44.749 I-0.248 J0.004
G1 X44.979 Y44.467
X44.928 Y44.443
X44.884 Y44.409
X44.848 Y44.365
X43.858 Y42.802
X43.594 Y42.269
X43.581 Y42.227
X43.583 Y42.184
X43.598 Y42.144
X43.625 Y42.111
X43.662 Y42.088
X43.704 Y42.078
X43.747 Y42.082
G3 X42.203 Y47.914 Z-8.331 I-0.772 J2.916 F333.3
X43.747 Y42.082 Z-8.662 I0.772 J-2.916
X45.991 Y44.998 Z-8.8 I-0.772 J2.916
X44.007 Y44.998 I-0.992 J0 F1000
X45.991 Y44.998 I0.992 J0
G2 X47.603 Y48.051 I3.697 J0
G3 X46.79 Y51.406 I-1.041 J1.524
X46.265 Y51.439 I-0.525 J-4.215
G1 X43.736
G3 X40.059 Y49.315 I0 J-4.246
G1 X38.792 Y47.121
G3 X38.793 Y42.873 I3.68 J-2.124
G1 X40.056 Y40.685
G3 X43.735 Y38.561 I3.678 J2.124
G1 X46.264
G3 X49.941 Y40.685 I0 J4.246
G1 X51.208 Y42.879
G3 X51.207 Y47.127 I-3.68 J2.124
G1 X49.944 Y49.315
G3 X46.79 Y51.406 I-3.678 J-2.124
G2 X43.441 Y54.291 I0.493 J3.958
G3 X39.584 Y56.449 I-3.002 J-0.839
X37.071 Y54.488 I1.165 J-4.083
G1 X32.819 Y47.121
G3 X32.82 Y42.873 I3.68 J-2.124
G1 X37.07 Y35.512
G3 X40.748 Y33.388 I3.678 J2.124
G1 X49.251
G3 X52.929 Y35.512 I0 J4.246
G1 X57.181 Y42.879
G3 X57.18 Y47.127 I-3.68 J2.124
G1 X52.93 Y54.488
G3 X49.252 Y56.612 I-3.678 J-2.124
G1 X40.749
G3 X39.584 Y56.449 I0 J-4.246
G2 X35.952 Y57.217 I-1.09 J3.821
G3 X32.297 Y56.565 I-1.553 J-1.865
G1 X26.846 Y47.12
G3 X26.846 Y42.872 I3.68 J-2.124
G1 X34.083 Y30.338
G3 X37.761 Y28.215 I3.678 J2.124
G1 X52.238
G3 X55.916 Y30.338 I0 J4.246
G1 X63.154 Y42.88
G3 X63.154 Y47.128 I-3.68 J2.124
G1 X55.917 Y59.662
G3 X52.239 Y61.785 I-3.678 J-2.124
G1 X37.762
G3 X34.084 Y59.662 I0 J-4.246
G1 X32.297 Y56.565
G2 X28.117 Y54.498 I-3.64 J2.101
G3 X23.938 Y52.43 I-0.539 J-4.168
G1 X20.875 Y47.123
G3 X20.875 Y42.869 I3.684 J-2.126
G1 X31.096 Y25.165
G3 X34.775 Y23.042 I3.678 J2.124
G1 X55.226
G3 X58.903 Y25.165 I0 J4.246
G1 X69.125 Y42.877
G3 X69.125 Y47.131 I-3.684 J2.126
G1 X58.904 Y64.835
G3 X55.225 Y66.958 I-3.678 J-2.124
G1 X34.774
G3 X31.097 Y64.835 I0 J-4.246
G1 X23.938 Y52.43
G2 X19.944 Y50.456 I-3.476 J2.006
G3 X15.95 Y48.482 I-0.516 J-3.983
G1 X14.884 Y46.636
G3 X14.549 Y45.846 I5.242 J-2.687
X14.409 Y45 I2.489 J-0.846
X14.547 Y44.158 I2.631 J0
X14.879 Y43.373 I5.435 J1.835
G1 X28.755 Y19.409
G3 X29.705 Y18.513 I2.349 J1.541
X30.955 Y18.136 I1.439 J2.506
G1 X58.177 Y18.097
G3 X59.869 Y18.378 I-0.226 J6.62
X61.243 Y19.405 I-0.728 J2.406
G1 X75.116 Y43.364
G3 X75.12 Y46.627 I-3.192 J1.636
G1 X61.36 Y70.431
G3 X60.367 Y71.413 I-3.098 J-2.141
X59.045 Y71.864 I-1.496 J-2.22
G1 X31.823 Y71.903
G3 X30.021 Y71.513 I0.177 J-5.181
X28.586 Y70.354 I1.241 J-3.004
G1 X15.95 Y48.482
G2 X12.099 Y46.631 I-3.282 J1.896
G3 X9.124 Y43.564 I-0.394 J-2.594
X9.428 Y42.27 I13.136 J2.408
X10.065 Y40.808 I5.914 J1.706
G2 X10.872 Y39.431 I-63.711 J-38.259
G1 X24.676 Y15.765
G3 X27.296 Y13.575 I5.538 J3.965
X30.6 Y12.717 I3.898 J8.219
G1 X58.362 Y12.671
G3 X62.28 Y13.471 I-0.41 J12
X65.436 Y15.925 I-2.502 J6.475
G1 X79.486 Y40.06
G3 X80.886 Y43.847 I-10.708 J6.109
X80.529 Y47.868 I-7.225 J1.386
X79.88 Y49.245 I-9.624 J-3.694
X79.128 Y50.569 I-260.685 J-147.271
G1 X65.329 Y74.228
G3 X62.707 Y76.421 I-5.572 J-4
X59.4 Y77.283 I-3.899 J-8.182
G1 X31.638 Y77.329
G3 X27.717 Y76.524 I0.408 J-11.937
X24.557 Y74.066 I2.535 J-6.517
G1 X10.514 Y49.94
G3 X9.719 Y48.352 I14.126 J-8.059
X9.144 Y46.673 I10.301 J-4.468
X8.992 Y44.452 I5.939 J-1.523
X9.124 Y43.564 I13.268 J1.52
G2 X7.68 Y39.213 I-4.687 J-0.859
G3 X6.998 Y34.68 I2.503 J-2.694
G1 X18.338 Y15.038
X19.42 Y13.284
X20.016 Y12.428
X20.301 Y12.042
X20.522 Y11.784
X21.391 Y10.916
X22.137 Y10.199
X22.21 Y10.142
X22.81 Y9.71
X23.555 Y9.189
X24.01 Y8.883
X24.184 Y8.778
X25.715 Y8.053
X26.289 Y7.802
X26.423 Y7.751
X27.375 Y7.485
X27.988 Y7.321
X28.563 Y7.177
X28.794 Y7.133
X29.032 Y7.1
X30.225 Y6.997
X31.442 Y6.943
X32.04 Y6.929
X57.96
X58.558 Y6.943
X59.775 Y6.997
X60.968 Y7.1
X61.206 Y7.133
X61.437 Y7.177
X62.007 Y7.32
X63.537 Y7.74
X63.622 Y7.768
X63.708 Y7.801
X64.29 Y8.055
X65.816 Y8.778
X65.988 Y8.882
X66.576 Y9.28
X67.328 Y9.806
X67.773 Y10.129
X67.927 Y10.255
X68.892 Y11.195
X69.476 Y11.782
X69.696 Y12.038
X70.108 Y12.606
X70.58 Y13.283
X71.662 Y15.038
X84.464 Y37.22
X85.056 Y38.269
X85.823 Y39.926
X85.913 Y40.144
X86.079 Y40.681
X86.408 Y41.904
X86.547 Y42.475
X86.584 Y42.677
X86.722 Y44.173
X86.776 Y45
X86.722 Y45.827
X86.584 Y47.323
X86.547 Y47.525
X86.408 Y48.096
X86.079 Y49.319
X85.913 Y49.856
X85.823 Y50.074
X85.056 Y51.73
X84.103 Y53.413
X71.175 Y75.806
X70.945 Y76.184
X70.541 Y76.776
X69.985 Y77.57
X69.699 Y77.958
X69.478 Y78.216
X68.609 Y79.084
X67.863 Y79.801
X67.79 Y79.858
X67.19 Y80.29
X66.445 Y80.811
X65.99 Y81.117
X65.816 Y81.222
X64.285 Y81.947
X63.711 Y82.198
X63.577 Y82.249
X62.625 Y82.515
X62.012 Y82.679
X61.437 Y82.823
X61.206 Y82.867
X60.968 Y82.9
X59.775 Y83.003
X58.558 Y83.057
X57.96 Y83.071
X32.04
X31.442 Y83.057
X30.225 Y83.003
X29.032 Y82.9
X28.794 Y82.867
X28.563 Y82.823
X27.993 Y82.68
X26.463 Y82.26
X26.378 Y82.232
X26.291 Y82.199
X25.71 Y81.945
X24.184 Y81.222
X24.012 Y81.118
X23.424 Y80.72
X22.672 Y80.194
X22.227 Y79.871
X22.073 Y79.745
X21.108 Y78.805
X20.524 Y78.218
X20.304 Y77.962
X19.89 Y77.392
X19.399 Y76.691
X19.059 Y76.19
X18.709 Y75.606
X5.536 Y52.78
X4.944 Y51.731
X4.177 Y50.074
X4.087 Y49.856
X3.921 Y49.319
X3.592 Y48.096
X3.453 Y47.525
X3.416 Y47.323
X3.278 Y45.827
X3.224 Y45
X3.278 Y44.173
X3.416 Y42.677
X3.453 Y42.475
X3.592 Y41.904
X3.797 Y41.141
X3.921 Y40.681
X4.087 Y40.144
X4.177 Y39.926
X4.944 Y38.27
X5.897 Y36.587
X6.998 Y34.68
X7.024 Y34.648
X7.059 Y34.627
X7.1 Y34.619
X7.14 Y34.624
X7.604 Y34.769
X7.638 Y34.775
X7.672 Y34.771
X14.31 Y33.043
G3 X14.407 Y33.415 I0.048 J0.186
X14.175 Y33.17 I-0.048 J-0.186
G1 X14.335 Y32.678
G3 X19.914 Y34.973 Z-9.131 I2.789 J1.147 F333.3
X14.335 Y32.678 Z-9.462 I-2.789 J-1.147
X19.914 Y34.973 Z-9.793 I2.789 J1.147
X14.335 Y32.678 Z-10.124 I-2.789 J-1.147
X19.914 Y34.973 Z-10.455 I2.789 J1.147
X15.786 Y36.529 Z-10.627 I-2.789 J-1.147
X14.52 Y32.304 Z-10.8 I1.338 J-2.703
G1 X24.327 Y15.515 F1000
G3 X27.087 Y13.2 I5.882 J4.211
X30.572 Y12.289 I4.106 J8.582
G1 X59.428
G3 X66.144 Y16.192 I-0.57 J8.712
X72.097 Y26.121 I-119.972 J78.663
G2 X77.764 Y36.216 I427.076 J-233.112
G3 X80.56 Y41.704 I-51.065 J29.471
X80.984 Y47.849 I-8.207 J3.654
X79.627 Y50.772 I-10.107 J-2.916
G2 X77.926 Y53.509 I41.343 J27.589
G1 X65.678 Y74.479
G3 X62.916 Y76.796 I-5.916 J-4.247
X59.428 Y77.711 I-4.107 J-8.546
G1 X30.572
G3 X26.705 Y76.477 I0.549 J-8.39
X23.763 Y73.681 I5.184 J-8.4
G1 X9.666 Y49.311
G3 X8.586 Y45.708 I9.226 J-4.729
X9.069 Y41.977 I7.942 J-0.868
X10.463 Y39.176 I15.354 J5.892
G2 X12.072 Y36.493 I-79.552 J-49.542
G1 X14.52 Y32.304
G2 X14.218 Y27.501 I-3.726 J-2.177
G3 X13.915 Y22.698 I3.463 J-2.629
G1 X18.338 Y15.038
X19.42 Y13.284
X20.016 Y12.428
X20.301 Y12.042
X20.522 Y11.784
X21.391 Y10.916
X22.137 Y10.199
X22.21 Y10.142
X22.81 Y9.71
X23.555 Y9.189
X24.01 Y8.883
X24.184 Y8.778
X25.715 Y8.053
X26.289 Y7.802
X26.423 Y7.751
X27.375 Y7.485
X27.988 Y7.321
X28.563 Y7.177
X28.794 Y7.133
X29.032 Y7.1
X30.225 Y6.997
X31.442 Y6.943
X32.04 Y6.929
X57.96
X58.558 Y6.943
X59.775 Y6.997
X60.968 Y7.1
X61.206 Y7.133
X61.437 Y7.177
X62.007 Y7.32
X63.537 Y7.74
X63.622 Y7.768
X63.708 Y7.801
X64.29 Y8.055
X65.816 Y8.778
X65.988 Y8.882
X66.576 Y9.28
X67.328 Y9.806
X67.773 Y10.129
X67.927 Y10.255
X68.892 Y11.195
X69.476 Y11.782
X69.696 Y12.038
X70.108 Y12.606
X70.58 Y13.283
X71.662 Y15.038
X84.464 Y37.22
X85.056 Y38.269
X85.823 Y39.926
X85.913 Y40.144
X86.079 Y40.681
X86.408 Y41.904
X86.547 Y42.475
X86.584 Y42.677
X86.722 Y44.173
X86.776 Y45
X86.722 Y45.827
X86.584 Y47.323
X86.547 Y47.525
X86.408 Y48.096
X86.079 Y49.319
X85.913 Y49.856
X85.823 Y50.074
X85.056 Y51.73
X84.103 Y53.413
X71.175 Y75.806
X70.945 Y76.184
X70.541 Y76.776
X69.985 Y77.57
X69.699 Y77.958
X69.478 Y78.216
X68.609 Y79.084
X67.863 Y79.801
X67.79 Y79.858
X67.19 Y80.29
X66.445 Y80.811
X65.99 Y81.117
X65.816 Y81.222
X64.285 Y81.947
X63.711 Y82.198
X63.577 Y82.249
X62.625 Y82.515
X62.012 Y82.679
X61.437 Y82.823
X61.206 Y82.867
X60.968 Y82.9
X59.775 Y83.003
X58.558 Y83.057
X57.96 Y83.071
X32.04
X31.442 Y83.057
X30.225 Y83.003
X29.032 Y82.9
X28.794 Y82.867
X28.563 Y82.823
X27.993 Y82.68
X26.463 Y82.26
X26.378 Y82.232
X26.291 Y82.199
X25.71 Y81.945
X24.184 Y81.222
X24.012 Y81.118
X23.424 Y80.72
X22.672 Y80.194
X22.227 Y79.871
X22.073 Y79.745
X21.108 Y78.805
X20.524 Y78.218
X20.304 Y77.962
X19.89 Y77.392
X19.399 Y76.691
X19.059 Y76.19
X18.709 Y75.606
X5.536 Y52.78
X4.944 Y51.731
X4.177 Y50.074
X4.087 Y49.856
X3.921 Y49.319
X3.592 Y48.096
X3.453 Y47.525
X3.416 Y47.323
X3.278 Y45.827
X3.224 Y45
X3.278 Y44.173
X3.416 Y42.677
X3.453 Y42.475
X3.592 Y41.904
X3.797 Y41.141
X3.921 Y40.681
X4.087 Y40.144
X4.177 Y39.926
X4.944 Y38.27
X5.897 Y36.587
X13.915 Y22.698
G3 X14.505 Y22.815 I0.275 J0.159
G1 X15.822 Y32.656
X15.825 Y32.705
X15.82 Y32.753
G3 X15.554 Y33.212 I-0.758 J-0.133
G2 X11.682 Y38.365 I8.897 J10.715
X11.027 Y44.777 I9.712 J4.231
G3 X11.023 Y45.222 I-1.014 J0.213
G2 X11.647 Y51.645 I9.931 J2.278
X15.551 Y56.784 I12.89 J-5.74
G3 X15.819 Y57.245 I-0.49 J0.593
G2 X18.269 Y63.416 I16.078 J-2.81
G3 X21.756 Y69.066 I-93.459 J61.595
G2 X35.619 Y77.119 I13.945 J-8.047
G1 X40.962 Y77.142
X46.306 Y77.154
X51.65 Y77.157
G2 X57.132 Y76.792 I-0.015 J-41.475
X62.123 Y74.497 I-1.24 J-9.275
G3 X62.448 Y74.3 I0.69 J0.773
G2 X65.833 Y72.105 I-3.322 J-8.828
X68.306 Y68.919 I-11.997 J-11.866
G1 X78.218 Y51.52
G2 X79.152 Y45.167 I-9.313 J-4.615
G3 X79.154 Y44.801 I1.02 J-0.178
G2 X78.381 Y38.459 I-10.491 J-1.94
X74.563 Y33.336 I-13.625 J6.172
G3 X74.311 Y32.9 I0.504 J-0.581
G2 X71.777 Y26.66 I-16.909 J3.235
G3 X68.237 Y20.931 I95.632 J-63.032
G2 X56.369 Y12.951 I-14.091 J8.142
G1 X35.821 Y12.857
G2 X31.891 Y13.416 I-0.003 J14.067
X28.403 Y15.311 I2.599 J8.94
G3 X28.017 Y15.522 I-0.677 J-0.784
G2 X24.326 Y17.696 I2.455 J8.386
X21.681 Y21.066 I12.057 J12.186
G3 X18.213 Y26.64 I-171.871 J-103.067
G2 X15.82 Y32.753 I13.898 J8.966
X17.065 Y35.477 I2.604 J0.456
G3 X17.812 Y38.377 I-1.095 J1.828
G1 X17.192 Y39.442
X17.18 Y39.463
X16.823 Y40.097
X16.785 Y40.17
X16.47 Y40.805
X16.415 Y40.929
X16.166 Y41.564
X16.145 Y41.619
X16.034 Y41.934
X16.006 Y42.023
X15.961 Y42.181
X15.941 Y42.259
X15.924 Y42.339
X15.896 Y42.496
X15.883 Y42.586
X15.875 Y42.676
X15.862 Y42.878
X15.859 Y42.978
X15.862 Y43.078
X15.875 Y43.275
X15.886 Y43.385
X15.904 Y43.495
X15.954 Y43.734
X15.984 Y43.855
X16.023 Y43.974
X16.113 Y44.212
X16.155 Y44.312
X16.203 Y44.409
X16.289 Y44.568
X16.336 Y44.649
X16.388 Y44.727
X16.501 Y44.886
X16.543 Y44.943
X16.561 Y44.976
X16.567 Y44.996
X16.562 Y45.019
X16.534 Y45.069
X16.492 Y45.123
X16.436 Y45.198
X16.385 Y45.276
X16.286 Y45.434
X16.231 Y45.531
X16.183 Y45.632
X16.078 Y45.87
X16.036 Y45.977
X16.001 Y46.088
X15.948 Y46.284
X15.923 Y46.386
X15.906 Y46.49
X15.876 Y46.707
X15.867 Y46.786
X15.863 Y46.866
X15.859 Y46.967
X15.862 Y47.121
X15.875 Y47.328
X15.883 Y47.42
X15.897 Y47.51
X15.926 Y47.667
X15.942 Y47.747
X15.962 Y47.825
X16.008 Y47.982
X16.035 Y48.067
X16.145 Y48.381
X16.166 Y48.436
X16.415 Y49.071
X16.47 Y49.195
X16.785 Y49.83
X16.828 Y49.911
X17.552 Y51.18
X17.56 Y51.195
X18.148 Y52.2
X18.204 Y52.289
X18.266 Y52.374
X18.369 Y52.506
X18.425 Y52.574
X18.485 Y52.639
X18.614 Y52.771
X18.675 Y52.831
X18.739 Y52.887
X18.86 Y52.986
X18.938 Y53.047
X19.019 Y53.102
X19.219 Y53.229
X19.326 Y53.292
X19.438 Y53.345
X19.675 Y53.449
G2 X19.914 Y53.53 I0.633 J-1.456
G1 X20.151 Y53.591
X20.269 Y53.617
X20.389 Y53.633
X20.627 Y53.657
X20.746 Y53.664
X20.865 Y53.663
X21.102 Y53.65
X21.249 Y53.636
X21.496 Y53.6
X21.512 Y53.601
X21.533 Y53.606
X21.542 Y53.613
X21.551 Y53.623
X21.564 Y53.647
X21.566 Y53.652
X21.563 Y53.676
X21.544 Y53.713
X21.405 Y53.882
X21.35 Y53.953
X21.299 Y54.027
X21.192 Y54.192
X21.137 Y54.283
X21.088 Y54.377
X20.991 Y54.585
X20.946 Y54.688
X20.91 Y54.793
X20.845 Y55.001
X20.816 Y55.111
X20.794 Y55.224
X20.756 Y55.462
X20.742 Y55.581
X20.737 Y55.701
X20.736 Y55.939
X20.739 Y56.038
X20.748 Y56.137
X20.767 Y56.296
X20.791 Y56.439
X20.818 Y56.566
X20.851 Y56.693
X20.89 Y56.821
X20.923 Y56.918
X20.963 Y57.014
X21.078 Y57.268
X21.149 Y57.407
X26.348 Y66.416
X26.366 Y66.447
X26.752 Y67.082
X26.79 Y67.141
X27.216 Y67.776
X27.271 Y67.854
X27.331 Y67.928
X27.878 Y68.562
X27.955 Y68.645
X28.363 Y69.056
X28.443 Y69.131
X29.076 Y69.685
X29.152 Y69.748
X29.232 Y69.806
X29.865 Y70.234
X29.958 Y70.293
X30.591 Y70.66
X30.688 Y70.712
X31.321 Y71.023
X31.405 Y71.061
X31.491 Y71.094
X32.124 Y71.318
X32.185 Y71.338
X32.818 Y71.534
X32.901 Y71.557
X32.984 Y71.576
X33.617 Y71.699
X33.708 Y71.714
X34.341 Y71.799
X34.453 Y71.81
X35.086 Y71.851
X35.181 Y71.854
X37.08 Y71.861
X37.087
X51.648 Y71.856
X51.656
X54.821 Y71.84
X54.891 Y71.838
X55.524 Y71.807
X55.667 Y71.794
X56.301 Y71.705
X56.383 Y71.691
X57.016 Y71.568
X57.092 Y71.551
X57.408 Y71.473
X57.524 Y71.44
X57.683 Y71.388
X57.821 Y71.335
X57.98 Y71.266
X58.067 Y71.225
X58.151 Y71.179
X58.335 Y71.071
X58.429 Y71.011
X58.519 Y70.944
X58.702 Y70.798
X58.792 Y70.72
X58.876 Y70.637
X59.039 Y70.461
X59.118 Y70.37
X59.189 Y70.272
X59.326 Y70.071
X59.402 Y69.947
X59.483 Y69.799
X59.492 Y69.792
X59.519 Y69.778
X60.001 Y69.74
X60.122 Y69.726
X60.241 Y69.703
X60.478 Y69.647
G2 X60.717 Y69.571 I-0.363 J-1.546
G1 X60.954 Y69.474
X61.054 Y69.429
X61.151 Y69.377
X61.31 Y69.285
X61.44 Y69.2
X61.543 Y69.126
X61.646 Y69.045
X61.749 Y68.957
X61.819 Y68.893
X61.886 Y68.824
X62.092 Y68.6
X62.135 Y68.552
X62.672 Y67.918
X62.727 Y67.849
X62.779 Y67.776
X63.205 Y67.142
X63.248 Y67.074
X63.772 Y66.199
X63.786 Y66.177
X72.806 Y50.553
X72.815 Y50.538
X73.172 Y49.903
X73.211 Y49.829
X73.525 Y49.195
X73.587 Y49.055
X73.828 Y48.42
X73.846 Y48.371
X74.064 Y47.736
X74.088 Y47.66
X74.108 Y47.582
X74.182 Y47.265
X74.199 Y47.184
X74.211 Y47.102
X74.231 Y46.943
X74.241 Y46.846
X74.244 Y46.749
Y46.52
X74.241 Y46.409
X74.229 Y46.299
X74.2 Y46.087
X74.182 Y45.98
X74.156 Y45.874
X74.096 Y45.662
X74.061 Y45.552
X74.018 Y45.446
X73.92 Y45.226
X73.871 Y45.126
X73.817 Y45.025
X73.81 Y45.002
X73.821 Y44.959
X73.956 Y44.695
X74.006 Y44.587
X74.048 Y44.475
X74.117 Y44.265
X74.148 Y44.16
X74.172 Y44.053
X74.211 Y43.843
X74.224 Y43.755
X74.233 Y43.667
X74.243 Y43.526
X74.247 Y43.376
X74.243 Y43.218
X74.231 Y43.059
X74.212 Y42.9
X74.198 Y42.81
X74.179 Y42.721
X74.083 Y42.329
X74.043 Y42.191
X73.851 Y41.631
X73.829 Y41.57
X73.583 Y40.936
X73.525 Y40.805
X73.211 Y40.171
X73.172 Y40.097
X72.658 Y39.183
X72.648 Y39.166
X72.015 Y38.073
X71.985 Y38.022
X71.817 Y37.757
X71.755 Y37.665
X71.687 Y37.579
X71.575 Y37.446
X71.514 Y37.378
X71.449 Y37.313
X71.307 Y37.18
X71.246 Y37.125
X71.182 Y37.074
X71.076 Y36.993
X71.005 Y36.942
X70.931 Y36.895
X70.746 Y36.784
X70.642 Y36.727
X70.535 Y36.678
X70.297 Y36.58
G2 X70.059 Y36.503 I-0.606 J1.467
G1 X69.822 Y36.446
X69.703 Y36.423
X69.583 Y36.409
X69.346 Y36.389
X69.24 Y36.384
X69.134 Y36.386
X68.894 Y36.399
X68.876 Y36.398
X68.854 Y36.393
X68.843 Y36.388
X68.827 Y36.376
X68.812 Y36.349
Y36.332
X68.815 Y36.321
X68.89 Y36.183
X69 Y36.008
G2 X69.118 Y35.781 I-1.345 J-0.844
G1 X69.218 Y35.543
G2 X69.297 Y35.304 I-1.463 J-0.616
G1 X69.356 Y35.066
X69.377 Y34.967
X69.391 Y34.867
X69.409 Y34.708
X69.419 Y34.549
X69.421 Y34.391
X69.415 Y34.232
X69.401 Y34.073
X69.392 Y33.994
X69.379 Y33.914
X69.348 Y33.756
X69.331 Y33.676
X69.309 Y33.597
X69.262 Y33.438
G2 X69.144 Y33.153 I-1.52 J0.457
G1 X68.808 Y32.518
X68.78 Y32.467
X63.647 Y23.583
X63.629 Y23.552
X63.243 Y22.918
X63.205 Y22.858
X62.779 Y22.224
X62.723 Y22.146
X62.663 Y22.072
X62.116 Y21.437
X62.039 Y21.354
X61.637 Y20.95
X61.558 Y20.875
X60.925 Y20.32
X60.848 Y20.258
X60.768 Y20.2
X60.135 Y19.771
X60.042 Y19.713
X59.409 Y19.345
X59.312 Y19.293
X58.679 Y18.982
X58.595 Y18.944
X58.509 Y18.911
X57.876 Y18.686
X57.816 Y18.666
X57.183 Y18.47
X57.1 Y18.447
X57.016 Y18.428
X56.383 Y18.305
X56.292 Y18.29
X55.659 Y18.205
X55.547 Y18.194
X54.914 Y18.153
X54.82 Y18.15
X52.92 Y18.143
X52.914
X35.82 Y18.139
X35.803
X35.169 Y18.146
X35.086 Y18.149
X34.453 Y18.189
X34.354 Y18.199
X33.72 Y18.279
X33.638 Y18.292
X33.188 Y18.373
X33.033 Y18.409
X32.85 Y18.462
X32.743 Y18.496
X32.639 Y18.539
X32.402 Y18.645
X32.301 Y18.694
X32.205 Y18.75
X32.046 Y18.85
X31.965 Y18.904
X31.887 Y18.964
X31.729 Y19.093
X31.649 Y19.163
X31.573 Y19.239
X31.421 Y19.402
X31.347 Y19.487
X31.279 Y19.577
X31.11 Y19.82
X31.088 Y19.852
X30.893 Y20.146
X30.852 Y20.178
X30.816 Y20.191
X30.235 Y20.208
X30.144 Y20.213
X30.053 Y20.223
X29.837 Y20.254
X29.736 Y20.273
X29.636 Y20.297
X29.449 Y20.35
X29.352 Y20.38
X29.258 Y20.417
X29.063 Y20.499
X28.964 Y20.545
X28.868 Y20.598
X28.674 Y20.715
X28.599 Y20.762
X28.527 Y20.814
X28.424 Y20.892
X28.322 Y20.977
X28.22 Y21.069
X28.155 Y21.131
X28.095 Y21.196
X27.666 Y21.681
X27.649 Y21.701
X27.327 Y22.077
X27.269 Y22.149
X27.216 Y22.224
X26.79 Y22.859
X26.747 Y22.926
X26.228 Y23.793
X26.214 Y23.816
X21.149 Y32.593
X21.077 Y32.734
X20.962 Y32.988
X20.923 Y33.084
X20.89 Y33.182
X20.851 Y33.309
X20.818 Y33.436
X20.791 Y33.564
X20.767 Y33.707
X20.748 Y33.865
X20.74 Y33.964
X20.737 Y34.064
X20.739 Y34.302
X20.744 Y34.422
X20.758 Y34.541
X20.796 Y34.778
X20.818 Y34.89
X20.848 Y35
X20.911 Y35.206
X20.948 Y35.31
X20.991 Y35.412
X21.088 Y35.617
X21.137 Y35.712
X21.192 Y35.803
X21.301 Y35.972
X21.35 Y36.044
X21.404 Y36.113
X21.544 Y36.285
X21.563 Y36.321
X21.566 Y36.346
X21.551 Y36.373
X21.541 Y36.386
X21.509 Y36.397
X21.492 Y36.398
X21.161 Y36.351
X21.052 Y36.34
X20.942 Y36.336
X20.704
X20.585 Y36.341
X20.466 Y36.354
X20.229 Y36.39
X20.108 Y36.413
X19.99 Y36.445
X19.753 Y36.52
X19.653 Y36.555
X19.556 Y36.597
X19.397 Y36.671
X19.305 Y36.718
X19.217 Y36.77
X19.016 Y36.898
X18.934 Y36.954
X18.856 Y37.015
X18.735 Y37.116
X18.67 Y37.172
X18.609 Y37.232
X18.481 Y37.365
X18.421 Y37.429
X18.365 Y37.497
X18.263 Y37.63
X18.202 Y37.715
X18.146 Y37.803
X17.812 Y38.377
X17.783 Y38.412
X17.746 Y38.436
X17.702 Y38.446
X17.657 Y38.443
X17.616 Y38.425
X17.582 Y38.396
X17.149 Y37.869
X10.266 Y31.064
X10.239 Y31.043
X10.209 Y31.029
X9.618 Y30.835
X9.579 Y30.815
X9.548 Y30.786
X9.527 Y30.749
X9.517 Y30.708
X9.519 Y30.665
G3 X15.429 Y31.877 Z-11.131 I2.955 J0.606 F333.3
X9.519 Y30.665 Z-11.462 I-2.955 J-0.606
X15.429 Y31.877 Z-11.793 I2.955 J0.606
X9.519 Y30.665 Z-12.124 I-2.955 J-0.606
X15.429 Y31.877 Z-12.455 I2.955 J0.606
X11.665 Y34.177 Z-12.627 I-2.955 J-0.606
X9.631 Y30.263 Z-12.8 I0.809 J-2.906
X13.993 Y31.837 I2.181 J0.787
X13.851 Y32.084 I-0.74 J-0.262 F1000
G2 X10.876 Y36.182 I24.776 J21.11
X8.976 Y40.876 I13.117 J8.041
X8.886 Y42.689 I5.241 J1.168
X9.354 Y44.443 I6.441 J-0.779
G3 X9.354 Y45.552 I-1.307 J0.554
G2 X9.942 Y51.804 I6.069 J2.583
G3 X13.258 Y57.137 I-77.746 J52.047
G2 X13.536 Y57.539 I2.592 J-1.494
X13.849 Y57.914 I20.242 J-16.58
G3 X13.991 Y58.161 I-0.598 J0.509
G2 X17.343 Y65.28 I37.212 J-13.17
X21.541 Y71.935 I147.295 J-88.259
X26.868 Y76.92 I13.166 J-8.733
X33.919 Y78.793 I7.055 J-12.346
G1 X57.904 Y78.593
G2 X60.513 Y77.754 I-0.939 J-7.394
X62.533 Y75.903 I-2.683 J-4.958
G3 X63.549 Y75.276 I1.184 J0.782
G2 X66.37 Y74.104 I-0.667 J-5.585
X68.423 Y71.843 I-5.781 J-7.315
G1 X80.033 Y51.736
G2 X80.951 Y48.886 I-9.133 J-4.517
X80.614 Y45.911 I-5.393 J-0.894
G1 X80.533 Y45.732
X80.452 Y45.552
G3 X80.451 Y44.442 I1.306 J-0.556
G2 X80.1 Y38.66 I-5.988 J-2.538
G1 X77.159 Y33.551
G2 X76.701 Y32.925 I-3.074 J1.769
X76.163 Y32.367 I-10.975 J10.047
G3 X75.955 Y32.009 I0.551 J-0.56
G2 X75.721 Y31.219 I-14.296 J3.795
X75.386 Y30.467 I-3.751 J1.223
G3 X71.373 Y22.869 I96.927 J-56.048
G2 X66.65 Y15.69 I-28.906 J13.874
X62.271 Y12.498 I-9.174 J7.987
X57 Y11.24 I-6.282 J14.643
G1 X32.966 Y11.342
G2 X30.227 Y12.021 I0.601 J8.277
X27.986 Y13.736 I2.4 J5.46
G3 X27.057 Y14.253 I-1.104 J-0.891
G2 X23.768 Y15.63 I0.82 J6.577
X21.436 Y18.326 I5.884 J7.446
G3 X17.405 Y24.911 I-132.13 J-76.368
G2 X13.993 Y31.837 I27.768 J17.981
X14.342 Y33.972 I2.115 J0.75
G3 X14.496 Y36.13 I-1.521 J1.193
G1 X12.584 Y39.448
X12.537 Y39.536
X12.238 Y40.14
X12.213 Y40.192
X11.913 Y40.858
X11.869 Y40.967
X11.753 Y41.284
X11.721 Y41.382
X11.695 Y41.482
X11.66 Y41.641
X11.645 Y41.72
X11.633 Y41.799
X11.614 Y41.958
X11.605 Y42.077
X11.604 Y42.196
X11.615 Y42.514
G2 X11.658 Y42.833 I1.587 J-0.052
G1 X11.734 Y43.15
G2 X11.844 Y43.461 I1.544 J-0.371
G1 X11.987 Y43.763
G2 X12.178 Y44.068 I1.433 J-0.682
G1 X12.417 Y44.37
X12.487 Y44.452
X12.562 Y44.529
X12.595 Y44.56
X12.673 Y44.63
X12.755 Y44.694
X13.056 Y44.914
X13.181 Y44.998
X13.107 Y45.045
X13.035 Y45.096
X12.705 Y45.345
G2 X12.417 Y45.625 I0.956 J1.267
G1 X12.176 Y45.929
G2 X11.984 Y46.237 I1.243 J0.987
G1 X11.84 Y46.541
G2 X11.73 Y46.854 I1.435 J0.68
G1 X11.655 Y47.171
G2 X11.612 Y47.49 I1.545 J0.367
G1 X11.603 Y47.808
X11.604 Y47.927
X11.614 Y48.046
X11.633 Y48.205
X11.645 Y48.284
X11.66 Y48.363
X11.696 Y48.522
X11.722 Y48.621
X11.754 Y48.718
X11.869 Y49.035
X11.913 Y49.142
X12.213 Y49.808
X12.238 Y49.86
X12.537 Y50.464
X12.584 Y50.552
X15.601 Y55.787
X15.65 Y55.866
X15.703 Y55.942
X15.821 Y56.101
X15.892 Y56.19
X15.97 Y56.273
X16.152 Y56.456
X16.241 Y56.539
X16.336 Y56.614
X16.353 Y56.627
X16.371 Y56.732
X16.402 Y56.89
X16.42 Y56.97
X16.442 Y57.049
X16.491 Y57.208
X16.522 Y57.296
X16.557 Y57.383
X16.641 Y57.573
X16.678 Y57.649
X16.718 Y57.723
X23.944 Y70.224
X23.995 Y70.307
X24.416 Y70.942
X24.471 Y71.02
X24.949 Y71.654
X25.02 Y71.741
X25.572 Y72.376
X25.678 Y72.487
X25.865 Y72.663
X25.905 Y72.7
X26.538 Y73.259
X26.658 Y73.355
X27.393 Y73.888
X27.448 Y73.926
X27.978 Y74.278
X28.061 Y74.329
X28.148 Y74.375
X28.781 Y74.691
X28.816 Y74.708
X29.449 Y75.004
X29.532 Y75.04
X29.617 Y75.071
X30.529 Y75.377
X30.607 Y75.401
X30.96 Y75.5
X31.085 Y75.529
X31.718 Y75.652
X31.769 Y75.661
X32.402 Y75.763
X32.553 Y75.78
X33.187 Y75.82
X33.225 Y75.822
X33.859 Y75.847
X33.92 Y75.848
X54.812 Y75.854
X56.077 Y75.856
X56.147 Y75.855
X56.78 Y75.828
X56.826 Y75.825
X57.459 Y75.78
X57.546 Y75.772
X58.179 Y75.691
X58.29 Y75.673
X58.448 Y75.641
X58.601 Y75.603
X58.759 Y75.555
X58.84 Y75.528
X58.918 Y75.497
X59.076 Y75.429
X59.16 Y75.391
X59.241 Y75.347
X59.411 Y75.25
X59.5 Y75.196
X59.585 Y75.135
X59.762 Y75
X59.854 Y74.925
X59.941 Y74.842
X60.118 Y74.66
G2 X60.314 Y74.412 I-1.14 J-1.105
G1 X60.517 Y74.095
G2 X60.644 Y73.856 I-1.336 J-0.858
G1 X60.707 Y73.705
X60.745 Y73.608
X60.776 Y73.509
X60.842 Y73.267
X60.871 Y73.147
X60.889 Y73.024
X60.917 Y72.783
G2 X60.924 Y72.511 I-1.577 J-0.18
G1 X60.907 Y72.21
X60.89 Y72.057
X61.017 Y72.146
X61.109 Y72.207
X61.206 Y72.262
X61.364 Y72.344
X61.442 Y72.382
X61.523 Y72.415
X61.681 Y72.476
X61.759 Y72.504
X61.839 Y72.528
X61.998 Y72.571
X62.115 Y72.598
X62.235 Y72.616
X62.551 Y72.651
G2 X62.869 Y72.654 I0.176 J-1.578
G1 X63.186 Y72.626
G2 X63.504 Y72.564 I-0.142 J-1.581
G1 X63.821 Y72.468
G2 X64.057 Y72.376 I-0.46 J-1.519
G1 X64.215 Y72.298
X64.296 Y72.256
X64.374 Y72.209
X64.532 Y72.108
X64.656 Y72.02
X64.747 Y71.949
X64.813 Y71.894
X64.876 Y71.836
X65.039 Y71.677
X65.112 Y71.601
X65.18 Y71.521
X65.304 Y71.362
X65.369 Y71.274
X65.623 Y70.899
X65.644 Y70.868
X66.017 Y70.291
X66.058 Y70.224
X77.41 Y50.553
X77.458 Y50.463
X77.772 Y49.828
X77.791 Y49.787
X78.083 Y49.153
X78.13 Y49.038
X78.168 Y48.921
X78.213 Y48.762
X78.233 Y48.683
X78.249 Y48.604
X78.277 Y48.445
X78.293 Y48.326
X78.3 Y48.207
X78.306 Y47.889
G2 X78.281 Y47.571 I-1.587 J-0.034
G1 X78.223 Y47.253
G2 X78.129 Y46.934 I-1.562 J0.285
G1 X77.999 Y46.617
G2 X77.837 Y46.318 I-1.468 J0.604
G1 X77.645 Y46.041
G2 X77.437 Y45.797 I-1.306 J0.903
G1 X77.215 Y45.585
G2 X76.992 Y45.407 I-1.097 J1.147
G1 X76.77 Y45.261
X76.669 Y45.199
X76.563 Y45.145
X76.373 Y45.058
X76.225 Y44.998
X76.37 Y44.94
X76.552 Y44.856
X76.657 Y44.803
X76.758 Y44.742
X76.983 Y44.595
G2 X77.211 Y44.414 I-0.869 J-1.328
G1 X77.436 Y44.199
G2 X77.645 Y43.954 I-1.097 J-1.148
G1 X77.833 Y43.683
G2 X77.994 Y43.387 I-1.305 J-0.904
G1 X78.126 Y43.07
G2 X78.22 Y42.75 I-1.467 J-0.608
G1 X78.279 Y42.433
G2 X78.305 Y42.114 I-1.561 J-0.288
G1 X78.299 Y41.797
X78.292 Y41.677
X78.276 Y41.559
X78.249 Y41.4
X78.233 Y41.32
X78.213 Y41.241
X78.169 Y41.082
X78.131 Y40.966
X78.085 Y40.853
X77.785 Y40.192
X77.761 Y40.142
X77.459 Y39.535
X77.413 Y39.449
X74.8 Y34.908
X74.743 Y34.817
X74.681 Y34.73
X74.528 Y34.533
X74.466 Y34.458
X74.4 Y34.387
X74.303 Y34.288
X74.238 Y34.226
X74.171 Y34.169
X74.001 Y34.032
X73.918 Y33.97
X73.831 Y33.913
X73.662 Y33.809
X73.556 Y33.75
X73.446 Y33.699
X73.451 Y33.568
X73.449 Y33.251
X73.443 Y33.131
X73.429 Y33.012
X73.404 Y32.854
X73.389 Y32.774
X73.37 Y32.695
X73.328 Y32.536
X73.305 Y32.456
X73.277 Y32.377
X73.216 Y32.219
X73.183 Y32.138
X73.146 Y32.06
X73.064 Y31.901
X73.026 Y31.832
X67.889 Y22.948
X66.057 Y19.776
X66.006 Y19.693
X65.585 Y19.058
X65.53 Y18.98
X65.052 Y18.346
X64.981 Y18.259
X64.429 Y17.624
X64.323 Y17.513
X64.135 Y17.336
X64.095 Y17.299
X63.462 Y16.74
X63.342 Y16.644
X62.608 Y16.112
X62.553 Y16.074
X62.022 Y15.722
X61.939 Y15.67
X61.852 Y15.624
X61.219 Y15.309
X61.184 Y15.292
X60.551 Y14.996
X60.468 Y14.96
X60.383 Y14.929
X59.472 Y14.623
X59.395 Y14.599
X59.04 Y14.5
X58.915 Y14.47
X58.282 Y14.347
X58.231 Y14.338
X57.598 Y14.236
X57.447 Y14.219
X56.813 Y14.179
X56.775 Y14.177
X56.141 Y14.153
X56.079 Y14.151
X37.086 Y14.156
X37.076
X33.277 Y14.18
X33.172 Y14.184
X32.223 Y14.253
X32.07 Y14.271
X31.912 Y14.298
X31.832 Y14.314
X31.753 Y14.334
X31.595 Y14.378
X31.5 Y14.408
X31.408 Y14.443
X31.193 Y14.533
X31.084 Y14.584
X30.978 Y14.643
X30.764 Y14.774
G2 X30.553 Y14.928 I0.829 J1.354
G1 X30.349 Y15.105
G2 X30.153 Y15.308 I1.039 J1.2
G1 X29.968 Y15.537
G2 X29.813 Y15.767 I1.235 J0.997
G1 X29.687 Y15.996
G2 X29.568 Y16.269 I1.39 J0.767
G1 X29.465 Y16.586
X29.431 Y16.705
X29.406 Y16.827
X29.381 Y16.985
X29.37 Y17.064
X29.363 Y17.144
X29.354 Y17.303
X29.351 Y17.402
X29.3 Y17.371
X29.179 Y17.299
X29.044 Y17.228
X28.894 Y17.158
X28.78 Y17.11
X28.662 Y17.071
X28.346 Y16.98
G2 X28.027 Y16.922 I-0.44 J1.525
G1 X27.711 Y16.898
G2 X27.393 Y16.905 I-0.122 J1.583
G1 X27.076 Y16.945
G2 X26.758 Y17.018 I0.197 J1.575
G1 X26.441 Y17.127
G2 X26.176 Y17.246 I0.515 J1.502
G1 X25.961 Y17.367
X25.871 Y17.422
X25.785 Y17.483
X25.645 Y17.588
X25.569 Y17.649
X25.497 Y17.715
X25.343 Y17.864
X25.28 Y17.929
X25.22 Y17.997
X24.977 Y18.293
X24.92 Y18.368
X24.405 Y19.076
X24.367 Y19.132
X23.995 Y19.693
X23.943 Y19.776
X16.718 Y32.277
X16.676 Y32.355
X16.639 Y32.434
X16.555 Y32.623
X16.521 Y32.71
X16.491 Y32.798
X16.442 Y32.957
X16.421 Y33.036
X16.403 Y33.115
X16.372 Y33.274
X16.356 Y33.37
X16.335 Y33.386
X16.24 Y33.462
X16.151 Y33.544
X15.969 Y33.727
X15.892 Y33.811
X15.82 Y33.9
X15.702 Y34.059
X15.649 Y34.135
X15.601 Y34.213
X14.496 Y36.13
G3 X13.918 Y36.067 I-0.275 J-0.159
G1 X12.433 Y31.377
G3 X12.462 Y31.121 I0.303 J-0.096
G1 X22.411 Y14.143
G3 X25.942 Y11.14 I7.776 J5.567
X30.418 Y9.937 I5.248 J10.594
G1 X59.582
G3 X62.08 Y10.38 I-0.752 J11.493
X64.414 Y11.373 I-3.089 J10.501
X66.019 Y12.477 I-5.734 J10.053
X67.384 Y13.867 I-5.769 J7.035
X68.303 Y15.179 I-10.716 J8.479
X69.133 Y16.548 I-97.295 J59.94
G1 X82.433 Y39.614
G3 X82.434 Y50.383 I-10.508 J5.386
G1 X68.469 Y74.588
G3 X65.17 Y78.094 I-11.168 J-7.201
X60.731 Y79.959 I-6.096 J-8.294
X59.331 Y80.095 I-1.747 J-10.708
X57.925 Y80.126 I-2.237 J-69.966
G1 X30.418 Y80.063
G3 X26.183 Y78.881 I0.7 J-10.685
X22.687 Y76.216 I5.901 J-11.366
X22.079 Y75.436 I4.291 J-3.973
X21.543 Y74.605 I85.702 J-55.86
G1 X8.094 Y51.32
G3 X6.361 Y46.367 I12.598 J-7.187
X6.861 Y41.143 I10.48 J-1.633
X9.179 Y36.497 I20.834 J7.496
G2 X11.902 Y32.076 I-76.456 J-50.135
G1 X12.462 Y31.121
G2 X12.295 Y28.457 I-2.062 J-1.208
G3 X12.129 Y25.793 I1.923 J-1.457
G1 X18.338 Y15.038
X19.42 Y13.284
X20.016 Y12.428
X20.301 Y12.042
X20.522 Y11.784
X21.391 Y10.916
X22.137 Y10.199
X22.21 Y10.142
X22.81 Y9.71
X23.555 Y9.189
X24.01 Y8.883
X24.184 Y8.778
X25.715 Y8.053
X26.289 Y7.802
X26.423 Y7.751
X27.375 Y7.485
X27.988 Y7.321
X28.563 Y7.177
X28.794 Y7.133
X29.032 Y7.1
X30.225 Y6.997
X31.442 Y6.943
X32.04 Y6.929
X57.96
X58.558 Y6.943
X59.775 Y6.997
X60.968 Y7.1
X61.206 Y7.133
X61.437 Y7.177
X62.007 Y7.32
X63.537 Y7.74
X63.622 Y7.768
X63.708 Y7.801
X64.29 Y8.055
X65.816 Y8.778
X65.988 Y8.882
X66.576 Y9.28
X67.328 Y9.806
X67.773 Y10.129
X67.927 Y10.255
X68.892 Y11.195
X69.476 Y11.782
X69.696 Y12.038
X70.108 Y12.606
X70.58 Y13.283
X71.662 Y15.038
X84.464 Y37.22
X85.056 Y38.269
X85.823 Y39.926
X85.913 Y40.144
X86.079 Y40.681
X86.408 Y41.904
X86.547 Y42.475
X86.584 Y42.677
X86.722 Y44.173
X86.776 Y45
X86.722 Y45.827
X86.584 Y47.323
X86.547 Y47.525
X86.408 Y48.096
X86.079 Y49.319
X85.913 Y49.856
X85.823 Y50.074
X85.056 Y51.73
X84.103 Y53.413
X72.313 Y73.835
X71.175 Y75.806
X70.945 Y76.184
X70.541 Y76.776
X69.985 Y77.57
X69.699 Y77.958
X69.478 Y78.216
X68.609 Y79.084
X67.863 Y79.801
X67.79 Y79.858
X67.19 Y80.29
X66.445 Y80.811
X65.99 Y81.117
X65.816 Y81.222
X64.285 Y81.947
X63.711 Y82.198
X63.577 Y82.249
X62.625 Y82.515
X62.012 Y82.679
X61.437 Y82.823
X61.206 Y82.867
X60.968 Y82.9
X59.775 Y83.003
X58.558 Y83.057
X57.96 Y83.071
X32.04
X31.442 Y83.057
X30.225 Y83.003
X29.032 Y82.9
X28.794 Y82.867
X28.563 Y82.823
X27.993 Y82.68
X26.463 Y82.26
X26.378 Y82.232
X26.291 Y82.199
X25.71 Y81.945
X24.184 Y81.222
X24.012 Y81.118
X23.424 Y80.72
X22.672 Y80.194
X22.227 Y79.871
X22.073 Y79.745
X21.108 Y78.805
X20.524 Y78.218
X20.304 Y77.962
X19.89 Y77.392
X19.399 Y76.691
X19.059 Y76.19
X18.709 Y75.606
X5.536 Y52.78
X4.944 Y51.731
X4.177 Y50.074
X4.087 Y49.856
X3.921 Y49.319
X3.592 Y48.096
X3.453 Y47.525
X3.416 Y47.323
X3.278 Y45.827
X3.224 Y45
X3.278 Y44.173
X3.416 Y42.677
X3.453 Y42.475
X3.592 Y41.904
X3.797 Y41.141
X3.921 Y40.681
X4.087 Y40.144
X4.177 Y39.926
X4.944 Y38.27
X5.897 Y36.587
X12.129 Y25.793
X12.167 Y25.734 Z-12.792
X12.212 Y25.679 Z-12.784
X12.26 Y25.632 Z-12.761
X12.313 Y25.591 Z-12.737
X12.364 Y25.559 Z-12.699
X12.417 Y25.531 Z-12.661
X12.512 Y25.497 Z-12.561
X12.586 Y25.482 Z-12.441
X12.633 Y25.477 Z-12.306
X12.649 Y25.476 Z-12.165
G0 Z5
X36.786 Y83.071
G1 Z-10.065 F333.3
G18 G3 X36.156 Z-10.7 I-0.635 K0
G1 X32.04 Z-10.732
X31.442 Y83.057 Z-10.737
X30.225 Y83.003 Z-10.747
X29.032 Y82.9 Z-10.756
X28.794 Y82.867 Z-10.758
X28.563 Y82.823 Z-10.76
X27.993 Y82.68 Z-10.764
X26.463 Y82.26 Z-10.777
X26.378 Y82.232 Z-10.778
X26.291 Y82.199
X25.71 Y81.945 Z-10.783
X24.184 Y81.222 Z-10.797
X24.012 Y81.118 Z-10.798
X23.424 Y80.72 Z-10.804
X22.672 Y80.194 Z-10.811
X22.227 Y79.871 Z-10.815
X22.073 Y79.745 Z-10.817
X21.108 Y78.805 Z-10.827
X20.524 Y78.218 Z-10.834
X20.304 Y77.962 Z-10.837
X19.89 Y77.392 Z-10.842
X19.399 Y76.691 Z-10.849
X19.059 Y76.19 Z-10.854
X18.709 Y75.606 Z-10.859
X5.536 Y52.78 Z-11.066
X4.944 Y51.731 Z-11.075
X4.177 Y50.074 Z-11.09
X4.087 Y49.856 Z-11.092
X3.921 Y49.319 Z-11.096
X3.592 Y48.096 Z-11.106
X3.453 Y47.525 Z-11.111
X3.416 Y47.323 Z-11.112
X3.278 Y45.827 Z-11.124
X3.224 Y45 Z-11.131
X3.278 Y44.173 Z-11.137
X3.416 Y42.677 Z-11.149
X3.453 Y42.475 Z-11.15
X3.592 Y41.904 Z-11.155
X3.921 Y40.681 Z-11.165
X4.087 Y40.144 Z-11.169
X4.177 Y39.926 Z-11.171
X4.944 Y38.27 Z-11.186
X5.897 Y36.587 Z-11.201
X18.338 Y15.038 Z-11.396
X19.42 Y13.284 Z-11.413
X20.016 Y12.428 Z-11.421
X20.301 Y12.042 Z-11.424
X20.522 Y11.784 Z-11.427
X21.391 Y10.916 Z-11.437
X22.137 Y10.199 Z-11.445
X22.21 Y10.142 Z-11.446
X22.81 Y9.71 Z-11.451
X23.555 Y9.189 Z-11.459
X24.01 Y8.883 Z-11.463
X24.184 Y8.778 Z-11.465
X25.715 Y8.053 Z-11.478
X26.289 Y7.802 Z-11.483
X26.423 Y7.751 Z-11.484
X27.375 Y7.485 Z-11.492
X27.988 Y7.321 Z-11.497
X28.563 Y7.177 Z-11.501
X28.794 Y7.133 Z-11.503
X29.032 Y7.1 Z-11.505
X30.225 Y6.997 Z-11.514
X31.442 Y6.943 Z-11.524
X32.04 Y6.929 Z-11.529
X57.96 Z-11.732
X58.558 Y6.943 Z-11.737
X59.775 Y6.997 Z-11.747
X60.968 Y7.1 Z-11.756
X61.206 Y7.133 Z-11.758
X61.437 Y7.177 Z-11.76
X62.007 Y7.32 Z-11.764
X63.537 Y7.74 Z-11.777
X63.622 Y7.768 Z-11.778
X63.708 Y7.801
X64.29 Y8.055 Z-11.783
X65.816 Y8.778 Z-11.797
X65.988 Y8.882 Z-11.798
X66.576 Y9.28 Z-11.804
X67.328 Y9.806 Z-11.811
X67.773 Y10.129 Z-11.815
X67.927 Y10.255 Z-11.817
X68.892 Y11.195 Z-11.827
X69.476 Y11.782 Z-11.834
X69.696 Y12.038 Z-11.837
X70.108 Y12.606 Z-11.842
X70.58 Y13.283 Z-11.849
X71.662 Y15.038 Z-11.865
X84.464 Y37.22 Z-12.066
X85.056 Y38.269 Z-12.075
X85.823 Y39.926 Z-12.09
X85.913 Y40.144 Z-12.092
X86.079 Y40.681 Z-12.096
X86.408 Y41.904 Z-12.106
X86.547 Y42.475 Z-12.111
X86.584 Y42.677 Z-12.112
X86.722 Y44.173 Z-12.124
X86.776 Y45 Z-12.131
X86.722 Y45.827 Z-12.137
X86.584 Y47.323 Z-12.149
X86.547 Y47.525 Z-12.15
X86.408 Y48.096 Z-12.155
X86.079 Y49.319 Z-12.165
X85.913 Y49.856 Z-12.169
X85.823 Y50.074 Z-12.171
X85.056 Y51.73 Z-12.186
X84.103 Y53.413 Z-12.201
X71.175 Y75.806 Z-12.404
X70.945 Y76.184 Z-12.407
X70.541 Y76.776 Z-12.413
X69.985 Y77.57 Z-12.421
X69.699 Y77.958 Z-12.424
X69.478 Y78.216 Z-12.427
X68.609 Y79.084 Z-12.437
X67.863 Y79.801 Z-12.445
X67.79 Y79.858 Z-12.446
X67.19 Y80.29 Z-12.451
X66.445 Y80.811 Z-12.459
X65.99 Y81.117 Z-12.463
X65.816 Y81.222 Z-12.465
X64.285 Y81.947 Z-12.478
X63.711 Y82.198 Z-12.483
X63.577 Y82.249 Z-12.484
X62.625 Y82.515 Z-12.492
X62.012 Y82.679 Z-12.497
X61.437 Y82.823 Z-12.501
X61.206 Y82.867 Z-12.503
X60.968 Y82.9 Z-12.505
X59.775 Y83.003 Z-12.514
X58.558 Y83.057 Z-12.524
X57.96 Y83.071 Z-12.529
X32.04 Z-12.732
X31.442 Y83.057 Z-12.737
X30.225 Y83.003 Z-12.747
X29.032 Y82.9 Z-12.756
X28.794 Y82.867 Z-12.758
X28.563 Y82.823 Z-12.76
X27.993 Y82.68 Z-12.764
X26.463 Y82.26 Z-12.777
X26.378 Y82.232 Z-12.778
X26.291 Y82.199
X25.71 Y81.945 Z-12.783
X24.184 Y81.222 Z-12.797
X24.012 Y81.118 Z-12.798
X23.424 Y80.72 Z-12.804
X22.672 Y80.194 Z-12.811
X22.227 Y79.871 Z-12.815
X22.073 Y79.745 Z-12.817
X21.108 Y78.805 Z-12.827
X20.524 Y78.218 Z-12.834
X20.304 Y77.962 Z-12.837
X19.89 Y77.392 Z-12.842
X19.399 Y76.691 Z-12.849
X19.059 Y76.19 Z-12.854
X18.709 Y75.606 Z-12.859
X5.536 Y52.78 Z-13.066
X4.944 Y51.731 Z-13.075
X4.177 Y50.074 Z-13.09
X4.087 Y49.856 Z-13.092
X3.921 Y49.319 Z-13.096
X3.592 Y48.096 Z-13.106
X3.453 Y47.525 Z-13.111
X3.416 Y47.323 Z-13.112
X3.278 Y45.827 Z-13.124
X3.224 Y45 Z-13.131
X3.278 Y44.173 Z-13.137
X3.416 Y42.677 Z-13.149
X3.453 Y42.475 Z-13.15
X3.592 Y41.904 Z-13.155
X3.921 Y40.681 Z-13.165
X4.087 Y40.144 Z-13.169
X4.177 Y39.926 Z-13.171
X4.944 Y38.27 Z-13.186
X5.897 Y36.587 Z-13.201
X18.338 Y15.038 Z-13.396
X19.42 Y13.284 Z-13.413
X20.016 Y12.428 Z-13.421
X20.301 Y12.042 Z-13.424
X20.522 Y11.784 Z-13.427
X21.391 Y10.916 Z-13.437
X22.137 Y10.199 Z-13.445
X22.21 Y10.142 Z-13.446
X22.81 Y9.71 Z-13.451
X23.555 Y9.189 Z-13.459
X24.01 Y8.883 Z-13.463
X24.184 Y8.778 Z-13.465
X25.715 Y8.053 Z-13.478
X26.289 Y7.802 Z-13.483
X26.423 Y7.751 Z-13.484
X27.375 Y7.485 Z-13.492
X27.988 Y7.321 Z-13.497
X28.563 Y7.177 Z-13.501
X28.794 Y7.133 Z-13.503
X29.032 Y7.1 Z-13.505
X30.225 Y6.997 Z-13.514
X31.442 Y6.943 Z-13.524
X32.04 Y6.929 Z-13.529
X57.96 Z-13.732
X58.558 Y6.943 Z-13.737
X59.775 Y6.997 Z-13.747
X60.968 Y7.1 Z-13.756
X61.206 Y7.133 Z-13.758
X61.437 Y7.177 Z-13.76
X62.007 Y7.32 Z-13.764
X63.537 Y7.74 Z-13.777
X63.622 Y7.768 Z-13.778
X63.708 Y7.801
X64.29 Y8.055 Z-13.783
X65.816 Y8.778 Z-13.797
X65.988 Y8.882 Z-13.798
X66.189 Y9.018 Z-13.8
X66.576 Y9.28 F1000
X67.328 Y9.806
X67.773 Y10.129
X67.927 Y10.255
X68.892 Y11.195
X69.476 Y11.782
X69.696 Y12.038
X70.108 Y12.606
X70.58 Y13.283
X71.662 Y15.038
X84.464 Y37.22
X85.056 Y38.269
X85.823 Y39.926
X85.913 Y40.144
X86.079 Y40.681
X86.408 Y41.904
X86.547 Y42.475
X86.584 Y42.677
X86.722 Y44.173
X86.776 Y45
X86.722 Y45.827
X86.584 Y47.323
X86.547 Y47.525
X86.408 Y48.096
X86.079 Y49.319
X85.913 Y49.856
X85.823 Y50.074
X85.056 Y51.73
X84.103 Y53.413
X71.175 Y75.806
X70.945 Y76.184
X70.541 Y76.776
X69.985 Y77.57
X69.699 Y77.958
X69.478 Y78.216
X68.609 Y79.084
X67.863 Y79.801
X67.79 Y79.858
X67.19 Y80.29
X66.445 Y80.811
X65.99 Y81.117
X65.816 Y81.222
X64.285 Y81.947
X63.711 Y82.198
X63.577 Y82.249
X62.625 Y82.515
X62.012 Y82.679
X61.437 Y82.823
X61.206 Y82.867
X60.968 Y82.9
X59.775 Y83.003
X58.558 Y83.057
X57.96 Y83.071
X32.04
X31.442 Y83.057
X30.225 Y83.003
X29.032 Y82.9
X28.794 Y82.867
X28.563 Y82.823
X27.993 Y82.68
X26.463 Y82.26
X26.378 Y82.232
X26.291 Y82.199
X25.71 Y81.945
X24.184 Y81.222
X24.012 Y81.118
X23.424 Y80.72
X22.672 Y80.194
X22.227 Y79.871
X22.073 Y79.745
X21.108 Y78.805
X20.524 Y78.218
X20.304 Y77.962
X19.89 Y77.392
X19.399 Y76.691
X19.059 Y76.19
X18.709 Y75.606
X5.536 Y52.78
X4.944 Y51.731
X4.177 Y50.074
X4.087 Y49.856
X3.921 Y49.319
X3.592 Y48.096
X3.453 Y47.525
X3.416 Y47.323
X3.278 Y45.827
X3.224 Y45
X3.278 Y44.173
X3.416 Y42.677
X3.453 Y42.475
X3.592 Y41.904
X3.797 Y41.141
X3.921 Y40.681
X4.087 Y40.144
X4.177 Y39.926
X4.944 Y38.27
X5.897 Y36.587
X18.338 Y15.038
X19.42 Y13.284
X20.016 Y12.428
X20.301 Y12.042
X20.522 Y11.784
X21.391 Y10.916
X22.137 Y10.199
X22.21 Y10.142
X22.81 Y9.71
X23.555 Y9.189
X24.01 Y8.883
X24.184 Y8.778
X25.715 Y8.053
X26.289 Y7.802
X26.423 Y7.751
X27.375 Y7.485
X27.988 Y7.321
X28.563 Y7.177
X28.794 Y7.133
X29.032 Y7.1
X30.225 Y6.997
X31.442 Y6.943
X32.04 Y6.929
X57.96
X58.558 Y6.943
X59.775 Y6.997
X60.968 Y7.1
X61.206 Y7.133
X61.437 Y7.177
X62.007 Y7.32
X63.537 Y7.74
X63.622 Y7.768
X63.708 Y7.801
X64.29 Y8.055
X65.816 Y8.778
X65.988 Y8.882
X66.189 Y9.018
G17 G3 X66.278 Y9.453 I-0.178 J0.263
G1 X63.364 Y13.965
G3 X62.945 Y14.071 I-0.267 J-0.172
G1 X62.541 Y13.849
X62.478 Y13.817
X61.7 Y13.434
X61.562 Y13.375
X61.074 Y13.19
X61.016 Y13.169
X60.383 Y12.957
X60.28 Y12.926
X59.647 Y12.76
X59.548 Y12.738
X58.915 Y12.615
X58.824 Y12.6
X58.191 Y12.515
X58.08 Y12.504
X57.447 Y12.464
X57.397 Y12.461
X56.764 Y12.441
X56.713 Y12.44
X36.453 Y12.442
X36.444
X33.278 Y12.46
X33.254
X32.621 Y12.473
X32.584 Y12.474
X31.951 Y12.502
X31.81 Y12.515
X31.176 Y12.6
X31.085 Y12.615
X30.452 Y12.738
X30.359 Y12.759
X29.726 Y12.922
X29.621 Y12.953
X28.987 Y13.164
X28.913 Y13.19
X28.427 Y13.38
X28.314 Y13.428
X27.534 Y13.803
X27.446 Y13.849
X26.983 Y14.109
X26.874 Y14.176
X25.929 Y14.81
X25.849 Y14.868
X25.772 Y14.93
X25.042 Y15.565
X25.004 Y15.598
X24.611 Y15.963
X24.549 Y16.024
X24.491 Y16.087
X23.706 Y16.991
X23.646 Y17.065
X23.59 Y17.143
X23.108 Y17.855
X23.083 Y17.895
X22.73 Y18.451
X22.696 Y18.507
X10.97 Y38.812
X10.946 Y38.856
X10.605 Y39.49
X10.582 Y39.536
X10.267 Y40.17
X10.208 Y40.306
X9.964 Y40.94
X9.944 Y40.993
X9.726 Y41.628
X9.692 Y41.741
X9.593 Y42.117
X9.572 Y42.205
X9.391 Y43.098
X9.37 Y43.233
X9.297 Y43.868
X9.29 Y43.942
X9.248 Y44.576
X9.244 Y44.683
Y45.317
X9.248 Y45.423
X9.29 Y46.058
X9.297 Y46.132
X9.369 Y46.766
X9.391 Y46.902
X9.572 Y47.797
X9.593 Y47.886
X9.691 Y48.26
X9.725 Y48.372
X9.944 Y49.006
X9.963 Y49.06
X10.207 Y49.694
X10.266 Y49.829
X10.581 Y50.464
X10.607 Y50.515
X10.998 Y51.237
X11.019 Y51.275
X22.689 Y71.493
X22.725 Y71.552
X23.129 Y72.186
X23.153 Y72.223
X23.582 Y72.857
X23.637 Y72.934
X23.698 Y73.008
X24.49 Y73.922
X24.554 Y73.992
X24.622 Y74.057
X25.255 Y74.633
X25.284 Y74.659
X25.763 Y75.073
X25.838 Y75.133
X25.916 Y75.19
X26.86 Y75.824
X26.98 Y75.897
X27.457 Y76.159
X27.522 Y76.194
X28.28 Y76.566
X28.414 Y76.624
X28.922 Y76.818
X28.984 Y76.84
X29.617 Y77.052
X29.722 Y77.083
X30.355 Y77.248
X30.452 Y77.27
X31.085 Y77.393
X31.178 Y77.408
X31.811 Y77.493
X31.921 Y77.504
X32.554 Y77.544
X32.603 Y77.546
X33.236 Y77.567
X33.288
X56.713 Y77.558
X56.752
X57.385 Y77.542
X57.445 Y77.539
X58.078 Y77.5
X58.19 Y77.489
X58.823 Y77.404
X58.915 Y77.389
X59.548 Y77.266
X59.638 Y77.246
X60.271 Y77.084
X60.396 Y77.047
X61.029 Y76.829
X61.06 Y76.817
X61.568 Y76.631
X61.642 Y76.601
X61.715 Y76.568
X62.474 Y76.197
X62.543 Y76.162
X63.023 Y75.897
X63.149 Y75.821
X64.085 Y75.186
X64.163 Y75.13
X64.237 Y75.069
X64.966 Y74.435
X65.002 Y74.402
X65.389 Y74.045
X65.451 Y73.984
X65.509 Y73.92
X66.3 Y73.009
X66.361 Y72.934
X66.417 Y72.857
X66.892 Y72.153
X66.917 Y72.114
X67.276 Y71.549
X67.31 Y71.493
X79.031 Y51.187
X79.055 Y51.144
X79.395 Y50.509
X79.419 Y50.464
X79.733 Y49.829
X79.792 Y49.694
X80.036 Y49.06
X80.056 Y49.006
X80.274 Y48.372
X80.308 Y48.259
X80.407 Y47.88
X80.428 Y47.792
X80.608 Y46.902
X80.627 Y46.788
X80.708 Y46.153
X80.718 Y46.051
X80.758 Y45.416
X80.761 Y45.317
Y44.683
X80.758 Y44.584
X80.718 Y43.949
X80.709 Y43.853
X80.63 Y43.218
X80.61 Y43.097
X80.428 Y42.199
X80.4 Y42.085
X80.296 Y41.715
X80.269 Y41.628
X80.05 Y40.993
X80.031 Y40.94
X79.787 Y40.306
X79.728 Y40.171
X79.413 Y39.536
X79.387 Y39.486
X79.002 Y38.774
X78.981 Y38.736
X67.302 Y18.507
X67.265 Y18.447
X66.861 Y17.813
X66.836 Y17.776
X66.407 Y17.142
X66.351 Y17.065
X66.291 Y16.991
X65.509 Y16.09
X65.446 Y16.022
X65.379 Y15.957
X64.746 Y15.38
X64.713 Y15.351
X64.22 Y14.926
X64.146 Y14.866
X64.068 Y14.81
X63.123 Y14.176
X63.001 Y14.102
X62.945 Y14.071
X51.725 Y7.521
G3 X51.885 Y6.929 I0.16 J-0.274
G1 X57.96 Z-14.012 F333.3
X58.558 Y6.943 Z-14.033
X59.775 Y6.997 Z-14.076
X60.968 Y7.1 Z-14.117
X61.206 Y7.133 Z-14.126
X61.437 Y7.177 Z-14.134
X62.007 Y7.32 Z-14.155
X63.537 Y7.74 Z-14.21
X63.622 Y7.768 Z-14.213
X63.708 Y7.801 Z-14.216
X64.29 Y8.055 Z-14.238
X65.816 Y8.778 Z-14.297
X65.988 Y8.882 Z-14.304
X66.576 Y9.28 Z-14.329
X67.328 Y9.806 Z-14.361
X67.773 Y10.129 Z-14.38
X67.927 Y10.255 Z-14.387
X68.892 Y11.195 Z-14.434
X69.476 Y11.782 Z-14.463
X69.696 Y12.038 Z-14.475
X70.108 Y12.606 Z-14.5
X70.58 Y13.283 Z-14.528
X71.662 Y15.038 Z-14.6
X84.464 Y37.22 Z-15.495
X85.056 Y38.269 Z-15.537
X85.823 Y39.926 Z-15.601
X85.913 Y40.144 Z-15.609
X86.079 Y40.681 Z-15.629
X86.408 Y41.904 Z-15.673
X86.547 Y42.475 Z-15.693
X86.584 Y42.677 Z-15.7
X86.722 Y44.173 Z-15.753
X86.776 Y45 Z-15.782
X86.742 Y45.519 Z-15.8
X86.722 Y45.827 F1000
X86.584 Y47.323
X86.547 Y47.525
X86.408 Y48.096
X86.079 Y49.319
X85.913 Y49.856
X85.823 Y50.074
X85.056 Y51.73
X84.103 Y53.413
X71.175 Y75.806
X70.945 Y76.184
X70.541 Y76.776
X69.985 Y77.57
X69.699 Y77.958
X69.478 Y78.216
X68.609 Y79.084
X67.863 Y79.801
X67.79 Y79.858
X67.19 Y80.29
X66.445 Y80.811
X65.99 Y81.117
X65.816 Y81.222
X64.285 Y81.947
X63.711 Y82.198
X63.577 Y82.249
X62.625 Y82.515
X62.012 Y82.679
X61.437 Y82.823
X61.206 Y82.867
X60.968 Y82.9
X59.775 Y83.003
X58.558 Y83.057
X57.96 Y83.071
X32.04
X31.442 Y83.057
X30.225 Y83.003
X29.032 Y82.9
X28.794 Y82.867
X28.563 Y82.823
X27.993 Y82.68
X26.463 Y82.26
X26.378 Y82.232
X26.291 Y82.199
X25.71 Y81.945
X24.184 Y81.222
X24.012 Y81.118
X23.424 Y80.72
X22.672 Y80.194
X22.227 Y79.871
X22.073 Y79.745
X21.108 Y78.805
X20.524 Y78.218
X20.304 Y77.962
X19.89 Y77.392
X19.399 Y76.691
X19.059 Y76.19
X18.709 Y75.606
X5.536 Y52.78
X4.944 Y51.731
X4.177 Y50.074
X4.087 Y49.856
X3.921 Y49.319
X3.592 Y48.096
X3.453 Y47.525
X3.416 Y47.323
X3.278 Y45.827
X3.224 Y45
X3.278 Y44.173
X3.416 Y42.677
X3.453 Y42.475
X3.592 Y41.904
X3.797 Y41.141
X3.921 Y40.681
X4.087 Y40.144
X4.177 Y39.926
X4.944 Y38.27
X5.897 Y36.587
X18.338 Y15.038
X19.42 Y13.284
X20.016 Y12.428
X20.301 Y12.042
X20.522 Y11.784
X21.391 Y10.916
X22.137 Y10.199
X22.21 Y10.142
X22.81 Y9.71
X23.555 Y9.189
X24.01 Y8.883
X24.184 Y8.778
X25.715 Y8.053
X26.289 Y7.802
X26.423 Y7.751
X27.375 Y7.485
X27.988 Y7.321
X28.563 Y7.177
X28.794 Y7.133
X29.032 Y7.1
X30.225 Y6.997
X31.442 Y6.943
X32.04 Y6.929
X57.96
X58.558 Y6.943
X59.775 Y6.997
X60.968 Y7.1
X61.206 Y7.133
X61.437 Y7.177
X62.007 Y7.32
X63.537 Y7.74
X63.622 Y7.768
X63.708 Y7.801
X64.29 Y8.055
X65.816 Y8.778
X65.988 Y8.882
X66.576 Y9.28
X67.328 Y9.806
X67.773 Y10.129
X67.927 Y10.255
X68.892 Y11.195
X69.476 Y11.782
X69.696 Y12.038
X70.108 Y12.606
X70.58 Y13.283
X71.662 Y15.038
X84.464 Y37.22
X85.056 Y38.269
X85.823 Y39.926
X85.913 Y40.144
X86.079 Y40.681
X86.408 Y41.904
X86.547 Y42.475
X86.584 Y42.677
X86.722 Y44.173
X86.776 Y45
X86.742 Y45.519
G3 X86.396 Y45.814 I-0.317 J-0.021
G1 X84.502 Y45.64
G3 X84.213 Y45.323 I0.029 J-0.316
G1 Y45.317
Y44.683
X84.21 Y44.577
X84.167 Y43.942
X84.165 Y43.909
X84.109 Y43.274
X84.099 Y43.186
X84.083 Y43.098
X83.826 Y41.829
X83.805 Y41.739
X83.779 Y41.65
X83.546 Y40.941
X83.539 Y40.919
X83.346 Y40.359
X83.292 Y40.222
X83.005 Y39.588
X82.981 Y39.536
X82.666 Y38.901
X82.627 Y38.827
X82.154 Y37.988
X82.146 Y37.974
X69.442 Y15.969
X69.416 Y15.926
X69.022 Y15.291
X68.995 Y15.249
X68.572 Y14.614
X68.494 Y14.507
X68.086 Y13.993
X68.039 Y13.935
X67.38 Y13.18
X67.313 Y13.108
X67.241 Y13.041
X66.531 Y12.406
X66.491 Y12.372
X65.961 Y11.929
X65.896 Y11.877
X65.827 Y11.829
X65.194 Y11.404
X65.154 Y11.378
X64.513 Y10.976
X64.442 Y10.934
X64.37 Y10.896
X63.744 Y10.589
X63.722 Y10.578
X63.089 Y10.279
X63.003 Y10.241
X62.915 Y10.209
X61.649 Y9.785
X61.555 Y9.756
X61.459 Y9.734
X60.192 Y9.478
X60.051 Y9.456
X59.418 Y9.387
X59.346 Y9.381
X58.713 Y9.341
X58.663 Y9.339
X58.03 Y9.318
X57.979
X37.086 Y9.322
X37.079
X32.014 Y9.344
X31.972 Y9.345
X30.705 Y9.384
X30.683 Y9.385
X30.367 Y9.4
X30.274 Y9.406
X30.182 Y9.419
X29.776 Y9.485
X29.718 Y9.496
X28.541 Y9.734
X28.445 Y9.756
X28.351 Y9.785
X27.085 Y10.209
X26.997 Y10.241
X26.911 Y10.279
X26.278 Y10.578
X26.256 Y10.589
X25.623 Y10.9
X25.549 Y10.938
X25.478 Y10.981
X24.845 Y11.379
X24.806 Y11.404
X24.173 Y11.828
X24.102 Y11.879
X24.033 Y11.934
X23.4 Y12.468
X23.361 Y12.502
X22.727 Y13.073
X22.658 Y13.139
X22.593 Y13.21
X21.96 Y13.937
X21.914 Y13.992
X21.505 Y14.507
X21.427 Y14.614
X21.005 Y15.249
X20.975 Y15.296
X20.539 Y16.003
X20.516 Y16.042
X7.736 Y38.178
X7.725 Y38.197
X7.37 Y38.832
X7.334 Y38.901
X7.019 Y39.536
X6.994 Y39.588
X6.708 Y40.222
X6.654 Y40.359
X6.461 Y40.919
X6.454 Y40.941
X6.221 Y41.65
X6.195 Y41.739
X6.174 Y41.829
X5.917 Y43.098
X5.901 Y43.186
X5.891 Y43.274
X5.835 Y43.909
X5.833 Y43.942
X5.79 Y44.577
X5.787 Y44.683
Y45.317
X5.79 Y45.423
X5.833 Y46.058
X5.835 Y46.091
X5.891 Y46.726
X5.901 Y46.814
X5.917 Y46.902
X6.174 Y48.171
X6.195 Y48.261
X6.221 Y48.35
X6.454 Y49.059
X6.461 Y49.082
X6.654 Y49.641
X6.708 Y49.778
X6.994 Y50.412
X7.019 Y50.464
X7.334 Y51.099
X7.373 Y51.173
X7.846 Y52.012
X7.854 Y52.026
X20.558 Y74.031
X20.584 Y74.074
X20.978 Y74.709
X21.005 Y74.751
X21.427 Y75.386
X21.505 Y75.493
X21.914 Y76.007
X21.961 Y76.065
X22.62 Y76.82
X22.687 Y76.892
X22.759 Y76.959
X23.469 Y77.594
X23.509 Y77.628
X24.039 Y78.071
X24.104 Y78.123
X24.173 Y78.172
X24.806 Y78.596
X24.846 Y78.622
X25.487 Y79.024
X25.557 Y79.066
X25.63 Y79.104
X26.256 Y79.411
X26.278 Y79.422
X26.911 Y79.721
X26.997 Y79.759
X27.085 Y79.791
X28.351 Y80.215
X28.445 Y80.244
X28.542 Y80.266
X29.808 Y80.522
X29.949 Y80.544
X30.582 Y80.613
X30.654 Y80.619
X31.287 Y80.659
X31.337 Y80.662
X31.97 Y80.682
X32.021 Y80.683
X54.181 Y80.678
X57.983 Y80.669
X58.022 Y80.668
X58.656 Y80.651
X58.691 Y80.65
X59.324 Y80.618
X59.412 Y80.611
X60.046 Y80.544
X60.192 Y80.522
X61.459 Y80.266
X61.555 Y80.244
X61.649 Y80.215
X62.915 Y79.791
X63.003 Y79.758
X63.089 Y79.721
X63.722 Y79.422
X63.744 Y79.411
X64.377 Y79.1
X64.451 Y79.062
X64.522 Y79.019
X65.155 Y78.621
X65.194 Y78.596
X65.827 Y78.172
X65.898 Y78.121
X65.967 Y78.066
X66.6 Y77.532
X66.64 Y77.498
X67.273 Y76.927
X67.342 Y76.861
X67.407 Y76.79
X68.04 Y76.063
X68.086 Y76.007
X68.494 Y75.493
X68.572 Y75.386
X68.995 Y74.751
X69.025 Y74.705
X69.461 Y73.997
X69.484 Y73.958
X82.264 Y51.822
X82.275 Y51.803
X82.63 Y51.168
X82.666 Y51.099
X82.981 Y50.464
X83.005 Y50.412
X83.292 Y49.778
X83.346 Y49.641
X83.564 Y49.007
X83.573 Y48.982
X83.779 Y48.347
X83.805 Y48.26
X83.826 Y48.171
X84.083 Y46.902
X84.099 Y46.814
X84.109 Y46.726
X84.165 Y46.091
X84.167 Y46.058
X84.21 Y45.423
X84.213 Y45.323
X84.218 Y45.252 Z-15.792
X84.23 Y45.183 Z-15.784
X84.248 Y45.118 Z-15.761
X84.273 Y45.056 Z-15.737
X84.301 Y45.003 Z-15.699
X84.334 Y44.952 Z-15.661
X84.399 Y44.876 Z-15.561
X84.456 Y44.826 Z-15.441
X84.494 Y44.798 Z-15.306
X84.507 Y44.789 Z-15.165
G0 Z5
X53.216 Y82.132
G1 Z-13.065 F333.3
G18 G2 X53.846 Z-13.7 I0.635 K0
G1 X58.612 Z-13.738
X58.686 Y82.13 Z-13.739
X59.319 Y82.1 Z-13.744
X59.389 Y82.096 Z-13.745
X60.971 Y81.952 Z-13.757
G17 G2 X61.219 Y81.91 Z-13.759 I-0.143 J-1.581
G1 X61.824 Y81.756 Z-13.764
X61.846 Y81.75 Z-13.765
X63.14 Y81.401 Z-13.775
X63.24 Y81.371 Z-13.776
X63.338 Y81.334 Z-13.777
X63.655 Y81.202 Z-13.78
X63.715 Y81.176
X64.981 Y80.585 Z-13.792
X65.033 Y80.56
X65.421 Y80.361 Z-13.796
X65.516 Y80.308
X65.608 Y80.249 Z-13.797
X67.12 Y79.19 Z-13.812
X67.198 Y79.132 Z-13.813
X67.272 Y79.07 Z-13.814
X67.506 Y78.859 Z-13.816
X67.566 Y78.802 Z-13.817
X68.598 Y77.769 Z-13.829
X68.619 Y77.748
X68.847 Y77.511 Z-13.832
X68.928 Y77.421 Z-13.833
X69.001 Y77.326
X70.039 Y75.855 Z-13.848
X70.096 Y75.769 Z-13.849
X70.361 Y75.336 Z-13.853
X70.382 Y75.3
X84.046 Y51.634 Z-14.073
X84.094 Y51.544 Z-14.074
X84.315 Y51.097 Z-14.078
X84.33 Y51.065
X84.922 Y49.795 Z-14.089
X84.945 Y49.744 Z-14.09
X85.012 Y49.586 Z-14.091
X85.048 Y49.493 Z-14.092
X85.078 Y49.398 Z-14.093
X85.213 Y48.922 Z-14.097
X85.219 Y48.901
X85.559 Y47.632 Z-14.108
X85.581 Y47.539
X85.646 Y47.222 Z-14.111
X85.661 Y47.132 Z-14.112
X85.672 Y47.042
X85.811 Y45.456 Z-14.125
X85.813 Y45.424
X85.835 Y45.107 Z-14.128
X85.838 Y44.99 Z-14.129
X85.833 Y44.872 Z-14.13
X85.756 Y43.92 Z-14.138
X85.755 Y43.909
X85.672 Y42.957 Z-14.145
X85.661 Y42.867 Z-14.146
X85.646 Y42.778 Z-14.147
X85.581 Y42.461 Z-14.149
X85.559 Y42.368 Z-14.15
X85.134 Y40.782 Z-14.163
X85.115 Y40.718 Z-14.164
X85.066 Y40.56 Z-14.165
X85.033 Y40.465 Z-14.166
X84.994 Y40.373 Z-14.167
X84.631 Y39.58 Z-14.174
X84.626 Y39.57
X84.33 Y38.935 Z-14.18
X84.315 Y38.903
X84.094 Y38.456 Z-14.184
X84.046 Y38.366 Z-14.185
X70.382 Y14.7 Z-14.404
X70.361 Y14.664 Z-14.405
X70.096 Y14.231 Z-14.409
X70.039 Y14.145 Z-14.41
X69.001 Y12.675 Z-14.424
G2 X68.832 Y12.473 Z-14.426 I-1.297 J0.916
G1 X67.971 Y11.603 Z-14.436
X67.965 Y11.597
X67.566 Y11.198 Z-14.441
X67.506 Y11.141
X67.272 Y10.93 Z-14.444
X67.198 Y10.868 Z-14.445
X67.12 Y10.81 Z-14.446
X65.608 Y9.751 Z-14.46
X65.516 Y9.692 Z-14.461
X65.421 Y9.639 Z-14.462
X65.033 Y9.44 Z-14.466
X64.981 Y9.415
X63.715 Y8.824 Z-14.477
X63.655 Y8.798 Z-14.478
X63.338 Y8.666 Z-14.481
X63.24 Y8.629
X63.14 Y8.598 Z-14.482
X61.557 Y8.172 Z-14.496
X61.517 Y8.162
X61.201 Y8.086 Z-14.498
X61.087 Y8.063 Z-14.499
X60.971 Y8.048 Z-14.5
X59.389 Y7.904 Z-14.513
X59.319 Y7.9 Z-14.514
X58.686 Y7.87 Z-14.519
X58.612 Y7.868
X31.388 Z-14.738
X31.314 Y7.87 Z-14.739
X30.681 Y7.9 Z-14.744
X30.611 Y7.904 Z-14.745
X29.029 Y8.048 Z-14.757
G2 X28.781 Y8.09 Z-14.759 I0.143 J1.581
G1 X28.176 Y8.244 Z-14.764
X28.154 Y8.25 Z-14.765
X26.86 Y8.598 Z-14.775
X26.76 Y8.629 Z-14.776
X26.662 Y8.666 Z-14.777
X26.345 Y8.798 Z-14.78
X26.285 Y8.824
X25.019 Y9.415 Z-14.792
X24.967 Y9.44
X24.579 Y9.639 Z-14.796
X24.484 Y9.692
X24.392 Y9.751 Z-14.797
X22.88 Y10.81 Z-14.812
X22.802 Y10.868 Z-14.813
X22.728 Y10.93 Z-14.814
X22.494 Y11.141 Z-14.816
X22.434 Y11.198 Z-14.817
X21.402 Y12.231 Z-14.829
X21.381 Y12.252
X21.153 Y12.489 Z-14.832
X21.072 Y12.579 Z-14.833
X20.999 Y12.675
X19.961 Y14.145 Z-14.848
X19.904 Y14.231 Z-14.849
X19.639 Y14.664 Z-14.853
X19.618 Y14.7
X5.954 Y38.366 Z-15.073
X5.906 Y38.456 Z-15.074
X5.685 Y38.903 Z-15.078
X5.67 Y38.935
X5.078 Y40.205 Z-15.089
X5.055 Y40.256 Z-15.09
X4.988 Y40.414 Z-15.091
X4.952 Y40.507 Z-15.092
X4.922 Y40.602 Z-15.093
X4.787 Y41.078 Z-15.097
X4.781 Y41.099
X4.441 Y42.368 Z-15.108
X4.419 Y42.461
X4.354 Y42.778 Z-15.111
X4.339 Y42.868 Z-15.112
X4.328 Y42.958
X4.189 Y44.544 Z-15.125
X4.187 Y44.576
X4.165 Y44.893 Z-15.128
X4.162 Y45.011 Z-15.129
X4.167 Y45.128 Z-15.13
X4.244 Y46.08 Z-15.138
X4.245 Y46.091
X4.328 Y47.043 Z-15.145
X4.339 Y47.133 Z-15.146
X4.354 Y47.222 Z-15.147
X4.419 Y47.539 Z-15.149
X4.441 Y47.632 Z-15.15
X4.866 Y49.218 Z-15.163
X4.885 Y49.282 Z-15.164
X4.934 Y49.44 Z-15.165
X4.967 Y49.535 Z-15.166
X5.006 Y49.627 Z-15.167
X5.369 Y50.42 Z-15.174
X5.374 Y50.43
X5.67 Y51.065 Z-15.18
X5.685 Y51.097
X5.906 Y51.544 Z-15.184
X5.954 Y51.634 Z-15.185
X19.618 Y75.3 Z-15.404
X19.639 Y75.336 Z-15.405
X19.904 Y75.769 Z-15.409
X19.961 Y75.855 Z-15.41
X20.999 Y77.326 Z-15.424
G2 X21.168 Y77.527 Z-15.426 I1.297 J-0.916
G1 X22.029 Y78.397 Z-15.436
X22.035 Y78.403
X22.434 Y78.802 Z-15.441
X22.494 Y78.859
X22.728 Y79.07 Z-15.444
X22.802 Y79.132 Z-15.445
X22.88 Y79.19 Z-15.446
X24.392 Y80.249 Z-15.46
X24.484 Y80.308 Z-15.461
X24.579 Y80.361 Z-15.462
X24.967 Y80.56 Z-15.466
X25.019 Y80.585
X26.285 Y81.176 Z-15.477
X26.345 Y81.202 Z-15.478
X26.662 Y81.334 Z-15.481
X26.76 Y81.371
X26.86 Y81.402 Z-15.482
X28.443 Y81.828 Z-15.496
X28.483 Y81.838
X28.799 Y81.914 Z-15.498
X28.913 Y81.937 Z-15.499
X29.029 Y81.952 Z-15.5
X30.611 Y82.096 Z-15.513
X30.681 Y82.1 Z-15.514
X31.314 Y82.13 Z-15.519
X31.388 Y82.132
X58.612 Z-15.738
X58.686 Y82.13 Z-15.739
X59.319 Y82.1 Z-15.744
X59.389 Y82.096 Z-15.745
X60.971 Y81.952 Z-15.757
G2 X61.219 Y81.91 Z-15.759 I-0.143 J-1.581
G1 X61.824 Y81.756 Z-15.764
X61.846 Y81.75 Z-15.765
X63.14 Y81.401 Z-15.775
X63.24 Y81.371 Z-15.776
X63.338 Y81.334 Z-15.777
X63.655 Y81.202 Z-15.78
X63.715 Y81.176
X64.981 Y80.585 Z-15.792
X65.033 Y80.56
X65.421 Y80.361 Z-15.796
X65.516 Y80.308
X65.608 Y80.249 Z-15.797
X67.12 Y79.19 Z-15.812
X67.198 Y79.132 Z-15.813
X67.272 Y79.07 Z-15.814
X67.506 Y78.859 Z-15.816
X67.566 Y78.802 Z-15.817
X68.598 Y77.769 Z-15.829
X68.619 Y77.748
X68.847 Y77.511 Z-15.832
X68.928 Y77.421 Z-15.833
X69.001 Y77.326
X70.039 Y75.855 Z-15.848
X70.096 Y75.769 Z-15.849
X70.361 Y75.336 Z-15.853
X70.382 Y75.3
X84.046 Y51.634 Z-16.073
X84.094 Y51.544 Z-16.074
X84.315 Y51.097 Z-16.078
X84.33 Y51.065
X84.922 Y49.795 Z-16.089
X84.945 Y49.744 Z-16.09
X85.012 Y49.586 Z-16.091
X85.048 Y49.493 Z-16.092
X85.078 Y49.398 Z-16.093
X85.213 Y48.922 Z-16.097
X85.219 Y48.901
X85.559 Y47.632 Z-16.108
X85.581 Y47.539
X85.646 Y47.222 Z-16.111
X85.661 Y47.132 Z-16.112
X85.672 Y47.042
X85.811 Y45.456 Z-16.125
X85.813 Y45.424
X85.835 Y45.107 Z-16.128
X85.838 Y44.99 Z-16.129
X85.833 Y44.872 Z-16.13
X85.756 Y43.92 Z-16.138
X85.755 Y43.909
X85.672 Y42.957 Z-16.145
X85.661 Y42.867 Z-16.146
X85.646 Y42.778 Z-16.147
X85.581 Y42.461 Z-16.149
X85.559 Y42.368 Z-16.15
X85.134 Y40.782 Z-16.163
X85.115 Y40.718 Z-16.164
X85.066 Y40.56 Z-16.165
X85.033 Y40.465 Z-16.166
X84.994 Y40.373 Z-16.167
X84.631 Y39.58 Z-16.174
X84.626 Y39.57
X84.33 Y38.935 Z-16.18
X84.315 Y38.903
X84.094 Y38.456 Z-16.184
X84.046 Y38.366 Z-16.185
X70.382 Y14.7 Z-16.404
X70.361 Y14.664 Z-16.405
X70.096 Y14.231 Z-16.409
X70.039 Y14.145 Z-16.41
X69.001 Y12.675 Z-16.424
G2 X68.832 Y12.473 Z-16.426 I-1.297 J0.916
G1 X67.971 Y11.603 Z-16.436
X67.965 Y11.597
X67.566 Y11.198 Z-16.441
X67.506 Y11.141
X67.272 Y10.93 Z-16.444
X67.198 Y10.868 Z-16.445
X67.12 Y10.81 Z-16.446
X65.608 Y9.751 Z-16.46
X65.516 Y9.692 Z-16.461
X65.421 Y9.639 Z-16.462
X65.033 Y9.44 Z-16.466
X64.981 Y9.415
X63.715 Y8.824 Z-16.477
X63.655 Y8.798 Z-16.478
X63.338 Y8.666 Z-16.481
X63.24 Y8.629
X63.14 Y8.598 Z-16.482
X61.557 Y8.172 Z-16.496
X61.517 Y8.162
X61.201 Y8.086 Z-16.498
X61.087 Y8.063 Z-16.499
X60.971 Y8.048 Z-16.5
X59.389 Y7.904 Z-16.513
X59.319 Y7.9 Z-16.514
X58.686 Y7.87 Z-16.519
X58.612 Y7.868
X31.388 Z-16.738
X31.314 Y7.87 Z-16.739
X30.681 Y7.9 Z-16.744
X30.611 Y7.904 Z-16.745
X29.029 Y8.048 Z-16.757
G2 X28.781 Y8.09 Z-16.759 I0.143 J1.581
G1 X28.176 Y8.244 Z-16.764
X28.154 Y8.25 Z-16.765
X26.86 Y8.598 Z-16.775
X26.76 Y8.629 Z-16.776
X26.662 Y8.666 Z-16.777
X26.345 Y8.798 Z-16.78
X26.285 Y8.824
X25.019 Y9.415 Z-16.792
X24.967 Y9.44
X24.579 Y9.639 Z-16.796
X24.484 Y9.692
X24.392 Y9.751 Z-16.797
X24.118 Y9.943 Z-16.8
X22.88 Y10.81 F1000
X22.802 Y10.868
X22.728 Y10.93
X22.494 Y11.141
X22.434 Y11.198
X21.402 Y12.231
X21.381 Y12.252
X21.153 Y12.489
X21.072 Y12.579
X20.999 Y12.675
X19.961 Y14.145
X19.904 Y14.231
X19.639 Y14.664
X19.618 Y14.7
X5.954 Y38.366
X5.906 Y38.456
X5.685 Y38.903
X5.67 Y38.935
X5.078 Y40.205
X5.055 Y40.256
X4.988 Y40.414
X4.952 Y40.507
X4.922 Y40.602
X4.787 Y41.078
X4.781 Y41.099
X4.53 Y42.038
X4.441 Y42.368
X4.419 Y42.461
X4.354 Y42.778
X4.339 Y42.868
X4.328 Y42.958
X4.189 Y44.544
X4.187 Y44.576
X4.165 Y44.893
X4.162 Y45.011
X4.167 Y45.128
X4.244 Y46.08
X4.245 Y46.091
X4.328 Y47.043
X4.339 Y47.133
X4.354 Y47.222
X4.419 Y47.539
X4.441 Y47.632
X4.866 Y49.218
X4.885 Y49.282
X4.934 Y49.44
X4.967 Y49.535
X5.006 Y49.627
X5.369 Y50.42
X5.374 Y50.43
X5.67 Y51.065
X5.685 Y51.097
X5.906 Y51.544
X5.954 Y51.634
X19.618 Y75.3
X19.639 Y75.336
X19.904 Y75.769
X19.961 Y75.855
X20.999 Y77.326
G2 X21.168 Y77.527 I1.297 J-0.916
G1 X22.029 Y78.397
X22.035 Y78.403
X22.434 Y78.802
X22.494 Y78.859
X22.728 Y79.07
X22.802 Y79.132
X22.88 Y79.19
X24.392 Y80.249
X24.484 Y80.308
X24.579 Y80.361
X24.967 Y80.56
X25.019 Y80.585
X26.285 Y81.176
X26.345 Y81.202
X26.662 Y81.334
X26.76 Y81.371
X26.86 Y81.402
X28.443 Y81.828
X28.483 Y81.838
X28.799 Y81.914
X28.913 Y81.937
X29.029 Y81.952
X30.611 Y82.096
X30.681 Y82.1
X31.314 Y82.13
X31.388 Y82.132
X58.612
X58.686 Y82.13
X59.319 Y82.1
X59.389 Y82.096
X60.971 Y81.952
G2 X61.219 Y81.91 I-0.143 J-1.581
G1 X61.824 Y81.756
X61.846 Y81.75
X63.14 Y81.401
X63.24 Y81.371
X63.338 Y81.334
X63.655 Y81.202
X63.715 Y81.176
X64.981 Y80.585
X65.033 Y80.56
X65.421 Y80.361
X65.516 Y80.308
X65.608 Y80.249
X67.12 Y79.19
X67.198 Y79.132
X67.272 Y79.07
X67.506 Y78.859
X67.566 Y78.802
X68.598 Y77.769
X68.619 Y77.748
X68.847 Y77.511
X68.928 Y77.421
X69.001 Y77.326
X70.039 Y75.855
X70.096 Y75.769
X70.361 Y75.336
X70.382 Y75.3
X84.046 Y51.634
X84.094 Y51.544
X84.315 Y51.097
X84.33 Y51.065
X84.922 Y49.795
X84.945 Y49.744
X85.012 Y49.586
X85.048 Y49.493
X85.078 Y49.398
X85.213 Y48.922
X85.219 Y48.901
X85.559 Y47.632
X85.581 Y47.539
X85.646 Y47.222
X85.661 Y47.132
X85.672 Y47.042
X85.811 Y45.456
X85.813 Y45.424
X85.835 Y45.107
X85.838 Y44.99
X85.833 Y44.872
X85.756 Y43.92
X85.755 Y43.909
X85.672 Y42.957
X85.661 Y42.867
X85.646 Y42.778
X85.581 Y42.461
X85.559 Y42.368
X85.134 Y40.782
X85.115 Y40.718
X85.066 Y40.56
X85.033 Y40.465
X84.994 Y40.373
X84.631 Y39.58
X84.626 Y39.57
X84.33 Y38.935
X84.315 Y38.903
X84.094 Y38.456
X84.046 Y38.366
X70.382 Y14.7
X70.361 Y14.664
X70.096 Y14.231
X70.039 Y14.145
X69.001 Y12.675
G2 X68.832 Y12.473 I-1.297 J0.916
G1 X67.971 Y11.603
X67.965 Y11.597
X67.566 Y11.198
X67.506 Y11.141
X67.272 Y10.93
X67.198 Y10.868
X67.12 Y10.81
X65.608 Y9.751
X65.516 Y9.692
X65.421 Y9.639
X65.033 Y9.44
X64.981 Y9.415
X63.715 Y8.824
X63.655 Y8.798
X63.338 Y8.666
X63.24 Y8.629
X63.14 Y8.598
X61.557 Y8.172
X61.517 Y8.162
X61.201 Y8.086
X61.087 Y8.063
X60.971 Y8.048
X59.389 Y7.904
X59.319 Y7.9
X58.686 Y7.87
X58.612 Y7.868
X31.388
X31.314 Y7.87
X30.681 Y7.9
X30.611 Y7.904
X29.029 Y8.048
G2 X28.781 Y8.09 I0.143 J1.581
G1 X28.176 Y8.244
X28.154 Y8.25
X26.86 Y8.598
X26.76 Y8.629
X26.662 Y8.666
X26.345 Y8.798
X26.285 Y8.824
X25.019 Y9.415
X24.967 Y9.44
X24.579 Y9.639
X24.484 Y9.692
X24.392 Y9.751
X24.118 Y9.943
G3 X23.667 Y9.515 I-0.182 J-0.26
G1 X24.054 Y8.897
X24.083 Y8.857
X24.119 Y8.823
X24.159 Y8.794
X24.184 Y8.778
X25.715 Y8.053
X26.289 Y7.802
X26.423 Y7.751
X27.375 Y7.485
X27.988 Y7.321
X28.563 Y7.177
X28.794 Y7.133
X29.032 Y7.1
X30.225 Y6.997
X31.442 Y6.943
X32.04 Y6.929
X57.96
X58.558 Y6.943
X59.775 Y6.997
X60.968 Y7.1
X61.206 Y7.133
X61.437 Y7.177
X62.007 Y7.32
X63.537 Y7.74
X63.622 Y7.768
X63.708 Y7.801
X64.29 Y8.055
X65.816 Y8.778
X65.988 Y8.882
X66.576 Y9.28
X67.328 Y9.806
X67.773 Y10.129
X67.927 Y10.255
X68.892 Y11.195
X69.476 Y11.782
X69.696 Y12.038
X70.108 Y12.606
X70.58 Y13.283
X71.662 Y15.038
X84.464 Y37.22
X85.056 Y38.269
X85.823 Y39.926
X85.913 Y40.144
X86.079 Y40.681
X86.408 Y41.904
X86.547 Y42.475
X86.584 Y42.677
X86.722 Y44.173
X86.776 Y45
X86.722 Y45.827
X86.584 Y47.323
X86.547 Y47.525
X86.408 Y48.096
X86.079 Y49.319
X85.913 Y49.856
X85.823 Y50.074
X85.056 Y51.73
X84.103 Y53.413
X71.175 Y75.806
X70.945 Y76.184
X70.541 Y76.776
X69.985 Y77.57
X69.699 Y77.958
X69.478 Y78.216
X68.609 Y79.084
X67.863 Y79.801
X67.79 Y79.858
X67.19 Y80.29
X66.445 Y80.811
X65.99 Y81.117
X65.816 Y81.222
X64.285 Y81.947
X63.711 Y82.198
X63.577 Y82.249
X62.625 Y82.515
X62.012 Y82.679
X61.437 Y82.823
X61.206 Y82.867
X60.968 Y82.9
X59.775 Y83.003
X58.558 Y83.057
X57.96 Y83.071
X32.04
X31.442 Y83.057
X30.225 Y83.003
X29.032 Y82.9
X28.794 Y82.867
X28.563 Y82.823
X27.993 Y82.68
X26.463 Y82.26
X26.378 Y82.232
X26.291 Y82.199
X25.946 Y82.048
X25.71 Y81.945
X24.184 Y81.222
X24.012 Y81.118
X23.424 Y80.72
X22.672 Y80.194
X22.227 Y79.871
X22.073 Y79.745
X21.108 Y78.805
X20.524 Y78.218
X20.304 Y77.962
X19.89 Y77.392
X19.399 Y76.691
X19.059 Y76.19
X18.709 Y75.606
X5.536 Y52.78
X4.944 Y51.731
X4.177 Y50.074
X4.087 Y49.856
X3.921 Y49.319
X3.592 Y48.096
X3.453 Y47.525
X3.416 Y47.323
X3.278 Y45.827
X3.224 Y45
X3.278 Y44.173
X3.416 Y42.677
X3.453 Y42.475
X3.592 Y41.904
X3.797 Y41.141
X3.921 Y40.681
X4.087 Y40.144
X4.177 Y39.926
X4.944 Y38.27
X5.897 Y36.587
X18.338 Y15.038
X19.42 Y13.284
X20.016 Y12.428
X20.301 Y12.042
X20.522 Y11.784
X21.391 Y10.916
X22.137 Y10.199
X22.21 Y10.142
X22.81 Y9.71
X23.555 Y9.189
X24.01 Y8.883
X24.159 Y8.794
X24.184 Y8.778 Z-16.799
X24.271 Y8.737 Z-16.787
X24.355 Y8.697 Z-16.761
X24.435 Y8.66 Z-16.721
X24.508 Y8.625 Z-16.668
X24.573 Y8.594 Z-16.603
X24.628 Y8.568 Z-16.529
X24.672 Y8.547 Z-16.445
X24.705 Y8.532 Z-16.356
X24.725 Y8.522 Z-16.261
X24.731 Y8.519 Z-16.165
G0 Z5
X30.859 Y20.123
Z-7.8
G1 Z-12.8 F333.3
X30.879 Y20.138 F1000
X30.884 Y20.153
X30.852 Y20.178
X30.823 Y20.189
X30.815 Y20.18
X30.812 Y20.17
X30.806 Y20.086
X30.852 Y20.119
X30.859 Y20.123
X30.879 Y20.138 Z-12.798
X30.884 Y20.153 Z-12.794
X30.852 Y20.178 Z-12.774
X30.823 Y20.189 Z-12.744
X30.815 Y20.18 Z-12.727
X30.812 Y20.17 Z-12.705
X30.811 Y20.163 Z-12.658
G0 Z5
X30.833 Y20.137
Z-9.8
G1 Z-13.8 F333.3
X30.85 Y20.131 F1000
X30.863 Y20.13
X30.871 Y20.133
X30.878 Y20.138
X30.884 Y20.153
X30.852 Y20.178
X30.824 Y20.188
X30.815 Y20.177
X30.813 Y20.167
X30.817 Y20.15
X30.821 Y20.145
X30.827 Y20.139
X30.833 Y20.137
X30.85 Y20.131 Z-13.798
X30.863 Y20.13 Z-13.795
X30.871 Y20.133 Z-13.792
X30.878 Y20.138 Z-13.787
X30.884 Y20.153 Z-13.776
X30.869 Y20.165 Z-13.755
X30.86 Y20.172 Z-13.729
X30.857 Y20.174 Z-13.701
G0 Z5
X30.859 Y20.172
Z-10.8
G1 Z-15.8 F333.3
X30.852 Y20.178 F1000
X30.831 Y20.185
X30.821 Y20.181
X30.817 Y20.169
X30.823 Y20.146
X30.834 Y20.137
X30.843 Y20.133
X30.855
X30.869 Y20.138
X30.879 Y20.146
X30.881 Y20.154
X30.859 Y20.172
X30.852 Y20.178
X30.831 Y20.185 Z-15.795
X30.821 Y20.181 Z-15.79
X30.817 Y20.169 Z-15.782
X30.823 Y20.146 Z-15.753
X30.829 Y20.141 Z-15.732
X30.831 Y20.139 Z-15.71
G0 Z5
X30.86 Y20.141
Z-5.8
G1 Z-12.8 F333.3
Z-16.8
X30.872 Y20.151 F1000
X30.874 Y20.161
X30.852 Y20.178
X30.836 Y20.184
X30.829 Y20.178
X30.825 Y20.172
X30.829 Y20.148
X30.842 Y20.137
X30.853 Y20.136
X30.86 Y20.141
X30.872 Y20.151 Z-16.798
X30.874 Y20.161 Z-16.795
X30.852 Y20.178 Z-16.776
X30.842 Y20.181 Z-16.762
X30.836 Y20.184 Z-16.746
X30.833 Y20.182 Z-16.726
G0 Z5
X21.535 Y36.299
Z-7.8
G1 Z-12.8 F333.3
X21.542 Y36.305 F1000
X21.556 Y36.33
X21.558 Y36.341
X21.547 Y36.359
X21.539 Y36.375
X21.524 Y36.387
X21.506
X21.488 Y36.381
X21.451 Y36.35
X21.45 Y36.342
X21.453 Y36.308
X21.468 Y36.296
X21.498 Y36.281
X21.505
X21.518 Y36.285
X21.535 Y36.299
X21.542 Y36.305
X21.556 Y36.33 Z-12.796
X21.558 Y36.341 Z-12.793
X21.539 Y36.375 Z-12.775
X21.524 Y36.387 Z-12.761
X21.506 Z-12.743
X21.488 Y36.381 Z-12.717
X21.476 Y36.371 Z-12.677
X21.472 Y36.367 Z-12.635
G0 Z5
X21.476 Y36.363
Z-9.8
G1 Z-13.8 F333.3
X21.461 Y36.351 F1000
X21.456 Y36.332
X21.475 Y36.299
X21.486 Y36.29
X21.5
X21.519 Y36.296
X21.547 Y36.32
X21.551 Y36.339
X21.535 Y36.368
X21.524 Y36.377
X21.515 Y36.38
X21.506
X21.488 Y36.374
X21.476 Y36.363
X21.461 Y36.351 Z-13.799
X21.456 Y36.332 Z-13.795
X21.475 Y36.299 Z-13.777
X21.486 Y36.29 Z-13.767
X21.5 Z-13.753
X21.519 Y36.296 Z-13.725
X21.528 Y36.304 Z-13.693
X21.531 Y36.307 Z-13.659
G0 Z5
Y36.333
Z-10.8
G1 Z-15.8 F333.3
X21.533 Y36.34 F1000
X21.53 Y36.353
X21.523 Y36.36
X21.513 Y36.364
X21.506
X21.484 Y36.346
X21.488 Y36.324
X21.5 Y36.314
X21.514 Y36.313
X21.522 Y36.316
X21.529 Y36.322
X21.531 Y36.333
X21.533 Y36.34
X21.53 Y36.353 Z-15.797
X21.523 Y36.36 Z-15.794
X21.513 Y36.364 Z-15.788
X21.506 Z-15.783
X21.492 Y36.353 Z-15.764
X21.484 Y36.346 Z-15.74
X21.485 Y36.344 Z-15.721
G0 Z5
X16.547 Y44.972
Z-7.8
G1 Z-12.8 F333.3
X16.557 Y44.989 F1000
X16.554 Y45.012
X16.547 Y45.025
X16.542 Y45.034
X16.523 Y45.049
X16.505 Y45.056
X16.496 Y45.055
X16.381 Y44.999
X16.494 Y44.942
X16.509 Y44.941
X16.522 Y44.946
X16.541 Y44.961
X16.547 Y44.972
X16.557 Y44.989 Z-12.799
X16.554 Y45.012 Z-12.796
X16.547 Y45.025 Z-12.792
X16.542 Y45.034 Z-12.789
X16.523 Y45.049 Z-12.78
X16.505 Y45.056 Z-12.769
X16.496 Y45.055 Z-12.764
X16.458 Y45.037 Z-12.728
X16.43 Y45.023 Z-12.684
X16.412 Y45.014 Z-12.634
X16.406 Y45.011 Z-12.58
G0 Z5
X16.463 Y44.977
Z-9.8
G1 Z-13.8 F333.3
X16.471 Y44.961 F1000
X16.487 Y44.948
X16.501 Y44.947
X16.524 Y44.955
X16.537 Y44.966
X16.551 Y44.99
X16.552 Y44.999
X16.551 Y45.007
X16.538 Y45.03
X16.523 Y45.043
X16.508 Y45.048
X16.486
X16.471 Y45.036
X16.454 Y45.005
X16.451 Y44.998
X16.463 Y44.977
X16.471 Y44.961 Z-13.799
X16.487 Y44.948 Z-13.795
X16.501 Y44.947 Z-13.791
X16.524 Y44.955 Z-13.78
X16.537 Y44.966 Z-13.768
X16.551 Y44.99 Z-13.741
X16.552 Y44.999 Z-13.727
X16.551 Y45.007 Z-13.713
X16.545 Y45.017 Z-13.68
X16.543 Y45.02 Z-13.646
G0 Z5
X16.524 Y44.981
Z-10.8
G1 Z-15.8 F333.3
X16.531 Y44.987 F1000
X16.534 Y44.993
X16.535 Y44.999
X16.534 Y45.004
X16.527 Y45.018
X16.522 Y45.021
X16.514 Y45.024
X16.505
X16.496 Y45.021
X16.492 Y45.018
X16.484 Y45.004
X16.483 Y44.999
X16.484 Y44.993
X16.492 Y44.98
X16.496 Y44.976
X16.505 Y44.973
X16.514
X16.524 Y44.981
X16.531 Y44.987
X16.534 Y44.993 Z-15.798
X16.535 Y44.999 Z-15.797
X16.534 Y45.004 Z-15.795
X16.527 Y45.018 Z-15.788
X16.522 Y45.021 Z-15.784
X16.514 Y45.024 Z-15.776
X16.505 Z-15.765
X16.496 Y45.021 Z-15.748
X16.492 Y45.018 Z-15.72
G0 Z5
X21.475 Y53.624
Z-7.8
G1 Z-12.8 F333.3
X21.482 Y53.618 F1000
X21.505 Y53.61
X21.517
X21.527 Y53.613
X21.539 Y53.623
X21.547 Y53.636
X21.558 Y53.656
X21.556 Y53.667
X21.543 Y53.69
X21.515 Y53.713
X21.506 Y53.716
X21.498
X21.455 Y53.694
X21.451 Y53.652
X21.453 Y53.643
X21.475 Y53.624
X21.482 Y53.618
X21.505 Y53.61 Z-12.796
X21.517 Z-12.793
X21.527 Y53.613 Z-12.79
X21.539 Y53.623 Z-12.783
X21.558 Y53.656 Z-12.758
X21.556 Y53.667 Z-12.747
X21.543 Y53.69 Z-12.707
X21.533 Y53.699 Z-12.672
X21.53 Y53.701 Z-12.635
G0 Z5
X21.527 Y53.692
Z-9.8
G1 Z-13.8 F333.3
X21.516 Y53.702 F1000
X21.501 Y53.708
X21.487 Y53.707
X21.474 Y53.697
X21.458 Y53.668
X21.461 Y53.646
X21.465 Y53.64
X21.481 Y53.626
X21.506 Y53.617
X21.515
X21.523 Y53.62
X21.535 Y53.63
X21.551 Y53.657
X21.548 Y53.674
X21.527 Y53.692
X21.516 Y53.702 Z-13.799
X21.501 Y53.708 Z-13.797
X21.487 Y53.707 Z-13.793
X21.474 Y53.697 Z-13.786
X21.458 Y53.668 Z-13.764
X21.461 Y53.646 Z-13.738
X21.465 Y53.64 Z-13.726
X21.475 Y53.632 Z-13.694
X21.478 Y53.629 Z-13.659
G0 Z5
X21.496 Y53.678
Z-10.8
G1 Z-15.8 F333.3
X21.487 Y53.672 F1000
X21.484 Y53.652
X21.506 Y53.633
X21.525 Y53.638
X21.532 Y53.65
X21.533 Y53.657
X21.531 Y53.669
X21.527 Y53.678
X21.522 Y53.681
X21.514 Y53.685
X21.505
X21.496 Y53.678
X21.487 Y53.672 Z-15.799
X21.484 Y53.652 Z-15.794
X21.496 Y53.642 Z-15.785
X21.506 Y53.633 Z-15.772
X21.52 Y53.637 Z-15.749
X21.524 Y53.638 Z-15.722
G0 Z5
X26.495 Y45.032
Z-5.8
G1 Z-10.8 F333.3
X26.47 Y45.023 F1000
X26.465 Y45.009
X26.463 Y44.999
X26.466 Y44.979
X26.501 Y44.961
X26.507
X26.525 Y44.964
X26.543 Y44.982
X26.546 Y44.999
X26.543 Y45.015
X26.527 Y45.032
X26.506 Y45.036
X26.495 Y45.032
X26.47 Y45.023 Z-10.797
X26.465 Y45.009 Z-10.793
X26.463 Y44.999 Z-10.789
X26.466 Y44.979 Z-10.777
X26.486 Y44.969 Z-10.758
X26.501 Y44.961 Z-10.733
X26.507 Z-10.719
X26.513 Y44.962 Z-10.697
X26.515 Z-10.675
G0 Z5
X26.532 Y44.983
Z-7.8
G1 Z-12.8 F333.3
X26.539 Y44.993 F1000
X26.54 Y44.999
X26.539 Y45.004
X26.526 Y45.028
X26.516 Y45.031
X26.485 Y45.02
X26.478 Y45.014
X26.475 Y44.999
X26.479 Y44.982
X26.484 Y44.977
X26.519 Y44.964
X26.532 Y44.983
X26.539 Y44.993 Z-12.799
X26.54 Y44.999 Z-12.798
X26.539 Y45.004 Z-12.797
X26.526 Y45.028 Z-12.786
X26.516 Y45.031 Z-12.779
X26.498 Y45.025 Z-12.76
X26.485 Y45.02 Z-12.736
X26.479 Y45.015 Z-12.698
G0 Z5
X26.506 Y44.975
Z-9.8
G1 Z-13.8 F333.3
X26.513 F1000
X26.519 Y44.977
X26.529 Y44.985
X26.533 Y44.992
X26.534 Y44.998
X26.532 Y45.006
X26.529 Y45.012
X26.522 Y45.018
X26.512 Y45.022
X26.497 Y45.021
X26.49 Y45.016
X26.486 Y45.009
X26.484 Y44.999
X26.486 Y44.987
X26.489 Y44.982
X26.496 Y44.976
X26.506 Y44.975
X26.513
X26.519 Y44.977 Z-13.799
X26.529 Y44.985 Z-13.796
X26.533 Y44.992 Z-13.792
X26.534 Y44.998 Z-13.789
X26.532 Y45.006 Z-13.783
X26.529 Y45.012 Z-13.776
X26.522 Y45.018 Z-13.764
X26.512 Y45.022 Z-13.741
X26.51 Z-13.723
G0 Z5
X54.536 Y61.155
Z-5.8
G1 Z-10.8 F333.3
X54.552 Y61.161 F1000
X54.558 Y61.212
X54.532 Y61.221
X54.518 Y61.222
X54.512 Y61.216
X54.493 Y61.183
X54.502 Y61.16
X54.508 Y61.152
X54.517 Y61.147
X54.536 Y61.155
X54.552 Y61.161 Z-10.799
X54.555 Y61.188 Z-10.791
X54.558 Y61.212 Z-10.776
X54.544 Y61.217 Z-10.762
X54.532 Y61.221 Z-10.744
X54.523 Z-10.724
X54.518 Y61.222 Z-10.702
X54.517 Y61.221 Z-10.689
G0 Z5
X54.552 Y61.174
Z-7.8
G1 Z-12.8 F333.3
X54.555 Y61.198 F1000
X54.553 Y61.203
X54.533 Y61.21
X54.524
X54.512 Y61.206
X54.495 Y61.178
X54.499 Y61.168
X54.51 Y61.154
X54.521 Y61.147
X54.549 Y61.16
X54.552 Y61.174
X54.555 Y61.198 Z-12.797
X54.553 Y61.203 Z-12.795
X54.533 Y61.21 Z-12.786
X54.524 Z-12.779
X54.512 Y61.206 Z-12.768
X54.503 Y61.19 Z-12.738
X54.5 Y61.185 Z-12.705
G0 Z5
X54.52 Y61.195
Z-9.8
G1 Z-13.8 F333.3
X54.51 Y61.192 F1000
X54.504 Y61.184
X54.502 Y61.176
X54.51 Y61.163
X54.522 Y61.152
X54.527 Y61.15
X54.541 Y61.156
X54.546 Y61.192
X54.538 Y61.199
X54.52 Y61.195
X54.51 Y61.192 Z-13.799
X54.504 Y61.184 Z-13.797
X54.502 Y61.176 Z-13.794
X54.51 Y61.163 Z-13.785
X54.522 Y61.152 Z-13.769
X54.527 Y61.15 Z-13.761
X54.533 Y61.153 Z-13.744
X54.535 Z-13.727
G0 Z5
X59.571 Y69.806
Z-7.8
G1 Z-12.8 F333.3
X59.578 Y69.812 F1000
X59.59 Y69.833
X59.607 Y69.967
X59.599 Y69.961
X59.521 Y69.908
X59.487 Y69.877
X59.481 Y69.869
X59.474 Y69.854
X59.475 Y69.829
X59.483 Y69.813
X59.511 Y69.79
X59.529 Y69.784
X59.557 Y69.794
X59.571 Y69.806
X59.578 Y69.812
X59.59 Y69.833 Z-12.798
X59.596 Y69.882 Z-12.786
X59.602 Y69.927 Z-12.763
X59.607 Y69.967 Z-12.732
X59.599 Y69.961 Z-12.721
X59.569 Y69.941 Z-12.672
X59.551 Y69.928 Z-12.615
X59.544 Y69.924 Z-12.554
G0 Z5
X59.518 Y69.883
Z-9.8
G1 Z-13.8 F333.3
X59.5 Y69.878 F1000
X59.493 Y69.871
X59.481 Y69.851
X59.483 Y69.832
X59.493 Y69.814
X59.516 Y69.795
X59.524 Y69.792
X59.536
X59.55 Y69.797
X59.572 Y69.815
X59.583 Y69.835
X59.584 Y69.844
X59.581 Y69.854
X59.573 Y69.869
X59.555 Y69.884
X59.541 Y69.891
X59.518 Y69.883
X59.5 Y69.878 Z-13.799
X59.493 Y69.871 Z-13.797
X59.481 Y69.851 Z-13.791
X59.483 Y69.832 Z-13.783
X59.493 Y69.814 Z-13.77
X59.516 Y69.795 Z-13.741
X59.524 Y69.792 Z-13.729
X59.536 Z-13.706
X59.545 Y69.795 Z-13.677
X59.548 Y69.796 Z-13.646
G0 Z5
X59.516 Y69.855
Z-10.8
G1 Z-15.8 F333.3
X59.51 Y69.851 F1000
X59.505 Y69.843
X59.503 Y69.831
X59.521 Y69.811
X59.543 Y69.817
X59.552 Y69.825
X59.554 Y69.838
X59.544 Y69.855
X59.526 Y69.862
X59.516 Y69.855
X59.51 Y69.851
X59.505 Y69.843 Z-15.798
X59.503 Y69.831 Z-15.794
X59.521 Y69.811 Z-15.776
X59.536 Y69.816 Z-15.752
X59.542 Y69.817 Z-15.723
G0 Z5
X63.857 Y44.97
Z-5.8
G1 Z-10.8 F333.3
X63.869 Y44.966 F1000
X63.912 Y44.982
X63.915 Y44.994
X63.912 Y45.015
X63.867 Y45.031
X63.851 Y45.026
X63.837 Y45.01
X63.835 Y45.004
Y44.993
X63.837 Y44.987
X63.847 Y44.974
X63.857 Y44.97
X63.869 Y44.966 Z-10.799
X63.891 Y44.974 Z-10.794
X63.912 Y44.982 Z-10.784
X63.915 Y44.994 Z-10.775
X63.912 Y45.015 Z-10.753
X63.896 Y45.02 Z-10.721
X63.891 Y45.022 Z-10.686
G0 Z5
X63.862 Y45.024
Z-7.8
G1 Z-12.8 F333.3
X63.846 Y45.019 F1000
X63.837 Y45.007
X63.836 Y45.002
Y44.995
X63.837 Y44.987
X63.85 Y44.974
X63.859 Y44.971
X63.875
X63.896 Y44.979
X63.903 Y44.999
X63.9 Y45.015
X63.871 Y45.026
X63.862 Y45.024
X63.846 Y45.019 Z-12.799
X63.837 Y45.007 Z-12.795
X63.836 Y45.002 Z-12.793
Y44.995 Z-12.79
X63.837 Y44.987 Z-12.785
X63.85 Y44.974 Z-12.77
X63.859 Y44.971 Z-12.759
X63.875 Z-12.724
X63.877 Y44.972 Z-12.702
G0 Z5
X63.876 Y45.02
Z-9.8
G1 Z-13.8 F333.3
X63.868 Y45.021 F1000
X63.85 Y45.015
X63.844 Y45.003
X63.847 Y44.989
X63.858 Y44.979
X63.865 Y44.977
X63.882
X63.893 Y44.992
X63.894 Y44.998
X63.892 Y45.006
X63.886 Y45.017
X63.876 Y45.02
X63.868 Y45.021
X63.85 Y45.015 Z-13.795
X63.844 Y45.003 Z-13.788
X63.847 Y44.989 Z-13.776
X63.858 Y44.979 Z-13.753
X63.863 Y44.978 Z-13.725
G0 Z5
X73.894 Y45.051
Z-7.8
G1 Z-12.8 F333.3
X73.874 Y45.056 F1000
X73.858 Y45.051
X73.832 Y45.03
X73.818 Y45.006
X73.817 Y44.999
X73.819 Y44.99
X73.832 Y44.967
X73.843 Y44.958
X73.859 Y44.945
X73.874 Y44.94
X73.96 Y44.962
X74.051 Y44.997
X74.009 Y45.013
X73.947 Y45.038
X73.894 Y45.051
X73.874 Y45.056 Z-12.799
X73.858 Y45.051 Z-12.797
X73.832 Y45.03 Z-12.791
X73.818 Y45.006 Z-12.781
X73.817 Y44.999 Z-12.779
X73.819 Y44.99 Z-12.774
X73.832 Y44.967 Z-12.761
X73.859 Y44.945 Z-12.736
X73.874 Y44.94 Z-12.72
X73.907 Y44.949 Z-12.679
X73.932 Y44.955 Z-12.632
X73.947 Y44.959 Z-12.581
X73.952 Y44.96 Z-12.527
G0 Z5
X73.835 Y44.975
Z-9.8
G1 Z-13.8 F333.3
X73.839 Y44.967 F1000
X73.856 Y44.953
X73.867 Y44.949
X73.894
X73.906 Y44.958
X73.924 Y44.991
X73.926 Y44.997
X73.924 Y45.007
X73.906 Y45.038
X73.893 Y45.049
X73.879 Y45.05
X73.851 Y45.04
X73.841 Y45.032
X73.826 Y45.006
X73.825 Y44.999
X73.826 Y44.989
X73.835 Y44.975
X73.839 Y44.967
X73.856 Y44.953 Z-13.797
X73.867 Y44.949 Z-13.794
X73.894 Z-13.783
X73.906 Y44.958 Z-13.775
X73.916 Y44.976 Z-13.76
X73.924 Y44.991 Z-13.742
X73.926 Y44.997 Z-13.733
X73.924 Y45.007 Z-13.716
X73.918 Y45.019 Z-13.681
X73.915 Y45.022 Z-13.644
G0 Z5
X73.847 Y44.99
Z-10.8
G1 Z-15.8 F333.3
X73.852 Y44.979 F1000
X73.862 Y44.973
X73.874
X73.888 Y44.984
X73.893 Y44.992
X73.894 Y44.999
X73.893 Y45.006
X73.889 Y45.013
X73.877 Y45.023
X73.865 Y45.024
X73.854 Y45.02
X73.842 Y45.001
X73.847 Y44.99
X73.852 Y44.979 Z-15.799
X73.862 Y44.973 Z-15.796
X73.874 Z-15.792
X73.888 Y44.984 Z-15.78
X73.893 Y44.992 Z-15.769
X73.894 Y44.999 Z-15.758
X73.893 Y45.006 Z-15.743
X73.892 Y45.008 Z-15.721
G0 Z5
X68.849 Y36.298
Z-7.8
G1 Z-12.8 F333.3
X68.869 Y36.281 F1000
X68.907 Y36.289
X68.931 Y36.3
X68.925 Y36.354
X68.921 Y36.362
X68.906 Y36.375
X68.873 Y36.387
X68.853
X68.841 Y36.377
X68.82 Y36.338
X68.818 Y36.329
X68.824 Y36.319
X68.846 Y36.3
X68.849 Y36.298
X68.869 Y36.281 Z-12.798
X68.907 Y36.289 Z-12.787
X68.931 Y36.3 Z-12.774
X68.928 Y36.33 Z-12.75
X68.925 Y36.354 Z-12.721
X68.921 Y36.362 Z-12.704
X68.911 Y36.37 Z-12.667
X68.908 Y36.373 Z-12.629
G0 Z5
X68.851 Y36.304
Z-9.8
G1 Z-13.8 F333.3
X68.865 Y36.292 F1000
X68.898
X68.902 Y36.295
X68.922 Y36.332
X68.921 Y36.345
X68.914 Y36.357
X68.894 Y36.374
X68.879 Y36.379
X68.858
X68.848 Y36.375
X68.825 Y36.338
X68.828 Y36.325
X68.851 Y36.304
X68.865 Y36.292 Z-13.799
X68.898 Z-13.79
X68.902 Y36.295 Z-13.788
X68.913 Y36.315 Z-13.776
X68.922 Y36.332 Z-13.761
X68.921 Y36.345 Z-13.746
X68.914 Y36.357 Z-13.726
X68.904 Y36.366 Z-13.692
X68.9 Y36.368 Z-13.656
G0 Z5
X68.845 Y36.335
Z-10.8
G1 Z-15.8 F333.3
X68.847 Y36.323 F1000
X68.855 Y36.316
X68.864 Y36.313
X68.882 Y36.319
X68.889 Y36.325
X68.892 Y36.34
X68.89 Y36.352
X68.882 Y36.358
X68.865 Y36.364
X68.854 Y36.36
X68.848 Y36.355
X68.844 Y36.34
X68.845 Y36.335
X68.847 Y36.323 Z-15.799
X68.855 Y36.316 Z-15.797
X68.864 Y36.313 Z-15.793
X68.882 Y36.319 Z-15.781
X68.889 Y36.325 Z-15.771
X68.891 Y36.334 Z-15.756
X68.892 Y36.34 Z-15.739
Y36.342 Z-15.722
G0 Z15
M9

(Parallel1)
X59.268 Y11.024
Z15
Z-12.41
G1 Z-14.063 F1000
G18 G3 X58.609 Z-14.697 I-0.635 K0
G1 X57.984 Z-14.673
X56.956 Z-14.668
X32.394 Z-14.669
X31.855 Z-14.678
X31.391 Z-14.697
G3 X30.73 Z-14.063 I-0.026 K0.634
G0 Z5
X26.004 Y12.024
Z-12.774
G1 Z-14.252 F1000
G2 X26.8 Z-14.866 I0.635 K0
G1 X26.893 Z-14.841
X27.569 Z-14.678
X28.182 Z-14.543
X28.77 Z-14.429
X29.412 Z-14.321
X30.004 Z-14.236
X30.638 Z-14.161
X31.196 Z-14.109
X31.793 Z-14.069
X32.43 Z-14.046
X57.074 Z-14.041
X57.803 Z-14.052
X58.382 Z-14.079
X58.932 Z-14.12
X59.529 Z-14.178
X60.136 Z-14.255
X60.743 Z-14.345
X61.396 Z-14.46
X61.891 Z-14.558
X62.5 Z-14.694
X63.2 Z-14.866
G2 X63.594 Z-14.558 I0.076 K0.308
G1 Z-14.557
X63.6 Y12.027 Z-14.442
X63.617 Y12.038 Z-14.329
X63.647 Y12.056 Z-14.219
X63.687 Y12.08 Z-14.114
X63.738 Y12.111 Z-14.016
X63.799 Y12.147 Z-13.925
X63.868 Y12.189 Z-13.844
X63.946 Y12.236 Z-13.773
X64.03 Y12.287 Z-13.714
X64.12 Y12.341 Z-13.666
X64.214 Y12.398 Z-13.632
X64.311 Y12.456 Z-13.611
X64.409 Y12.516 Z-13.605
X64.436 Y12.532
X64.535 Y12.591 Z-13.611
X64.632 Y12.649 Z-13.632
X64.726 Y12.706 Z-13.666
X64.815 Y12.76 Z-13.714
X64.9 Y12.811 Z-13.773
X64.977 Y12.858 Z-13.844
X65.047 Y12.9 Z-13.925
X65.108 Y12.937 Z-14.016
X65.159 Y12.967 Z-14.114
X65.199 Y12.992 Z-14.219
X65.228 Y13.009 Z-14.329
X65.246 Y13.02 Z-14.442
X65.252 Y13.024 Z-14.557
G3 X64.837 Z-14.859 I-0.317 K0
G1 X64.17 Z-14.643
X63.624 Z-14.477
X62.933 Z-14.287
X62.288 Z-14.125
X61.728 Z-13.999
X61.044 Z-13.861
X60.42 Z-13.751
X59.814 Z-13.659
X59.194 Z-13.582
X58.579 Z-13.521
X57.973 Z-13.477
X57.399 Z-13.451
X56.605 Z-13.439
X32.94 Z-13.442
X32.331 Z-13.461
X31.718 Z-13.497
X31.143 Z-13.547
X30.518 Z-13.616
X29.935 Z-13.695
X29.284 Z-13.801
X28.637 Z-13.923
X27.984 Z-14.061
X27.324 Z-14.221
X26.664 Z-14.396
X26.056 Z-14.572
X25.38 Z-14.787
X25.163 Z-14.859
