
;FLAVOR:UltiGCode
;TIME:5381
;MATERIAL:3241
;MATERIAL2:0
;NOZZLE_DIAMETER:0.4
;GCODE generated with FullControl GCODE Designer software - contact Andy Gleadall (a.gleadall@lboro.ac.uk) for more information
M82 ;absolute extrusion mode
G28 ;Home
G1 Z15.0 F6000 ;Move the platform down 15mm
;Prime the extruder
G92 E0
G1 F200 E3
G92 E0
M83 ;relative extrusion mode
G10
;LAYER_COUNT:330
;LAYER:0

M106

M140 S60
M104 S210
M109 S210
M190 S60

M106 S0 ; set fan speed

G0 F4320 X20.0 Y10.0 Z0.3

G11
 
;END OF THE START GCODE
 
G0 F9000 X50.0 Y50.0 Z0.2
G1 F1000 X70.0 E1.6
G0 F9000 Y50.4
G1 F1000 X50.0 E1.6
G0 F9000 Y50.8
G1 F1000 X70.0 E1.6
G0 F9000 Y51.2
G1 F1000 X50.0 E1.6
G0 F9000 Y51.6
G1 F1000 X70.0 E1.6
G0 F9000 Y52.0
G1 F1000 X50.0 E1.6
G0 F9000 Y52.4
G1 F1000 X70.0 E1.6
G0 F9000 Y52.8
G1 F1000 X50.0 E1.6
G0 F9000 Y53.2
G1 F1000 X70.0 E1.6
G0 F9000 Y53.6
G1 F1000 X50.0 E1.6
G0 F9000 Y54.0
G1 F1000 X70.0 E1.6
G0 F9000 Y54.4
G1 F1000 X50.0 E1.6
G0 F9000 Y54.8
G1 F1000 X70.0 E1.6
G0 F9000 Y55.2
G1 F1000 X50.0 E1.6
G0 F9000 Y55.6
G1 F1000 X70.0 E1.6
G0 F9000 Y56.0
G1 F1000 X50.0 E1.6
G0 F9000 Y56.4
G1 F1000 X70.0 E1.6
G0 F9000 Y56.8
G1 F1000 X50.0 E1.6
G0 F9000 Y57.2
G1 F1000 X70.0 E1.6
G0 F9000 Y57.6
G1 F1000 X50.0 E1.6
G0 F9000 Y58.0
G1 F1000 X70.0 E1.6
G0 F9000 Y58.4
G1 F1000 X50.0 E1.6
G0 F9000 Y58.8
G1 F1000 X70.0 E1.6
G0 F9000 Y59.2
G1 F1000 X50.0 E1.6
G0 F9000 Y59.6
G1 F1000 X70.0 E1.6
G0 F9000 Y60.0
G1 F1000 X50.0 E1.6
G0 F9000 Z1.2
G0 Y50.0 Z0.2
G1 F1000 Y60.4 E0.832
G0 F9000 X50.2 Y50.0 Z0.4
G1 F1000 Y60.4 E0.832
G0 F9000 X50.4 Y50.0 Z0.6
G1 F1000 Y60.4 E0.832
G0 F9000 X50.6 Y50.0 Z0.8
G1 F1000 Y60.4 E0.832
G0 F9000 X50.8 Y50.0 Z1.0
G1 F1000 Y60.4 E0.832
G0 F9000 X51.0 Y50.0 Z1.2
G1 F1000 Y60.4 E0.832
G0 F9000 X51.2 Y50.0 Z1.4
G1 F1000 Y60.4 E0.832
G0 F9000 X51.4 Y50.0 Z1.6
G1 F1000 Y60.4 E0.832
G0 F9000 X51.6 Y50.0 Z1.8
G1 F1000 Y60.4 E0.832
G0 F9000 X51.8 Y50.0 Z2.0
G1 F1000 Y60.4 E0.832
G0 F9000 X52.0 Y50.0 Z2.2
G1 F1000 Y60.4 E0.832
G0 F9000 X52.2 Y50.0 Z2.4
G1 F1000 Y60.4 E0.832
G0 F9000 X52.4 Y50.0 Z2.6
G1 F1000 Y60.4 E0.832
G0 F9000 X52.6 Y50.0 Z2.8
G1 F1000 Y60.4 E0.832
G0 F9000 X52.8 Y50.0 Z3.0
G1 F1000 Y60.4 E0.832
G0 F9000 X53.0 Y50.0 Z3.2
G1 F1000 Y60.4 E0.832
G0 F9000 X53.2 Y50.0 Z3.4
G1 F1000 Y60.4 E0.832
G0 F9000 X53.4 Y50.0 Z3.6
G1 F1000 Y60.4 E0.832
G0 F9000 X53.6 Y50.0 Z3.8
G1 F1000 Y60.4 E0.832
G0 F9000 X53.8 Y50.0 Z4.0
G1 F1000 Y60.4 E0.832
G0 F9000 Z5.0
G0 Y50.0 Z4.0
G1 F1000 Y60.4 E0.832
G0 F9000 X54.04 Y50.0 Z4.2
G1 F1000 Y60.4 E0.832
G0 F9000 X54.28 Y50.0 Z4.4
G1 F1000 Y60.4 E0.832
G0 F9000 X54.52 Y50.0 Z4.6
G1 F1000 Y60.4 E0.832
G0 F9000 X54.76 Y50.0 Z4.8
G1 F1000 Y60.4 E0.832
G0 F9000 X55.0 Y50.0 Z5.0
G1 F1000 Y60.4 E0.832
G0 F9000 X55.24 Y50.0 Z5.2
G1 F1000 Y60.4 E0.832
G0 F9000 X55.48 Y50.0 Z5.4
G1 F1000 Y60.4 E0.832
G0 F9000 X55.72 Y50.0 Z5.6
G1 F1000 Y60.4 E0.832
G0 F9000 X55.96 Y50.0 Z5.8
G1 F1000 Y60.4 E0.832
G0 F9000 X56.2 Y50.0 Z6.0
G1 F1000 Y60.4 E0.832
G0 F9000 X56.44 Y50.0 Z6.2
G1 F1000 Y60.4 E0.832
G0 F9000 X56.68 Y50.0 Z6.4
G1 F1000 Y60.4 E0.832
G0 F9000 X56.92 Y50.0 Z6.6
G1 F1000 Y60.4 E0.832
G0 F9000 X57.16 Y50.0 Z6.8
G1 F1000 Y60.4 E0.832
G0 F9000 X57.4 Y50.0 Z7.0
G1 F1000 Y60.4 E0.832
G0 F9000 X57.64 Y50.0 Z7.2
G1 F1000 Y60.4 E0.832
G0 F9000 X57.88 Y50.0 Z7.4
G1 F1000 Y60.4 E0.832
G0 F9000 X58.12 Y50.0 Z7.6
G1 F1000 Y60.4 E0.832
G0 F9000 X58.36 Y50.0 Z7.8
G1 F1000 Y60.4 E0.832
G0 F9000 Z8.8
G0 Y50.0 Z7.8
G1 F1000 Y60.4 E0.832
G0 F9000 X58.64 Y50.0 Z8.0
G1 F1000 Y60.4 E0.832
G0 F9000 X58.92 Y50.0 Z8.2
G1 F1000 Y60.4 E0.832
G0 F9000 X59.2 Y50.0 Z8.4
G1 F1000 Y60.4 E0.832
G0 F9000 X59.48 Y50.0 Z8.6
G1 F1000 Y60.4 E0.832
G0 F9000 X59.76 Y50.0 Z8.8
G1 F1000 Y60.4 E0.832
G0 F9000 X60.04 Y50.0 Z9.0
G1 F1000 Y60.4 E0.832
G0 F9000 X60.32 Y50.0 Z9.2
G1 F1000 Y60.4 E0.832
G0 F9000 X60.6 Y50.0 Z9.4
G1 F1000 Y60.4 E0.832
G0 F9000 X60.88 Y50.0 Z9.6
G1 F1000 Y60.4 E0.832
G0 F9000 X61.16 Y50.0 Z9.8
G1 F1000 Y60.4 E0.832
G0 F9000 X61.44 Y50.0 Z10.0
G1 F1000 Y60.4 E0.832
G0 F9000 X61.72 Y50.0 Z10.2
G1 F1000 Y60.4 E0.832
G0 F9000 X62.0 Y50.0 Z10.4
G1 F1000 Y60.4 E0.832
G0 F9000 X62.28 Y50.0 Z10.6
G1 F1000 Y60.4 E0.832
G0 F9000 X62.56 Y50.0 Z10.8
G1 F1000 Y60.4 E0.832
G0 F9000 X62.84 Y50.0 Z11.0
G1 F1000 Y60.4 E0.832
G0 F9000 X63.12 Y50.0 Z11.2
G1 F1000 Y60.4 E0.832
G0 F9000 X63.4 Y50.0 Z11.4
G1 F1000 Y60.4 E0.832
G0 F9000 X63.68 Y50.0 Z11.6
G1 F1000 Y60.4 E0.832
G0 F9000 Z12.6
G0 Y50.0 Z11.6
G1 F1000 Y60.4 E0.832
G0 F9000 X64.0 Y50.0 Z11.8
G1 F1000 Y60.4 E0.832
G0 F9000 X64.32 Y50.0 Z12.0
G1 F1000 Y60.4 E0.832
G0 F9000 X64.64 Y50.0 Z12.2
G1 F1000 Y60.4 E0.832
G0 F9000 X64.96 Y50.0 Z12.4
G1 F1000 Y60.4 E0.832
G0 F9000 X65.28 Y50.0 Z12.6
G1 F1000 Y60.4 E0.832
G0 F9000 X65.6 Y50.0 Z12.8
G1 F1000 Y60.4 E0.832
G0 F9000 X65.92 Y50.0 Z13.0
G1 F1000 Y60.4 E0.832
G0 F9000 X66.24 Y50.0 Z13.2
G1 F1000 Y60.4 E0.832
G0 F9000 X66.56 Y50.0 Z13.4
G1 F1000 Y60.4 E0.832
G0 F9000 X66.88 Y50.0 Z13.6
G1 F1000 Y60.4 E0.832
G0 F9000 X67.2 Y50.0 Z13.8
G1 F1000 Y60.4 E0.832
G0 F9000 X67.52 Y50.0 Z14.0
G1 F1000 Y60.4 E0.832
G0 F9000 X67.84 Y50.0 Z14.2
G1 F1000 Y60.4 E0.832
G0 F9000 X68.16 Y50.0 Z14.4
G1 F1000 Y60.4 E0.832
G0 F9000 X68.48 Y50.0 Z14.6
G1 F1000 Y60.4 E0.832
G0 F9000 X68.8 Y50.0 Z14.8
G1 F1000 Y60.4 E0.832
G0 F9000 X69.12 Y50.0 Z15.0
G1 F1000 Y60.4 E0.832
G0 F9000 X69.44 Y50.0 Z15.2
G1 F1000 Y60.4 E0.832
G0 F9000 X69.76 Y50.0 Z15.4
G1 F1000 Y60.4 E0.832
G0 F9000 Z16.4
G0 Y50.0 Z15.4
G1 F1000 Y60.4 E0.832
G0 F9000 X70.12 Y50.0 Z15.6
G1 F1000 Y60.4 E0.832
G0 F9000 X70.48 Y50.0 Z15.8
G1 F1000 Y60.4 E0.832
G0 F9000 X70.84 Y50.0 Z16.0
G1 F1000 Y60.4 E0.832
G0 F9000 X71.2 Y50.0 Z16.2
G1 F1000 Y60.4 E0.832
G0 F9000 X71.56 Y50.0 Z16.4
G1 F1000 Y60.4 E0.832
G0 F9000 X71.92 Y50.0 Z16.6
G1 F1000 Y60.4 E0.832
G0 F9000 X72.28 Y50.0 Z16.8
G1 F1000 Y60.4 E0.832
G0 F9000 X72.64 Y50.0 Z17.0
G1 F1000 Y60.4 E0.832
G0 F9000 X73.0 Y50.0 Z17.2
G1 F1000 Y60.4 E0.832
G0 F9000 X73.36 Y50.0 Z17.4
G1 F1000 Y60.4 E0.832
G0 F9000 X73.72 Y50.0 Z17.6
G1 F1000 Y60.4 E0.832
G0 F9000 X74.08 Y50.0 Z17.8
G1 F1000 Y60.4 E0.832
G0 F9000 X74.44 Y50.0 Z18.0
G1 F1000 Y60.4 E0.832
G0 F9000 X74.8 Y50.0 Z18.2
G1 F1000 Y60.4 E0.832
G0 F9000 X75.16 Y50.0 Z18.4
G1 F1000 Y60.4 E0.832
G0 F9000 X75.52 Y50.0 Z18.6
G1 F1000 Y60.4 E0.832
G0 F9000 X75.88 Y50.0 Z18.8
G1 F1000 Y60.4 E0.832
G0 F9000 X76.24 Y50.0 Z19.0
G1 F1000 Y60.4 E0.832
G0 F9000 X76.6 Y50.0 Z19.2
G1 F1000 Y60.4 E0.832
G0 F9000 Z20.2
G0 Y50.0 Z19.2

;START OF THE END GCODE

;G10
M107

M84
M82 ;absolute extrusion mode
;End of Gcode
 
 
 

;Version _2.6 of the firmware can abort the print too early if the file ends
;too soon. However if the file hasn't ended yet because there are comments at
;the end of the file, it won't abort yet. Therefore we have to put at least 512
;bytes at the end of the g-code so that the file is not yet finished by the
;time that the motion planner gets flushed. With firmware version _3.3 this
;should be fixed, so this comment wouldn't be necessary any more. Now we have
;to pad this text to make precisely 512 bytes.

;End of Gcode
;SETTING_3 {"global_quality": "[general]\\nversion = 3\\nname = Fine #2\\ndefini
;SETTING_3 tion = ultimaker2_plus\\n\\n[metadata]\\nsetting_version = 4\\nqualit
;SETTING_3 y_type = normal\\ntype = quality_changes\\n\\n[values]\\nadhesion_typ
;SETTING_3 e = none\\nlayer_height = 0.2\\nlayer_height_0 = 0.3\\n\\n", "extrude
;SETTING_3 r_quality": ["[general]\\nversion = 3\\nname = Fine #2\\ndefinition =
;SETTING_3  ultimaker2_plus\\n\\n[metadata]\\nsetting_version = 4\\nquality_type
;SETTING_3  = normal\\nposition = 0\\ntype = quality_changes\\n\\n[values]\\nlin
;SETTING_3 e_width = 0.4\\nspeed_print = 25\\n\\n"]}

; END OF END CODE

