G90
G20
(VCarve.To...)
M05
M0;T302
M03S18000
G0X2.948Y4.601Z0.500
G1Z0.000F12.0
X2.967Y4.589Z-0.030F45.0
X2.952Y4.569Z0.000
Z0.500
G0X2.967Y4.589
G1Z-0.030F12.0
X2.998Y4.596Z-0.036F45.0
X3.025Y4.601Z-0.039
X3.052Y4.606Z-0.041
X3.081Y4.610Z-0.042
X3.096Y4.612
X3.144Y4.617Z-0.040
X3.196Y4.621Z-0.035
X3.212Y4.641Z0.000
Z0.500
G0X3.220Y4.604
G1Z0.000F12.0
X3.196Y4.621Z-0.035F45.0
Z0.500
G0X3.217Y5.034
G1Z0.000F12.0
X3.225Y5.049Z-0.017F45.0
X3.242Y5.081Z-0.056
X3.247Y5.090Z-0.066
X3.249Y5.088Z-0.061
Z0.500
G0X3.245Y5.090
G1Z-0.062F12.0
X3.247Z-0.066F45.0
X3.255Y5.104Z-0.067
X3.265Y5.120Z-0.069
X3.274Y5.134
X3.290Y5.159
X3.311Y5.187Z-0.067
X3.327Y5.208Z-0.063
X3.338Y5.222Z-0.059
X3.362Y5.249Z-0.051
X3.374Y5.263Z-0.045
X3.394Y5.284Z-0.035
X3.416Y5.304Z-0.023
X3.431Y5.319Z-0.014
X3.452Y5.338Z0.000
Z0.500
G0X3.451Y5.424
G1Z0.000F12.0
X3.471Y5.416Z-0.028F45.0
X3.474Y5.436Z0.000
Z0.500
G0X3.471Y5.416
G1Z-0.028F12.0
X3.491Y5.380Z-0.043F45.0
X3.505Y5.354Z-0.051
X3.518Y5.326Z-0.059
X3.536Y5.285Z-0.068
X3.546Y5.259Z-0.072
X3.557Y5.227Z-0.077
X3.564Y5.201Z-0.080
X3.569Y5.182Z-0.082
X3.578Y5.139Z-0.085
X3.581Y5.118Z-0.087
X3.584Y5.099Z-0.088
X3.587Y5.057Z-0.091
X3.588Y5.034Z-0.093
X3.587Y4.999Z-0.095
X3.586Y4.979Z-0.097
X3.582Y4.947Z-0.098
X3.578Y4.923Z-0.100
X3.575Y4.905
X3.568Y4.880
X3.562Y4.859
X3.551Y4.834
X3.548Y4.827Z-0.099
X3.545Y4.819Z-0.097
X3.539Y4.804Z-0.091
X3.532Y4.790Z-0.083
X3.525Y4.776Z-0.074
X3.520Y4.766Z-0.066
X3.512Y4.750Z-0.051
X3.503Y4.734Z-0.033
X3.492Y4.718Z-0.013
X3.484Y4.709Z0.000
Z0.500
G0X3.281Y4.006
G1Z0.000F12.0
X3.261Y3.981Z-0.013F45.0
X3.237Y3.951Z-0.027
X3.214Y3.919Z-0.039
X3.191Y3.887Z-0.049
X3.169Y3.853Z-0.058
X3.147Y3.817Z-0.065
X3.126Y3.779Z-0.070
X3.104Y3.736Z-0.075
X3.092Y3.712Z-0.078
X3.063Y3.647Z-0.084
X3.044Y3.601Z-0.088
X3.018Y3.530Z-0.094
X3.001Y3.481Z-0.097
X2.985Y3.430Z-0.100
X2.964Y3.355
X2.950Y3.303
X2.935Y3.235
X2.918Y3.155
X2.900Y3.050
X2.891Y2.985
X2.878Y2.888
X2.871Y2.825
X2.864Y2.744Z-0.097
X2.857Y2.665Z-0.095
X2.853Y2.591Z-0.092
X2.848Y2.475Z-0.088
X2.846Y2.404Z-0.085
X2.845Y2.320Z-0.081
X2.846Y2.242Z-0.078
X2.849Y2.125Z-0.072
X2.852Y2.046Z-0.068
X2.859Y1.939Z-0.062
X2.863Y1.889Z-0.059
X2.869Y1.810Z-0.054
X2.878Y1.731Z-0.049
X2.888Y1.658Z-0.046
X2.899Y1.585Z-0.044
X2.911Y1.514Z-0.042
X2.925Y1.443
X2.933Y1.407
X2.945Y1.357
X2.958Y1.306Z-0.043
X2.978Y1.233Z-0.044
X3.004Y1.148Z-0.046
X3.032Y1.067Z-0.048
X3.061Y0.994Z-0.050
X3.089Y0.927Z-0.051
X3.120Y0.861Z-0.052
X3.151Y0.799
X3.180Y0.747
X3.193Y0.725
X3.206Y0.704Z-0.050
X3.219Y0.686Z-0.048
X3.230Y0.672Z-0.046
X3.241Y0.659Z-0.045
X3.257Y0.642Z-0.044
X3.265Y0.635
X3.287Y0.617Z-0.043
X3.299Y0.609
X3.313Y0.601Z-0.044
X3.326Y0.595
X3.343Y0.587Z-0.045
X3.364Y0.581Z-0.047
X3.379Y0.577Z-0.048
X3.403Y0.573Z-0.051
X3.413Y0.572Z-0.052
X3.434Y0.571Z-0.054
X3.456Y0.572Z-0.056
X3.474Y0.573Z-0.057
X3.488Y0.575Z-0.059
X3.505Y0.578Z-0.060
X3.531Y0.583Z-0.061
X3.557Y0.591Z-0.062
X3.576Y0.597Z-0.063
X3.600Y0.606
X3.610Y0.612Z-0.064
X3.623Y0.620
X3.634Y0.629Z-0.065
X3.644Y0.641Z-0.066
X3.651Y0.653
X3.654Y0.661
X3.656Y0.669Z-0.065
X3.657Y0.676
Y0.683Z-0.063
X3.656Y0.691Z-0.061
X3.653Y0.701Z-0.058
X3.650Y0.710Z-0.054
X3.645Y0.719Z-0.051
X3.634Y0.735Z-0.045
X3.619Y0.752Z-0.039
X3.604Y0.765Z-0.035
X3.588Y0.778Z-0.031
X3.571Y0.789Z-0.029
X3.554Y0.799Z-0.028
X3.535Y0.807Z-0.029
X3.517Y0.815Z-0.031
X3.496Y0.823Z-0.035
X3.471Y0.831Z-0.041
X3.456Y0.838Z-0.043
X3.448Y0.839Z-0.041
X3.434Y0.841Z-0.034
Z0.500
G0X3.411Y0.828
G1Z0.000F12.0
X3.434Y0.841Z-0.034F45.0
X3.425Y0.850Z-0.016
X3.418Y0.859Z0.000
Z0.500
G0X3.479Y2.095
G1Z-0.045F12.0
X3.484Y2.097Z-0.054F45.0
X3.476Z-0.040
Z0.500
G0X3.484
G1Z-0.054F12.0
X3.493Y2.099Z-0.069F45.0
X3.501Y2.101Z-0.080
X3.503Y2.089Z-0.063
X3.506Y2.079Z-0.045
Z0.500
G0X3.503Y2.092
G1Z-0.067F12.0
X3.504Z-0.066F45.0
Z0.500
G0X3.501Y2.101
G1Z-0.080F12.0
X3.512Y2.117Z-0.081F45.0
X3.698Y2.404Z-0.087
X3.789Y2.546Z-0.089
X3.841Y2.629
X3.895Y2.718Z-0.087
X3.922Y2.764Z-0.085
X3.964Y2.836Z-0.082
X3.992Y2.886Z-0.080
X4.020Y2.936Z-0.076
X4.039Y2.973Z-0.074
X4.059Y3.015Z-0.072
X4.081Y3.060Z-0.070
X4.096Y3.095Z-0.069
X4.119Y3.149Z-0.068
X4.131Y3.180
X4.146Y3.221
X4.159Y3.258Z-0.067
X4.180Y3.324Z-0.068
X4.194Y3.376
X4.205Y3.420
X4.218Y3.485Z-0.067
X4.228Y3.549Z-0.066
X4.232Y3.577
X4.236Y3.613
X4.238Y3.649
X4.240Y3.685
Y3.720
Y3.754
X4.238Y3.791
X4.235Y3.825
X4.231Y3.858Z-0.067
X4.223Y3.904
X4.216Y3.941
X4.212Y3.958
X4.202Y3.994Z-0.068
X4.192Y4.027
X4.181Y4.059
X4.169Y4.090
X4.156Y4.119
X4.140Y4.153Z-0.067
X4.123Y4.185
X4.106Y4.216
X4.088Y4.245Z-0.066
X4.070Y4.272
X4.047Y4.305Z-0.065
X4.034Y4.321Z-0.064
X4.001Y4.364Z-0.063
X3.963Y4.407Z-0.061
X3.923Y4.448Z-0.059
X3.880Y4.489Z-0.056
X3.834Y4.530Z-0.054
X3.821Y4.542Z-0.055
X3.807Y4.557Z-0.058
X3.791Y4.575Z-0.062
X3.779Y4.589Z-0.064
X3.767Y4.604Z-0.065
X3.762Y4.610Z-0.064
X3.756Y4.617Z-0.063
X3.748Y4.627Z-0.059
X3.739Y4.638Z-0.053
X3.734Y4.646Z-0.048
X3.727Y4.657Z-0.041
Z0.500
G0X3.709Y4.662
G1Z-0.012F12.0
X3.727Y4.657Z-0.041F45.0
X3.724Y4.689Z0.000
Z0.500
G0X2.774Y5.036
G1Z0.000F12.0
X2.784Y5.059Z-0.017F45.0
X2.788Y5.070Z-0.025
X2.792Y5.081Z-0.031
X2.794Y5.092Z-0.035
X2.797Y5.104Z-0.039
X2.799Y5.120Z-0.043
X2.800Y5.132Z-0.045
Y5.143
Y5.155
X2.799Y5.166Z-0.043
X2.797Y5.177Z-0.041
X2.794Y5.193Z-0.036
X2.792Y5.205Z-0.031
X2.788Y5.216Z-0.025
X2.784Y5.227Z-0.017
X2.774Y5.250Z0.000
Z0.500
G0X2.726Y5.368
G1Z0.000F12.0
X2.769Y5.344Z-0.019F45.0
X2.794Y5.330Z-0.029
X2.813Y5.318Z-0.036
X2.849Y5.297Z-0.046
X2.872Y5.283Z-0.052
X2.901Y5.264Z-0.057
X2.935Y5.242Z-0.060
X2.952Y5.230Z-0.061
X2.969Y5.219
X2.994Y5.201Z-0.059
X3.003Y5.197Z-0.056
X3.013Y5.192Z-0.051
X3.033Y5.184Z-0.038
X3.041Y5.174Z-0.022
X3.050Y5.160Z0.000
Z0.500
G0Y5.189
G1Z-0.013F12.0
X3.033Y5.184Z-0.038F45.0
Z0.500
G0X2.547Y4.448
G1Z0.000F12.0
X2.605Y4.506Z-0.026F45.0
X2.627Y4.528Z-0.035
X2.640Y4.543Z-0.039
X2.653Y4.558Z-0.043
X2.666Y4.573Z-0.045
X2.680Y4.592Z-0.047
X2.692Y4.612Z-0.048
X2.696Y4.622
X2.703Y4.640Z-0.050
X2.707Y4.657Z-0.052
X2.709Y4.673Z-0.055
Y4.683Z-0.056
X2.708Y4.699Z-0.060
X2.703Y4.723Z-0.065
X2.698Y4.742Z-0.067
X2.695Y4.758
X2.694Y4.773
Y4.783
X2.695Y4.798
X2.699Y4.812
X2.702Y4.823Z-0.066
X2.709Y4.839
X2.715Y4.851
X2.726Y4.868
X2.735Y4.879Z-0.067
X2.749Y4.896Z-0.068
X2.781Y4.928Z-0.072
X2.812Y4.956Z-0.076
X2.832Y4.973Z-0.078
X2.856Y4.993Z-0.080
X2.872Y5.006Z-0.081
X2.905Y5.029Z-0.083
X2.930Y5.045
X2.963Y5.065Z-0.082
X2.988Y5.078Z-0.081
X3.016Y5.092Z-0.078
X3.040Y5.103Z-0.074
X3.068Y5.114Z-0.070
X3.081Y5.119Z-0.067
X3.108Y5.128Z-0.061
X3.141Y5.138Z-0.052
X3.154Y5.142Z-0.048
X3.189Y5.154Z-0.034
X3.193Y5.155Z-0.032
X3.200Z-0.027
X3.208Z-0.019
X3.227Y5.153Z0.000
Z0.500
G0X2.536Y4.405
G1Z0.000F12.0
X2.550Y4.395Z-0.013F45.0
X2.572Y4.381Z-0.033
X2.588Y4.372Z-0.044
X2.596Y4.368Z-0.048
Z0.500
G0
G1Z-0.048F12.0
X2.600Z-0.047F45.0
X2.603Y4.369Z-0.046
X2.616Y4.372Z-0.037
X2.635Y4.378Z-0.023
X2.662Y4.387Z0.000
Z0.500
G0X2.597Y4.368
G1Z-0.048F12.0
X2.596Y4.365Z-0.043F45.0
Z0.500
G0X2.652Y4.239
G1Z0.000F12.0
X2.675Z-0.029F45.0
X2.674Y4.262Z0.000
Z0.500
G0X2.675Y4.239
G1Z-0.029F12.0
X2.761Y4.154Z-0.044F45.0
X2.793Y4.125Z-0.049
X2.805Y4.115Z-0.051
X2.818Y4.106Z-0.055
X2.828Y4.100Z-0.057
X2.842Y4.096Z-0.060
X2.856Y4.095Z-0.063
X2.871Z-0.064
X2.958Y4.100Z-0.059
X3.030Y4.106Z-0.058
X3.100Y4.114
X3.152Y4.120Z-0.060
X3.202Y4.128Z-0.063
X3.252Y4.137Z-0.068
X3.285Y4.143Z-0.072
X3.335Y4.154Z-0.081
X3.360Y4.161Z-0.085
X3.378Y4.166Z-0.088
X3.394Y4.171Z-0.090
X3.410Y4.178Z-0.091
X3.432Y4.188Z-0.092
X3.446Y4.196
X3.460Y4.204Z-0.093
X3.473Y4.214
X3.495Y4.233Z-0.094
X3.514Y4.254Z-0.095
X3.524Y4.266Z-0.096
X3.533Y4.279Z-0.097
X3.546Y4.303Z-0.100
X3.552Y4.317
X3.558Y4.330
X3.564Y4.349
X3.567Y4.366
X3.571Y4.395
X3.572Y4.418
Y4.426Z-0.099
Y4.450Z-0.092
X3.570Y4.474Z-0.082
X3.567Y4.490Z-0.073
X3.564Y4.507Z-0.064
X3.558Y4.533Z-0.046
X3.549Y4.561Z-0.023
X3.540Y4.585Z0.000
Z0.500
G0X2.741Y3.550
G1Z0.000F12.0
X2.721Y3.517Z-0.013F45.0
X2.716Y3.508Z-0.014
X2.711Y3.500Z-0.017
X2.682Y3.454Z-0.033
X2.661Y3.424Z-0.043
X2.641Y3.394Z-0.051
X2.608Y3.347Z-0.063
X2.587Y3.318Z-0.069
X2.564Y3.288Z-0.075
X2.516Y3.226Z-0.085
X2.478Y3.178Z-0.090
X2.452Y3.146Z-0.093
X2.424Y3.113Z-0.095
X2.395Y3.079Z-0.096
X2.365Y3.044Z-0.097
X2.271Y2.936Z-0.096
X2.034Y2.670Z-0.092
X1.972Y2.600Z-0.090
X1.880Y2.494Z-0.086
X1.789Y2.387Z-0.081
X1.717Y2.301Z-0.077
X1.684Y2.259Z-0.075
X1.641Y2.202Z-0.072
X1.606Y2.153Z-0.069
X1.565Y2.093Z-0.066
X1.524Y2.028Z-0.062
X1.498Y1.984Z-0.060
X1.473Y1.939Z-0.058
X1.449Y1.893Z-0.056
X1.428Y1.849Z-0.055
X1.414Y1.819Z-0.054
X1.400Y1.789Z-0.053
X1.382Y1.746Z-0.052
X1.364Y1.696Z-0.051
X1.353Y1.667
X1.344Y1.640
X1.333Y1.603Z-0.052
X1.321Y1.560Z-0.053
X1.315Y1.532Z-0.054
X1.303Y1.480Z-0.057
X1.299Y1.453Z-0.059
X1.291Y1.398Z-0.064
X1.287Y1.372Z-0.066
X1.283Y1.323Z-0.072
X1.282Y1.286Z-0.076
Y1.262Z-0.078
X1.284Y1.226Z-0.081
X1.286Y1.202Z-0.083
X1.291Y1.168Z-0.085
X1.295Y1.145Z-0.087
X1.305Y1.101Z-0.090
X1.312Y1.076Z-0.091
X1.322Y1.048Z-0.093
X1.333Y1.020Z-0.094
X1.341Y1.003Z-0.095
X1.350Y0.985Z-0.096
X1.363Y0.961Z-0.097
X1.379Y0.935Z-0.098
X1.392Y0.916
X1.410Y0.893Z-0.099
X1.431Y0.869Z-0.100
X1.452Y0.847
X1.472Y0.829
X1.488Y0.816
X1.506Y0.802
X1.532Y0.785Z-0.099
X1.555Y0.771Z-0.097
X1.577Y0.759Z-0.096
X1.612Y0.743Z-0.093
X1.643Y0.730Z-0.090
X1.677Y0.718Z-0.088
X1.711Y0.707Z-0.086
X1.737Y0.701Z-0.085
X1.761Y0.696Z-0.084
X1.791Y0.691Z-0.083
X1.812Y0.689Z-0.082
X1.846Y0.686Z-0.081
X1.883Z-0.080
X1.914Y0.687Z-0.079
X1.938Y0.689
X1.961Y0.692
X1.994Y0.697
X2.027Y0.705
X2.050Y0.711
X2.083Y0.721Z-0.080
X2.107Y0.729Z-0.081
X2.143Y0.744Z-0.082
X2.174Y0.758Z-0.083
X2.189Y0.766Z-0.084
X2.215Y0.781Z-0.083
X2.241Y0.798Z-0.082
X2.266Y0.817
X2.276Y0.824Z-0.083
X2.283Y0.830Z-0.082
X2.313Y0.854Z-0.081
X2.332Y0.872Z-0.080
X2.350Y0.889Z-0.081
X2.366Y0.906
X2.381Y0.924
X2.409Y0.958Z-0.082
X2.435Y0.993Z-0.083
X2.455Y1.021Z-0.084
X2.481Y1.063Z-0.085
X2.501Y1.097Z-0.086
X2.516Y1.127
X2.537Y1.172Z-0.088
X2.551Y1.204Z-0.089
X2.563Y1.240Z-0.091
X2.573Y1.272Z-0.092
X2.585Y1.317Z-0.094
X2.591Y1.348Z-0.095
X2.597Y1.390Z-0.096
X2.600Y1.421Z-0.097
X2.601Y1.456
X2.599Y1.496
X2.597Y1.518
X2.591Y1.545
X2.587Y1.559
X2.582Y1.571
X2.577Y1.585
X2.569Y1.599Z-0.096
X2.555Y1.622
X2.543Y1.637Z-0.095
X2.532Y1.648Z-0.094
X2.524Y1.655
X2.509Y1.667Z-0.093
X2.499Y1.673Z-0.092
X2.489Y1.678
X2.471Y1.686Z-0.091
X2.449Y1.693Z-0.090
X2.443Y1.694
Z0.500
G0X2.460Y1.690
G1Z-0.091F12.0
X2.454Y1.676Z-0.064F45.0
Z0.500
G0X2.437Y1.659
G1Z-0.029F12.0
X2.443Y1.694Z-0.090F45.0
X2.427Y1.696
X2.416Z-0.089
Z0.500
G0X2.261Y1.571
G1Z-0.080F12.0
X2.301Y1.558Z-0.007F45.0
Z0.500
G0X2.261Y1.569
G1Z-0.080F12.0
X2.266Y1.584Z-0.081F45.0
X2.270Y1.594
X2.276Y1.607
X2.284Y1.619Z-0.082
X2.292Y1.631Z-0.083
X2.301Y1.643Z-0.084
X2.315Y1.657Z-0.085
X2.326Y1.667Z-0.086
X2.344Y1.679Z-0.087
X2.356Y1.685
X2.369Y1.690Z-0.088
X2.383Y1.693Z-0.089
X2.396Y1.695
X2.401Y1.696
X2.416
X2.414Y1.671Z-0.046
Z0.500
G0X2.259Y1.565
G1Z-0.079F12.0
X2.261Y1.569Z-0.080F45.0
X2.224Y1.579Z-0.015
Z0.500
G0X2.228Y1.465
G1Z-0.100F12.0
X2.234Y1.475Z-0.095F45.0
X2.241Y1.487Z-0.084
X2.247Y1.502Z-0.077
X2.250Y1.515Z-0.075
X2.253Y1.540Z-0.077
X2.257Y1.555Z-0.078
X2.259Y1.565Z-0.079
X2.284Y1.554Z-0.033
X2.297Y1.547Z-0.007
X2.300Y1.544Z-0.000
Z0.500
G0X2.104Y1.576
G1Z-0.079F12.0
X2.110Y1.572Z-0.078F45.0
X2.121Y1.562Z-0.076
X2.140Y1.543Z-0.073
X2.160Y1.520Z-0.071
X2.174Y1.501Z-0.068
X2.179Y1.495
X2.187Y1.487Z-0.070
X2.198Y1.479Z-0.077
X2.212Y1.471Z-0.090
X2.228Y1.465Z-0.100
X2.230Y1.457
X2.247Y1.400Z-0.074
X2.260Y1.358Z-0.056
X2.271Y1.326Z-0.044
X2.299Y1.216Z-0.010
X2.307Y1.182Z0.000
Z0.500
G0X2.218Y1.104
G1Z-0.076F12.0
X2.223Y1.101Z-0.074F45.0
X2.234Y1.095Z-0.073
X2.246Y1.088Z-0.071
X2.265Y1.074Z-0.066
X2.278Y1.060Z-0.061
X2.283Y1.053Z-0.059
X2.291Y1.041Z-0.054
X2.297Y1.026Z-0.048
X2.299Y1.015Z-0.045
X2.300Y0.998Z-0.041
X2.299Y0.988Z-0.038
X2.297Y0.979Z-0.036
X2.294Y0.971Z-0.034
X2.289Y0.960Z-0.031
X2.283Y0.951Z-0.030
X2.274Y0.941Z-0.028
X2.267Y0.934Z-0.026
X2.256Y0.925Z-0.024
X2.239Y0.914Z-0.021
X2.224Y0.906Z-0.018
X2.208Y0.899Z-0.016
X2.199Y0.896Z-0.014
X2.185Y0.892Z-0.012
X2.175Y0.890Z-0.011
X2.154Y0.887Z-0.008
X2.139Y0.886Z-0.007
X2.121Z-0.005
X2.107Y0.887Z-0.003
X2.094Y0.889Z0.000
Z0.500
G0X2.276Y0.824
G1Z-0.083F12.0
X2.286Y0.806Z-0.047F45.0
X2.293Y0.793Z-0.022
X2.296Y0.785Z-0.007
X2.297Y0.782Z-0.003
X2.296Y0.780Z-0.001
X2.294Y0.778Z0.000
Z0.500
G0X1.908Y1.202
G1Z-0.004F12.0
X1.912Y1.209Z-0.017F45.0
X1.936Y1.246Z-0.094
Z0.500
G0X1.944Y1.240
G1Z-0.093F12.0
X1.921Y1.212Z-0.031F45.0
Z0.500
G0X1.916Y1.537
G1Z-0.010F12.0
X1.902Y1.549Z-0.042F45.0
X1.879Y1.569Z-0.093
X1.872Y1.560Z-0.094
X1.864Y1.550Z-0.095
X1.858Y1.539Z-0.096
X1.850Y1.526
X1.845Y1.513Z-0.097
X1.839Y1.497
X1.836Y1.484
X1.834Y1.473Z-0.098
X1.832Y1.458
Y1.444
Y1.430
X1.836Y1.404
X1.842Y1.382
X1.846Y1.368
X1.851Y1.357
X1.857Y1.344Z-0.097
X1.864Y1.330
X1.875Y1.312Z-0.096
X1.887Y1.295
X1.894Y1.286
X1.905Y1.274
X1.916Y1.263Z-0.095
X1.925Y1.255
X1.933Y1.249Z-0.094
X1.940Y1.243Z-0.093
X1.958Y1.230
X1.965Y1.225Z-0.092
X2.003Y1.203Z-0.090
X2.016Y1.196
X2.041Y1.184Z-0.089
X2.066Y1.172Z-0.087
X2.163Y1.130Z-0.080
X2.185Y1.120Z-0.079
X2.218Y1.104Z-0.076
X2.234Y1.127Z-0.027
X2.243Y1.138Z-0.003
Z0.500
G0X2.084Y1.534
G1Z-0.001F12.0
Y1.536Z-0.002F45.0
X2.085Y1.540Z-0.009
X2.088Y1.548Z-0.023
X2.101Y1.572Z-0.070
X2.085Y1.554Z-0.029
Z0.500
G0X2.101Y1.572
G1Z-0.070F12.0
X2.104Y1.576Z-0.079F45.0
X2.101Y1.578
Z0.500
G0X1.900Y1.587
G1Z-0.092F12.0
X1.905Y1.591F45.0
X1.921Y1.601Z-0.091
X1.933Y1.607Z-0.090
X1.947Y1.612Z-0.089
X1.961Y1.615
X1.970Y1.617Z-0.088
X1.981Y1.618
X1.995Z-0.087
X2.009Y1.617Z-0.086
X2.022Y1.614Z-0.085
X2.036Y1.611Z-0.084
X2.049Y1.606Z-0.083
X2.063Y1.601Z-0.082
X2.076Y1.594Z-0.081
X2.081Y1.591
X2.098Y1.580Z-0.079
X2.101Y1.578
X2.117Y1.600Z-0.033
Z0.500
G0X1.890Y1.579
G1Z-0.092F12.0
X1.900Y1.587F45.0
X1.923Y1.557Z-0.027
Z0.500
G0X1.888Y1.576
G1Z-0.093F12.0
X1.890Y1.579Z-0.092F45.0
X1.866Y1.609Z-0.026
Z0.500
G0X1.871Y1.585
G1Z-0.063F12.0
X1.882Y1.571Z-0.093F45.0
X1.879Y1.569
Z0.500
G0X1.882Y1.571
G1Z-0.093F12.0
X1.888Y1.576F45.0
X1.910Y1.550Z-0.033
X1.921Y1.537Z-0.004
Z0.500
G0X3.920Y2.238
G1Z0.000F12.0
X3.898Y2.225Z-0.033F45.0
X3.884Y2.181Z-0.046
X3.875Y2.154Z-0.054
X3.864Y2.120Z-0.061
X3.858Y2.099Z-0.064
X3.851Y2.068Z-0.067
X3.845Y2.037Z-0.070
X3.833Y1.975Z-0.075
X3.823Y1.913Z-0.079
X3.814Y1.851Z-0.081
X3.807Y1.790Z-0.083
X3.802Y1.727
X3.799Y1.696
X3.796Y1.634Z-0.082
X3.793Y1.570Z-0.081
X3.792Y1.529Z-0.079
Y1.474Z-0.077
Y1.376Z-0.073
X3.794Y1.277Z-0.067
X3.798Y1.178Z-0.061
X3.799Y1.166Z-0.060
X3.801Y1.141Z-0.061
X3.803Y1.129Z-0.062
X3.807Y1.102Z-0.065
X3.813Y1.066Z-0.070
X3.815Y1.059Z-0.071
X3.819Y1.046
X3.824Y1.034Z-0.069
X3.830Y1.022Z-0.066
X3.838Y1.011Z-0.063
X3.849Y1.000Z-0.060
X3.863Y0.990Z-0.057
X3.870Y0.985Z-0.055
X3.880Y0.980Z-0.053
X3.891Y0.975Z-0.052
X3.935Y0.958Z-0.050
X4.042Y0.919
X4.068Y0.907Z-0.049
X4.087Y0.897Z-0.047
X4.098Y0.889Z-0.046
X4.106Y0.883
X4.115Y0.873
X4.121Y0.865
X4.125Y0.855Z-0.047
X4.128Y0.845
X4.130Y0.834
Y0.824
X4.129Y0.815
X4.127Y0.804
X4.121Y0.786
X4.117Y0.777
X4.112Y0.768
X4.107Y0.761
X4.100Y0.753
X4.092Y0.745
X4.084Y0.739
X4.076Y0.734
X4.067Y0.729
X4.057Y0.725
X4.048Y0.722Z-0.048
X4.030Y0.718Z-0.049
X4.016Y0.717Z-0.050
X3.996Z-0.051
X3.968Y0.718
X3.941Y0.721Z-0.050
X3.923Y0.723Z-0.048
X3.914Y0.725Z-0.046
X3.896Y0.730Z-0.041
X3.886Y0.733Z-0.038
X3.870Y0.739Z-0.031
X3.847Y0.749Z-0.017
X3.822Y0.761Z0.000
Z0.500
G0X4.059Y0.912
G1Z-0.049F12.0
X4.048Y0.893Z-0.013F45.0
Z0.500
G0X3.898Y2.225
G1Z-0.033F12.0
X3.889Y2.249Z0.000F45.0
Z0.500
M05
M02
