%
(Header)
(Generated by gcodetools from Inkscape.)
(Using default header. To add your own header create file "header" in the output dir.)
M3
(Header end.)
G21 (All units in mm)

(Start cutting path id: path7232-9)
(Change tool to Cylindrical cutter)

G00 Z 5.0000
G00 X 0.8749 Y 32.5860

G01 Z -0.1250 F 100.0000(Penetrate)
G01 X 0.8749 Y 0.8749 Z -0.1250 F 600.0000
G01 X 22.2896 Y 0.8749 Z -0.1250
G00 Z 5.0000

(End cutting path id: path7232-9)

(Start cutting path id: path4257-3-1)
(Change tool to Cylindrical cutter)

G00 Z 5.0000
G00 X 48.2303 Y 32.4725

G01 Z -0.1250 F 100.0000(Penetrate)
G01 X 46.1458 Y 32.1861 Z -0.1250 F 600.0000
G01 X 44.1170 Y 31.6024 Z -0.1250
G01 X 42.1798 Y 30.7435 Z -0.1250
G01 X 40.3622 Y 29.6266 Z -0.1250
G01 X 38.7336 Y 28.2635 Z -0.1250
G01 X 37.2911 Y 26.6989 Z -0.1250
G01 X 36.0766 Y 24.9415 Z -0.1250
G01 X 35.1011 Y 23.0199 Z -0.1250
G01 X 34.3924 Y 20.9905 Z -0.1250
G01 X 33.9643 Y 18.8789 Z -0.1250
G01 X 33.8197 Y 16.7418 Z -0.1250
G01 X 33.9643 Y 14.5906 Z -0.1250
G01 X 34.3924 Y 12.4790 Z -0.1250
G01 X 35.1011 Y 10.4497 Z -0.1250
G01 X 36.0766 Y 8.5420 Z -0.1250
G01 X 37.2911 Y 6.7706 Z -0.1250
G01 X 38.7336 Y 5.2060 Z -0.1250
G01 X 40.3622 Y 3.8429 Z -0.1250
G01 X 42.1798 Y 2.7261 Z -0.1250
G01 X 44.1170 Y 1.8671 Z -0.1250
G01 X 46.1458 Y 1.2834 Z -0.1250
G01 X 48.2303 Y 0.9971 Z -0.1250
G01 X 50.3536 Y 0.9971 Z -0.1250
G01 X 52.4353 Y 1.2834 Z -0.1250
G01 X 54.4669 Y 1.8671 Z -0.1250
G01 X 56.4179 Y 2.7261 Z -0.1250
G01 X 58.2189 Y 3.8429 Z -0.1250
G01 X 59.8503 Y 5.2060 Z -0.1250
G01 X 61.2928 Y 6.7706 Z -0.1250
G01 X 62.5073 Y 8.5420 Z -0.1250
G01 X 63.4828 Y 10.4497 Z -0.1250
G01 X 64.1888 Y 12.4790 Z -0.1250
G01 X 64.6168 Y 14.5906 Z -0.1250
G01 X 64.7640 Y 16.7418 Z -0.1250
G01 X 64.6168 Y 18.8789 Z -0.1250
G01 X 64.1888 Y 20.9905 Z -0.1250
G01 X 63.4828 Y 23.0199 Z -0.1250
G01 X 62.5073 Y 24.9415 Z -0.1250
G01 X 61.2928 Y 26.6989 Z -0.1250
G01 X 59.8503 Y 28.2635 Z -0.1250
G01 X 58.2189 Y 29.6266 Z -0.1250
G01 X 56.4179 Y 30.7435 Z -0.1250
G01 X 54.4669 Y 31.6024 Z -0.1250
G01 X 52.4353 Y 32.1861 Z -0.1250
G01 X 50.3536 Y 32.4725 Z -0.1250
G01 X 48.2303 Y 32.4725 Z -0.1250
G00 Z 5.0000

(End cutting path id: path4257-3-1)

(Start cutting path id: path7328-9)
(Change tool to Cylindrical cutter)

G00 Z 5.0000
G00 X 80.5703 Y 0.8835
G01 Z -0.1250 F 100.0000(Penetrate)
G01 X 80.5703 Y 32.5213 Z -0.1250 F 600.0000
G01 X 106.8908 Y 0.8223 Z -0.1250
G01 X 106.8924 Y 32.5864 Z -0.1250
G00 Z 5.0000

(End cutting path id: path7328-9)

(Start cutting path id: path3473-4-7)
(Change tool to Cylindrical cutter)

G00 Z 5.0000
G00 X 150.5017 Y 28.0602

G01 Z -0.1250 F 100.0000(Penetrate)
G01 X 148.8755 Y 29.4974 Z -0.1250 F 600.0000
G01 X 147.0732 Y 30.6997 Z -0.1250
G01 X 145.1218 Y 31.6396 Z -0.1250
G01 X 143.0619 Y 32.3029 Z -0.1250
G01 X 140.9345 Y 32.6761 Z -0.1250
G01 X 138.7797 Y 32.7326 Z -0.1250
G01 X 136.6384 Y 32.4976 Z -0.1250
G01 X 134.5517 Y 31.9586 Z -0.1250
G01 X 132.5461 Y 31.1432 Z -0.1250
G01 X 130.6757 Y 30.0515 Z -0.1250
G01 X 128.9684 Y 28.7110 Z -0.1250
G01 X 127.4639 Y 27.1355 Z -0.1250
G01 X 126.1767 Y 25.3664 Z -0.1250
G01 X 125.1470 Y 23.4455 Z -0.1250
G01 X 124.3744 Y 21.3864 Z -0.1250
G01 X 123.8866 Y 19.2442 Z -0.1250
G01 X 123.6968 Y 17.0468 Z -0.1250
G01 X 123.8052 Y 14.8493 Z -0.1250
G01 X 124.2119 Y 12.6934 Z -0.1250
G01 X 124.8896 Y 10.6066 Z -0.1250
G01 X 125.8516 Y 8.6441 Z -0.1250
G01 X 127.0712 Y 6.8198 Z -0.1250
G01 X 128.5214 Y 5.1891 Z -0.1250
G01 X 130.1746 Y 3.7795 Z -0.1250
G01 X 132.0042 Y 2.6187 Z -0.1250
U25E23
G01 X 133.9691 Y 1.7204 Z -0.1250
G01 X 136.0289 Y 1.0984 Z -0.1250
G01 X 138.1698 Y 0.7805 Z -0.1250
G01 X 140.3246 Y 0.7532 Z -0.1250
G01 X 142.4659 Y 1.0297 Z -0.1250
G01 X 144.5392 Y 1.6101 Z -0.1250
G01 X 146.5313 Y 2.4670 Z -0.1250
G01 X 148.3744 Y 3.6001 Z -0.1250
G01 X 150.0548 Y 4.9822 Z -0.1250
G01 X 151.5319 Y 6.5854 Z -0.1250
G01 X 152.7784 Y 8.3681 Z -0.1250
G01 X 153.7813 Y 10.3168 Z -0.1250
G01 X 154.5131 Y 12.3897 Z -0.1250
G01 X 154.9467 Y 14.5458 Z -0.1250
G01 X 155.0957 Y 16.7432 Z -0.1250
G01 X 139.4049 Y 16.7432 Z -0.1250 F 600.0000
G00 Z 5.0000

(End cutting path id: path7360-9)



(Start cutting path id: path7309-4)
(Change tool to Cylindrical cutter)

G00 Z 5.0000
G00 X 172.0513 Y 0.8833

G01 Z -0.1250 F 100.0000(Penetrate)
G01 X 172.0513 Y 32.6475 Z -0.1250 F 600.0000
G01 X 188.1564 Y 16.7843 Z -0.1250
G01 X 204.2533 Y 32.6475 Z -0.1250
G01 X 204.2533 Y 0.8833 Z -0.1250
G00 Z 5.0000

(End cutting path id: path7309-4)


(Start cutting path id: path7232-3-1)
(Change tool to Cylindrical cutter)

G00 Z 5.0000
G00 X 222.9090 Y 32.5904

G01 Z -0.1250 F 100.0000(Penetrate)
G01 X 222.9090 Y 0.8793 Z -0.1250 F 600.0000
G00 Z 5.0000

(End cutting path id: path7232-3-1)



(Start cutting path id: path7232-2-8)
(Change tool to Cylindrical cutter)

G00 Z 5.0000
G00 X 241.5176 Y 32.6646

G01 Z -0.1250 F 100.0000(Penetrate)
G01 X 241.5176 Y 0.9535 Z -0.1250 F 600.0000
G01 X 262.9323 Y 0.9535 Z -0.1250
G00 Z 5.0000

(End cutting path id: path7232-2-8)


(Start cutting path id: path7232-4-6)
(Change tool to Cylindrical cutter)

G00 Z 5.0000
G00 X 279.4320 Y 32.6646

G01 Z -0.1250 F 100.0000(Penetrate)
G01 X 279.4320 Y 0.9535 Z -0.1250 F 600.0000
G01 X 300.8467 Y 0.9535 Z -0.1250
D1231230213 A5000
G00 Z 5.0000
A3000

(End cutting path id: path7232-4-6)


(Footer)
M5
G00 X0.0000 Y0.0000
M2
(Using default footer. To add your own footer create file "footer" in the output dir.)
(end)
%
